(G-CODE GENERATED BY FLATCAM v8.994 - www.flatcam.org - Version Date: 2020/11/7)

(Name: 3018Pendant-B_Cu.gbr_iso_combined_cnc)
(Type: G-code from Geometry)
(Units: MM)

(Created on Thursday, 27 January 2022 at 18:10)

(This preprocessor is the default preprocessor used by FlatCAM.)
(It is made to work with MACH3 compatible motion controllers.)

(TOOL DIAMETER: 0.5 mm)
(Feedrate_XY: 80.0 mm/min)
(Feedrate_Z: 60.0 mm/min)
(Feedrate rapids 1500.0 mm/min)

(Z_Cut: -0.11 mm)
(Z_Move: 2.0 mm)
(Z Start: None mm)
(Z End: 5.0 mm)
(X,Y End: None mm)
(Steps per circle: 64)
(Preprocessor Geometry: Default_no_M6)

(X range:    3.8650 ...   60.5700  mm)
(Y range:    4.1248 ...   44.2752  mm)

(Spindle Speed: 1000.0 RPM)
G21
G90
G94

G01 F80.00

M5
G00 Z15.0000
G00 X0.0000 Y0.0000
T2
(MSG, Change to Tool Dia = 0.5000)
M0
G00 Z15.0000
        
M03 S1000.0
G4 P1.0
G01 F80.00
G00 X12.9146 Y7.2993
G01 F60.00
G01 Z-0.1100
G01 F80.00
G01 X18.1558 Y7.2998
G01 X18.2178 Y7.2435
G01 X18.2410 Y7.2235
G01 X18.2652 Y7.2046
G01 X18.3407 Y7.1488
G01 X18.3662 Y7.1318
G01 X18.4466 Y7.0834
G01 X18.4733 Y7.0683
G01 X18.4869 Y7.0612
G01 X18.5716 Y7.0209
G01 X18.5997 Y7.0085
G01 X18.6283 Y6.9974
G01 X18.7167 Y6.9660
G01 X18.7461 Y6.9571
G01 X18.8371 Y6.9341
G01 X18.8670 Y6.9274
G01 X18.8972 Y6.9221
G01 X18.9749 Y6.9106
G01 X19.0053 Y6.9069
G01 X19.0359 Y6.9046
G01 X19.1143 Y6.9008
G01 X19.1450 Y6.9000
G01 X20.5450 Y6.9000
G01 X20.5757 Y6.9008
G01 X20.6541 Y6.9046
G01 X20.6694 Y6.9055
G01 X20.6999 Y6.9086
G01 X20.7928 Y6.9221
G01 X20.8230 Y6.9274
G01 X20.8529 Y6.9341
G01 X20.9439 Y6.9571
G01 X20.9733 Y6.9660
G01 X20.9878 Y6.9710
G01 X21.0617 Y6.9974
G01 X21.0903 Y7.0085
G01 X21.1184 Y7.0209
G01 X21.2031 Y7.0612
G01 X21.2302 Y7.0757
G01 X21.2434 Y7.0834
G01 X21.3238 Y7.1318
G01 X21.3493 Y7.1488
G01 X21.4248 Y7.2046
G01 X21.4490 Y7.2235
G01 X21.4722 Y7.2435
G01 X21.5304 Y7.2962
G01 X21.5416 Y7.3067
G01 X21.5633 Y7.3284
G01 X21.6265 Y7.3978
G01 X21.6465 Y7.4210
G01 X21.6654 Y7.4452
G01 X21.7212 Y7.5207
G01 X21.7382 Y7.5462
G01 X21.7463 Y7.5592
G01 X21.7866 Y7.6266
G01 X21.8017 Y7.6533
G01 X21.8155 Y7.6807
G01 X21.8491 Y7.7516
G01 X21.8555 Y7.7656
G01 X21.8672 Y7.7939
G01 X21.9040 Y7.8967
G01 X21.9129 Y7.9261
G01 X21.9168 Y7.9409
G01 X21.9394 Y8.0320
G01 X21.9426 Y8.0470
G01 X21.9479 Y8.0772
G01 X21.9614 Y8.1701
G01 X21.9645 Y8.2006
G01 X21.9692 Y8.2943
G01 X21.9698 Y8.3097
G01 X21.9698 Y8.3403
G01 X21.9645 Y8.4494
G01 X21.9614 Y8.4799
G01 X21.9479 Y8.5728
G01 X21.9426 Y8.6030
G01 X21.9359 Y8.6329
G01 X21.9129 Y8.7239
G01 X21.9086 Y8.7387
G01 X21.8990 Y8.7678
G01 X21.8672 Y8.8561
G01 X21.8555 Y8.8844
G01 X21.8155 Y8.9693
G01 X21.8017 Y8.9967
G01 X21.7943 Y9.0102
G01 X21.7463 Y9.0908
G01 X21.7298 Y9.1167
G01 X21.7122 Y9.1418
G01 X21.6654 Y9.2048
G01 X21.6465 Y9.2290
G01 X21.6367 Y9.2407
G01 X21.5738 Y9.3104
G01 X21.5526 Y9.3326
G01 X21.5304 Y9.3538
G01 X21.4722 Y9.4065
G01 X21.4490 Y9.4265
G01 X21.4370 Y9.4361
G01 X21.3618 Y9.4922
G01 X21.3367 Y9.5098
G01 X21.3238 Y9.5182
G01 X21.2302 Y9.5743
G01 X21.2167 Y9.5817
G01 X21.1904 Y9.5950
G01 X21.2167 Y9.6083
G01 X21.2302 Y9.6157
G01 X21.3108 Y9.6637
G01 X21.3367 Y9.6802
G01 X21.3618 Y9.6978
G01 X21.4248 Y9.7446
G01 X21.4490 Y9.7635
G01 X21.4722 Y9.7835
G01 X21.5304 Y9.8362
G01 X21.5526 Y9.8574
G01 X21.5738 Y9.8796
G01 X21.6265 Y9.9378
G01 X21.6465 Y9.9610
G01 X21.6654 Y9.9852
G01 X21.7122 Y10.0482
G01 X21.7298 Y10.0733
G01 X21.7463 Y10.0992
G01 X21.7943 Y10.1798
G01 X21.8088 Y10.2069
G01 X21.8491 Y10.2916
G01 X21.8615 Y10.3197
G01 X21.8726 Y10.3483
G01 X21.9040 Y10.4367
G01 X21.9129 Y10.4661
G01 X21.9359 Y10.5571
G01 X21.9426 Y10.5870
G01 X21.9479 Y10.6172
G01 X21.9594 Y10.6949
G01 X21.9631 Y10.7253
G01 X21.9654 Y10.7559
G01 X21.9692 Y10.8343
G01 X21.9700 Y10.8650
G01 X21.9692 Y10.8957
G01 X21.9654 Y10.9741
G01 X21.9631 Y11.0047
G01 X21.9594 Y11.0351
G01 X21.9479 Y11.1128
G01 X21.9454 Y11.1279
G01 X21.9394 Y11.1580
G01 X21.9168 Y11.2491
G01 X21.9086 Y11.2787
G01 X21.8990 Y11.3078
G01 X21.8726 Y11.3817
G01 X21.8615 Y11.4103
G01 X21.8491 Y11.4384
G01 X21.8155 Y11.5093
G01 X21.8017 Y11.5367
G01 X21.7866 Y11.5634
G01 X21.7382 Y11.6438
G01 X21.7212 Y11.6693
G01 X21.7122 Y11.6818
G01 X21.6654 Y11.7448
G01 X21.6465 Y11.7690
G01 X21.6265 Y11.7922
G01 X21.5738 Y11.8504
G01 X21.5526 Y11.8726
G01 X21.5416 Y11.8833
G01 X21.4607 Y11.9567
G01 X21.4490 Y11.9665
G01 X21.4248 Y11.9854
G01 X21.3618 Y12.0322
G01 X21.3367 Y12.0498
G01 X21.3108 Y12.0663
G01 X21.2302 Y12.1143
G01 X21.2167 Y12.1217
G01 X21.1904 Y12.1350
G01 X21.2167 Y12.1483
G01 X21.2302 Y12.1557
G01 X21.3108 Y12.2037
G01 X21.3367 Y12.2202
G01 X21.3618 Y12.2378
G01 X21.4248 Y12.2846
G01 X21.4490 Y12.3035
G01 X21.4722 Y12.3235
G01 X21.5304 Y12.3762
G01 X21.5526 Y12.3974
G01 X21.5738 Y12.4196
G01 X21.6265 Y12.4778
G01 X21.6465 Y12.5010
G01 X21.6654 Y12.5252
G01 X21.7122 Y12.5882
G01 X21.7298 Y12.6133
G01 X21.7382 Y12.6262
G01 X21.7866 Y12.7066
G01 X21.8017 Y12.7333
G01 X21.8155 Y12.7607
G01 X21.8491 Y12.8316
G01 X21.8615 Y12.8597
G01 X21.8726 Y12.8883
G01 X21.8990 Y12.9622
G01 X21.9086 Y12.9913
G01 X21.9129 Y13.0061
G01 X21.9359 Y13.0971
G01 X21.9426 Y13.1270
G01 X21.9479 Y13.1572
G01 X21.9614 Y13.2501
G01 X21.9645 Y13.2806
G01 X21.9654 Y13.2959
G01 X21.9692 Y13.3743
G01 X21.9700 Y13.4050
G01 X21.9692 Y13.4357
G01 X21.9654 Y13.5141
G01 X21.9631 Y13.5447
G01 X21.9594 Y13.5751
G01 X21.9479 Y13.6528
G01 X21.9426 Y13.6830
G01 X21.9359 Y13.7129
G01 X21.9129 Y13.8039
G01 X21.9086 Y13.8187
G01 X21.8990 Y13.8478
G01 X21.8726 Y13.9217
G01 X21.8615 Y13.9503
G01 X21.8491 Y13.9784
G01 X21.8155 Y14.0493
G01 X21.8017 Y14.0767
G01 X21.7943 Y14.0902
G01 X21.7463 Y14.1708
G01 X21.7298 Y14.1967
G01 X21.7122 Y14.2218
G01 X21.6561 Y14.2970
G01 X21.6367 Y14.3207
G01 X21.6265 Y14.3322
G01 X21.5738 Y14.3904
G01 X21.5526 Y14.4126
G01 X21.5304 Y14.4338
G01 X21.4722 Y14.4865
G01 X21.4490 Y14.5065
G01 X21.4370 Y14.5161
G01 X21.3618 Y14.5722
G01 X21.3367 Y14.5898
G01 X21.3108 Y14.6063
G01 X21.2302 Y14.6543
G01 X21.2167 Y14.6617
G01 X21.1904 Y14.6750
G01 X21.2167 Y14.6883
G01 X21.2434 Y14.7034
G01 X21.3238 Y14.7518
G01 X21.3493 Y14.7688
G01 X21.4248 Y14.8246
G01 X21.4490 Y14.8435
G01 X21.4722 Y14.8635
G01 X21.5416 Y14.9267
G01 X21.5633 Y14.9484
G01 X21.6265 Y15.0178
G01 X21.6465 Y15.0410
G01 X21.6654 Y15.0652
G01 X21.7122 Y15.1282
G01 X21.7298 Y15.1533
G01 X21.7463 Y15.1792
G01 X21.7943 Y15.2598
G01 X21.8088 Y15.2869
G01 X21.8491 Y15.3716
G01 X21.8615 Y15.3997
G01 X21.8726 Y15.4283
G01 X21.8990 Y15.5022
G01 X21.9086 Y15.5313
G01 X21.9168 Y15.5609
G01 X21.9359 Y15.6371
G01 X21.9426 Y15.6670
G01 X21.9479 Y15.6972
G01 X21.9614 Y15.7901
G01 X21.9645 Y15.8206
G01 X21.9654 Y15.8359
G01 X21.9692 Y15.9143
G01 X21.9700 Y15.9450
G01 X21.9692 Y15.9757
G01 X21.9645 Y16.0694
G01 X21.9631 Y16.0847
G01 X21.9594 Y16.1151
G01 X21.9479 Y16.1928
G01 X21.9426 Y16.2230
G01 X21.9359 Y16.2529
G01 X21.9129 Y16.3439
G01 X21.9086 Y16.3587
G01 X21.8990 Y16.3878
G01 X21.8726 Y16.4617
G01 X21.8615 Y16.4903
G01 X21.8491 Y16.5184
G01 X21.8155 Y16.5893
G01 X21.8017 Y16.6167
G01 X21.7943 Y16.6302
G01 X21.7463 Y16.7108
G01 X21.7298 Y16.7367
G01 X21.7122 Y16.7618
G01 X21.6561 Y16.8370
G01 X21.6367 Y16.8607
G01 X21.6265 Y16.8722
G01 X21.5738 Y16.9304
G01 X21.5526 Y16.9526
G01 X21.5304 Y16.9738
G01 X21.4722 Y17.0265
G01 X21.4607 Y17.0367
G01 X21.4370 Y17.0561
G01 X21.3618 Y17.1122
G01 X21.3367 Y17.1298
G01 X21.3108 Y17.1463
G01 X21.2302 Y17.1943
G01 X21.2167 Y17.2017
G01 X21.1904 Y17.2150
G01 X21.2167 Y17.2283
G01 X21.2434 Y17.2434
G01 X21.3238 Y17.2918
G01 X21.3493 Y17.3088
G01 X21.4248 Y17.3646
G01 X21.4490 Y17.3835
G01 X21.4722 Y17.4035
G01 X21.5416 Y17.4667
G01 X21.5633 Y17.4884
G01 X21.6265 Y17.5578
G01 X21.6465 Y17.5810
G01 X21.6654 Y17.6052
G01 X21.7122 Y17.6682
G01 X21.7298 Y17.6933
G01 X21.7463 Y17.7192
G01 X21.7943 Y17.7998
G01 X21.8088 Y17.8269
G01 X21.8491 Y17.9116
G01 X21.8615 Y17.9397
G01 X21.8726 Y17.9683
G01 X21.8990 Y18.0422
G01 X21.9086 Y18.0713
G01 X21.9168 Y18.1009
G01 X21.9394 Y18.1920
G01 X21.9454 Y18.2221
G01 X21.9594 Y18.3149
G01 X21.9614 Y18.3301
G01 X21.9645 Y18.3606
G01 X21.9692 Y18.4543
G01 X21.9700 Y18.4850
G01 X21.9692 Y18.5157
G01 X21.9654 Y18.5941
G01 X21.9645 Y18.6094
G01 X21.9614 Y18.6399
G01 X21.9479 Y18.7328
G01 X21.9426 Y18.7630
G01 X21.9359 Y18.7929
G01 X21.9129 Y18.8839
G01 X21.9086 Y18.8987
G01 X21.8990 Y18.9278
G01 X21.8726 Y19.0017
G01 X21.8615 Y19.0303
G01 X21.8491 Y19.0584
G01 X21.8155 Y19.1293
G01 X21.8017 Y19.1567
G01 X21.7943 Y19.1702
G01 X21.7463 Y19.2508
G01 X21.7298 Y19.2767
G01 X21.7122 Y19.3018
G01 X21.6561 Y19.3770
G01 X21.6367 Y19.4007
G01 X21.6265 Y19.4122
G01 X21.5738 Y19.4704
G01 X21.5526 Y19.4926
G01 X21.5304 Y19.5138
G01 X21.4722 Y19.5665
G01 X21.4607 Y19.5767
G01 X21.4370 Y19.5961
G01 X21.3618 Y19.6522
G01 X21.3367 Y19.6698
G01 X21.3108 Y19.6863
G01 X21.2302 Y19.7343
G01 X21.2167 Y19.7417
G01 X21.1904 Y19.7550
G01 X21.2167 Y19.7683
G01 X21.2434 Y19.7834
G01 X21.3238 Y19.8318
G01 X21.3493 Y19.8488
G01 X21.4248 Y19.9046
G01 X21.4490 Y19.9235
G01 X21.4722 Y19.9435
G01 X21.5416 Y20.0067
G01 X21.5633 Y20.0284
G01 X21.5738 Y20.0396
G01 X21.6367 Y20.1093
G01 X21.6561 Y20.1330
G01 X21.7122 Y20.2082
G01 X21.7298 Y20.2333
G01 X21.7463 Y20.2592
G01 X21.7866 Y20.3266
G01 X21.8017 Y20.3533
G01 X21.8155 Y20.3807
G01 X21.8555 Y20.4656
G01 X21.8672 Y20.4939
G01 X21.8990 Y20.5822
G01 X21.9086 Y20.6113
G01 X21.9168 Y20.6409
G01 X21.9359 Y20.7171
G01 X21.9394 Y20.7320
G01 X21.9454 Y20.7621
G01 X21.9594 Y20.8549
G01 X21.9631 Y20.8853
G01 X21.9654 Y20.9159
G01 X21.9698 Y21.0097
G01 X21.9700 Y21.0250
G01 X21.9692 Y21.0557
G01 X21.9654 Y21.1341
G01 X21.9631 Y21.1647
G01 X21.9594 Y21.1951
G01 X21.9479 Y21.2728
G01 X21.9454 Y21.2879
G01 X21.9394 Y21.3180
G01 X21.9168 Y21.4091
G01 X21.9086 Y21.4387
G01 X21.8990 Y21.4678
G01 X21.8672 Y21.5561
G01 X21.8615 Y21.5703
G01 X21.8491 Y21.5984
G01 X21.8155 Y21.6693
G01 X21.8017 Y21.6967
G01 X21.7866 Y21.7234
G01 X21.7382 Y21.8038
G01 X21.7212 Y21.8293
G01 X21.6654 Y21.9048
G01 X21.6561 Y21.9170
G01 X21.6367 Y21.9407
G01 X21.5738 Y22.0104
G01 X21.5526 Y22.0326
G01 X21.5304 Y22.0538
G01 X21.4722 Y22.1065
G01 X21.4607 Y22.1167
G01 X21.4370 Y22.1361
G01 X21.3618 Y22.1922
G01 X21.3367 Y22.2098
G01 X21.3108 Y22.2263
G01 X21.2302 Y22.2743
G01 X21.2167 Y22.2817
G01 X21.1904 Y22.2950
G01 X21.2167 Y22.3083
G01 X21.2434 Y22.3234
G01 X21.3238 Y22.3718
G01 X21.3493 Y22.3888
G01 X21.4248 Y22.4446
G01 X21.4490 Y22.4635
G01 X21.4722 Y22.4835
G01 X21.5416 Y22.5467
G01 X21.5633 Y22.5684
G01 X21.5738 Y22.5796
G01 X21.6367 Y22.6493
G01 X21.6561 Y22.6730
G01 X21.7122 Y22.7482
G01 X21.7298 Y22.7733
G01 X21.7463 Y22.7992
G01 X21.7866 Y22.8666
G01 X21.8017 Y22.8933
G01 X21.8155 Y22.9207
G01 X21.8555 Y23.0056
G01 X21.8672 Y23.0339
G01 X21.8990 Y23.1222
G01 X21.9086 Y23.1513
G01 X21.9168 Y23.1809
G01 X21.9359 Y23.2571
G01 X21.9394 Y23.2720
G01 X21.9454 Y23.3021
G01 X21.9594 Y23.3949
G01 X21.9631 Y23.4253
G01 X21.9654 Y23.4559
G01 X21.9698 Y23.5497
G01 X21.9700 Y23.5650
G01 X21.9692 Y23.5957
G01 X21.9654 Y23.6741
G01 X21.9631 Y23.7047
G01 X21.9594 Y23.7351
G01 X21.9479 Y23.8128
G01 X21.9454 Y23.8279
G01 X21.9394 Y23.8580
G01 X21.9168 Y23.9491
G01 X21.9086 Y23.9787
G01 X21.8990 Y24.0078
G01 X21.8672 Y24.0961
G01 X21.8615 Y24.1103
G01 X21.8491 Y24.1384
G01 X21.8155 Y24.2093
G01 X21.8017 Y24.2367
G01 X21.7866 Y24.2634
G01 X21.7382 Y24.3438
G01 X21.7212 Y24.3693
G01 X21.6654 Y24.4448
G01 X21.6561 Y24.4570
G01 X21.6367 Y24.4807
G01 X21.5738 Y24.5504
G01 X21.5526 Y24.5726
G01 X21.5304 Y24.5938
G01 X21.4722 Y24.6465
G01 X21.4607 Y24.6567
G01 X21.4370 Y24.6761
G01 X21.3618 Y24.7322
G01 X21.3367 Y24.7498
G01 X21.3108 Y24.7663
G01 X21.2302 Y24.8143
G01 X21.2167 Y24.8217
G01 X21.1904 Y24.8350
G01 X21.2167 Y24.8483
G01 X21.2434 Y24.8634
G01 X21.3238 Y24.9118
G01 X21.3493 Y24.9288
G01 X21.4248 Y24.9846
G01 X21.4490 Y25.0035
G01 X21.4722 Y25.0235
G01 X21.5304 Y25.0762
G01 X21.5526 Y25.0974
G01 X21.5633 Y25.1084
G01 X21.6265 Y25.1778
G01 X21.6465 Y25.2010
G01 X21.6654 Y25.2252
G01 X21.7212 Y25.3007
G01 X21.7382 Y25.3262
G01 X21.7463 Y25.3392
G01 X21.7866 Y25.4066
G01 X21.8017 Y25.4333
G01 X21.8155 Y25.4607
G01 X21.8555 Y25.5456
G01 X21.8672 Y25.5739
G01 X21.8990 Y25.6622
G01 X21.9086 Y25.6913
G01 X21.9129 Y25.7061
G01 X21.9359 Y25.7971
G01 X21.9426 Y25.8270
G01 X21.9479 Y25.8572
G01 X21.9594 Y25.9349
G01 X21.9631 Y25.9653
G01 X21.9654 Y25.9959
G01 X21.9698 Y26.0897
G01 X21.9698 Y26.1203
G01 X21.9654 Y26.2141
G01 X21.9631 Y26.2447
G01 X21.9594 Y26.2751
G01 X21.9479 Y26.3528
G01 X21.9454 Y26.3679
G01 X21.9394 Y26.3980
G01 X21.9168 Y26.4891
G01 X21.9086 Y26.5187
G01 X21.8990 Y26.5478
G01 X21.8672 Y26.6361
G01 X21.8615 Y26.6503
G01 X21.8491 Y26.6784
G01 X21.8155 Y26.7493
G01 X21.8017 Y26.7767
G01 X21.7866 Y26.8034
G01 X21.7382 Y26.8838
G01 X21.7212 Y26.9093
G01 X21.6654 Y26.9848
G01 X21.6561 Y26.9970
G01 X21.6367 Y27.0207
G01 X21.5738 Y27.0904
G01 X21.5526 Y27.1126
G01 X21.5304 Y27.1338
G01 X21.4722 Y27.1865
G01 X21.4607 Y27.1967
G01 X21.4370 Y27.2161
G01 X21.3618 Y27.2722
G01 X21.3367 Y27.2898
G01 X21.3108 Y27.3063
G01 X21.2302 Y27.3543
G01 X21.2167 Y27.3617
G01 X21.1904 Y27.3750
G01 X21.2167 Y27.3883
G01 X21.2434 Y27.4034
G01 X21.3238 Y27.4518
G01 X21.3493 Y27.4688
G01 X21.4248 Y27.5246
G01 X21.4490 Y27.5435
G01 X21.4722 Y27.5635
G01 X21.5343 Y27.6198
G01 X23.5200 Y27.6198
G01 X23.5507 Y27.6206
G01 X23.5899 Y27.6225
G01 X23.6052 Y27.6234
G01 X23.6357 Y27.6264
G01 X23.7049 Y27.6367
G01 X23.7350 Y27.6427
G01 X23.7499 Y27.6462
G01 X23.8029 Y27.6597
G01 X23.8322 Y27.6686
G01 X23.8467 Y27.6736
G01 X23.8837 Y27.6868
G01 X23.9123 Y27.6978
G01 X23.9404 Y27.7103
G01 X23.9759 Y27.7271
G01 X23.9897 Y27.7338
G01 X24.0167 Y27.7483
G01 X24.0767 Y27.7842
G01 X24.1022 Y27.8013
G01 X24.1584 Y27.8429
G01 X24.1704 Y27.8525
G01 X24.1936 Y27.8725
G01 X24.2227 Y27.8989
G01 X24.2449 Y27.9201
G01 X24.2661 Y27.9423
G01 X24.2925 Y27.9714
G01 X24.3125 Y27.9946
G01 X24.3314 Y28.0188
G01 X24.3548 Y28.0503
G01 X24.3724 Y28.0754
G01 X24.3888 Y28.1013
G01 X24.4090 Y28.1350
G01 X24.4241 Y28.1617
G01 X24.4379 Y28.1891
G01 X24.4547 Y28.2246
G01 X24.4611 Y28.2386
G01 X24.4729 Y28.2669
G01 X24.4964 Y28.3328
G01 X24.5011 Y28.3474
G01 X24.5092 Y28.3770
G01 X24.5188 Y28.4151
G01 X24.5255 Y28.4450
G01 X24.5307 Y28.4752
G01 X24.5365 Y28.5141
G01 X24.5403 Y28.5445
G01 X24.5416 Y28.5598
G01 X24.5450 Y28.6297
G01 X24.5452 Y37.7453
G01 X29.0247 Y42.2248
G01 X52.3053 Y42.2248
G01 X53.6098 Y40.9203
G01 X53.6098 Y39.8650
G01 X53.5920 Y39.8480
G01 X53.5709 Y39.8258
G01 X53.5047 Y39.7525
G01 X53.4852 Y39.7288
G01 X53.4262 Y39.6495
G01 X53.4086 Y39.6245
G01 X53.3922 Y39.5985
G01 X53.3650 Y39.5532
G01 X53.3378 Y39.5985
G01 X53.3214 Y39.6245
G01 X53.3038 Y39.6495
G01 X53.2448 Y39.7288
G01 X53.2253 Y39.7525
G01 X53.1591 Y39.8258
G01 X53.1380 Y39.8480
G01 X53.1270 Y39.8587
G01 X53.0540 Y39.9252
G01 X53.0307 Y39.9452
G01 X53.0065 Y39.9641
G01 X52.9395 Y40.0138
G01 X52.9271 Y40.0227
G01 X52.9016 Y40.0398
G01 X52.8037 Y40.0984
G01 X52.7767 Y40.1129
G01 X52.7629 Y40.1196
G01 X52.6875 Y40.1553
G01 X52.6595 Y40.1677
G01 X52.6308 Y40.1788
G01 X52.5378 Y40.2119
G01 X52.5084 Y40.2208
G01 X52.4936 Y40.2247
G01 X52.4127 Y40.2449
G01 X52.3828 Y40.2517
G01 X52.3525 Y40.2569
G01 X52.2700 Y40.2691
G01 X52.2548 Y40.2712
G01 X52.2243 Y40.2742
G01 X52.1257 Y40.2792
G01 X52.0950 Y40.2800
G01 X52.0643 Y40.2792
G01 X51.9657 Y40.2742
G01 X51.9504 Y40.2729
G01 X51.9200 Y40.2691
G01 X51.8375 Y40.2569
G01 X51.8072 Y40.2517
G01 X51.7773 Y40.2449
G01 X51.6964 Y40.2247
G01 X51.6668 Y40.2165
G01 X51.6522 Y40.2119
G01 X51.5592 Y40.1788
G01 X51.5305 Y40.1677
G01 X51.5025 Y40.1553
G01 X51.4271 Y40.1196
G01 X51.4133 Y40.1129
G01 X51.3863 Y40.0984
G01 X51.3015 Y40.0478
G01 X51.2755 Y40.0314
G01 X51.2505 Y40.0138
G01 X51.1835 Y39.9641
G01 X51.1593 Y39.9452
G01 X51.1475 Y39.9353
G01 X51.0630 Y39.8587
G01 X51.0413 Y39.8370
G01 X50.9748 Y39.7640
G01 X50.9647 Y39.7525
G01 X50.9452 Y39.7288
G01 X50.8862 Y39.6495
G01 X50.8686 Y39.6245
G01 X50.8522 Y39.5985
G01 X50.8250 Y39.5532
G01 X50.7978 Y39.5985
G01 X50.7814 Y39.6245
G01 X50.7638 Y39.6495
G01 X50.7048 Y39.7288
G01 X50.6952 Y39.7407
G01 X50.6752 Y39.7640
G01 X50.6087 Y39.8370
G01 X50.5980 Y39.8480
G01 X50.5758 Y39.8691
G01 X50.5025 Y39.9353
G01 X50.4788 Y39.9548
G01 X50.4095 Y40.0064
G01 X50.3987 Y40.0222
G01 X50.3898 Y40.0347
G01 X50.3664 Y40.0662
G01 X50.3475 Y40.0904
G01 X50.3275 Y40.1136
G01 X50.3011 Y40.1427
G01 X50.2799 Y40.1649
G01 X49.0399 Y41.4049
G01 X49.0177 Y41.4261
G01 X48.9886 Y41.4524
G01 X48.9654 Y41.4725
G01 X48.9412 Y41.4914
G01 X48.8972 Y41.5237
G01 X48.8717 Y41.5408
G01 X48.8250 Y41.5690
G01 X48.7983 Y41.5841
G01 X48.7709 Y41.5979
G01 X48.7214 Y41.6211
G01 X48.6931 Y41.6328
G01 X48.6417 Y41.6514
G01 X48.6126 Y41.6610
G01 X48.5830 Y41.6692
G01 X48.5300 Y41.6823
G01 X48.4999 Y41.6883
G01 X48.4459 Y41.6965
G01 X48.4155 Y41.7003
G01 X48.3849 Y41.7025
G01 X48.3457 Y41.7044
G01 X48.3150 Y41.7052
G01 X33.6347 Y41.7050
G01 X33.5801 Y41.7025
G01 X33.5495 Y41.7003
G01 X33.5191 Y41.6965
G01 X33.4802 Y41.6907
G01 X33.4500 Y41.6855
G01 X33.4201 Y41.6788
G01 X33.3820 Y41.6692
G01 X33.3524 Y41.6610
G01 X33.3233 Y41.6514
G01 X33.2719 Y41.6328
G01 X33.2436 Y41.6211
G01 X33.1803 Y41.5912
G01 X33.1533 Y41.5767
G01 X33.1063 Y41.5488
G01 X33.0804 Y41.5324
G01 X33.0553 Y41.5147
G01 X33.0116 Y41.4821
G01 X32.9879 Y41.4626
G01 X32.9764 Y41.4524
G01 X32.9473 Y41.4261
G01 X32.9251 Y41.4049
G01 X30.4151 Y38.8949
G01 X30.3939 Y38.8727
G01 X30.3675 Y38.8436
G01 X30.3475 Y38.8204
G01 X30.3286 Y38.7962
G01 X30.3052 Y38.7647
G01 X30.2876 Y38.7396
G01 X30.2712 Y38.7137
G01 X30.2433 Y38.6667
G01 X30.2359 Y38.6533
G01 X30.2221 Y38.6259
G01 X30.1989 Y38.5764
G01 X30.1871 Y38.5481
G01 X30.1686 Y38.4967
G01 X30.1589 Y38.4676
G01 X30.1508 Y38.4380
G01 X30.1377 Y38.3850
G01 X30.1317 Y38.3549
G01 X30.1293 Y38.3398
G01 X30.1235 Y38.3009
G01 X30.1197 Y38.2705
G01 X30.1175 Y38.2399
G01 X30.1150 Y38.1853
G01 X30.1150 Y34.9797
G01 X30.1184 Y34.9098
G01 X30.1214 Y34.8793
G01 X30.1317 Y34.8101
G01 X30.1345 Y34.7950
G01 X30.1412 Y34.7651
G01 X30.1508 Y34.7270
G01 X30.1589 Y34.6974
G01 X30.1686 Y34.6683
G01 X30.1818 Y34.6313
G01 X30.1928 Y34.6027
G01 X30.1989 Y34.5886
G01 X30.2288 Y34.5253
G01 X30.2433 Y34.4983
G01 X30.2712 Y34.4513
G01 X30.2792 Y34.4383
G01 X30.2963 Y34.4128
G01 X30.3286 Y34.3688
G01 X30.3475 Y34.3446
G01 X30.3675 Y34.3214
G01 X30.4044 Y34.2811
G01 X31.6851 Y33.0001
G01 X31.7073 Y32.9789
G01 X31.7364 Y32.9525
G01 X31.7596 Y32.9325
G01 X31.7838 Y32.9136
G01 X31.8278 Y32.8813
G01 X31.8533 Y32.8642
G01 X31.9133 Y32.8283
G01 X31.9403 Y32.8138
G01 X31.9896 Y32.7903
G01 X32.0177 Y32.7778
G01 X32.0319 Y32.7721
G01 X32.0978 Y32.7486
G01 X32.1271 Y32.7397
G01 X32.1950 Y32.7227
G01 X32.2251 Y32.7167
G01 X32.2943 Y32.7064
G01 X32.3248 Y32.7034
G01 X32.3793 Y32.7006
G01 X32.4100 Y32.6998
G01 X34.3957 Y32.6998
G01 X34.4578 Y32.6435
G01 X34.4810 Y32.6235
G01 X34.5052 Y32.6046
G01 X34.5807 Y32.5488
G01 X34.6062 Y32.5318
G01 X34.6866 Y32.4834
G01 X34.7133 Y32.4683
G01 X34.7396 Y32.4550
G01 X34.7133 Y32.4417
G01 X34.6866 Y32.4266
G01 X34.6062 Y32.3782
G01 X34.5807 Y32.3612
G01 X34.5052 Y32.3054
G01 X34.4810 Y32.2865
G01 X34.4578 Y32.2665
G01 X34.3996 Y32.2138
G01 X34.3774 Y32.1926
G01 X34.3667 Y32.1816
G01 X34.3035 Y32.1122
G01 X34.2835 Y32.0890
G01 X34.2646 Y32.0648
G01 X34.2088 Y31.9893
G01 X34.2002 Y31.9767
G01 X34.1837 Y31.9508
G01 X34.1434 Y31.8834
G01 X34.1283 Y31.8567
G01 X34.1145 Y31.8293
G01 X34.0809 Y31.7584
G01 X34.0685 Y31.7303
G01 X34.0628 Y31.7161
G01 X34.0310 Y31.6278
G01 X34.0214 Y31.5987
G01 X34.0132 Y31.5691
G01 X33.9941 Y31.4929
G01 X33.9874 Y31.4630
G01 X33.9821 Y31.4328
G01 X33.9706 Y31.3551
G01 X33.9686 Y31.3399
G01 X33.9655 Y31.3094
G01 X33.9608 Y31.2157
G01 X33.9600 Y31.1850
G01 X33.9608 Y31.1543
G01 X33.9646 Y31.0759
G01 X33.9669 Y31.0453
G01 X33.9706 Y31.0149
G01 X33.9821 Y30.9372
G01 X33.9846 Y30.9221
G01 X33.9906 Y30.8920
G01 X34.0132 Y30.8009
G01 X34.0214 Y30.7713
G01 X34.0310 Y30.7422
G01 X34.0628 Y30.6539
G01 X34.0685 Y30.6397
G01 X34.0809 Y30.6116
G01 X34.1145 Y30.5407
G01 X34.1283 Y30.5133
G01 X34.1434 Y30.4866
G01 X34.1837 Y30.4192
G01 X34.2002 Y30.3933
G01 X34.2088 Y30.3807
G01 X34.2646 Y30.3052
G01 X34.2835 Y30.2810
G01 X34.3035 Y30.2578
G01 X34.3667 Y30.1884
G01 X34.3774 Y30.1774
G01 X34.3996 Y30.1562
G01 X34.4578 Y30.1035
G01 X34.4810 Y30.0835
G01 X34.5052 Y30.0646
G01 X34.5807 Y30.0088
G01 X34.6062 Y29.9918
G01 X34.6866 Y29.9434
G01 X34.7133 Y29.9283
G01 X34.7396 Y29.9150
G01 X34.7133 Y29.9017
G01 X34.6866 Y29.8866
G01 X34.6062 Y29.8382
G01 X34.5807 Y29.8212
G01 X34.5052 Y29.7654
G01 X34.4810 Y29.7465
G01 X34.4578 Y29.7265
G01 X34.3957 Y29.6702
G01 X32.4100 Y29.6702
G01 X32.3793 Y29.6694
G01 X32.3248 Y29.6666
G01 X32.2943 Y29.6636
G01 X32.2791 Y29.6615
G01 X32.2402 Y29.6557
G01 X32.2100 Y29.6505
G01 X32.1801 Y29.6438
G01 X32.1420 Y29.6342
G01 X32.1124 Y29.6261
G01 X32.0978 Y29.6214
G01 X32.0319 Y29.5979
G01 X32.0036 Y29.5861
G01 X31.9896 Y29.5797
G01 X31.9541 Y29.5629
G01 X31.9267 Y29.5491
G01 X31.9000 Y29.5340
G01 X31.8663 Y29.5138
G01 X31.8404 Y29.4974
G01 X31.8278 Y29.4887
G01 X31.7716 Y29.4471
G01 X31.7479 Y29.4276
G01 X31.7364 Y29.4175
G01 X31.7073 Y29.3911
G01 X31.6851 Y29.3699
G01 X29.1344 Y26.8189
G01 X29.0975 Y26.7786
G01 X29.0775 Y26.7554
G01 X29.0586 Y26.7312
G01 X29.0352 Y26.6997
G01 X29.0263 Y26.6872
G01 X29.0092 Y26.6617
G01 X28.9810 Y26.6150
G01 X28.9659 Y26.5883
G01 X28.9521 Y26.5609
G01 X28.9353 Y26.5254
G01 X28.9289 Y26.5114
G01 X28.9171 Y26.4831
G01 X28.8986 Y26.4317
G01 X28.8889 Y26.4026
G01 X28.8808 Y26.3730
G01 X28.8712 Y26.3349
G01 X28.8677 Y26.3200
G01 X28.8617 Y26.2899
G01 X28.8514 Y26.2207
G01 X28.8484 Y26.1902
G01 X28.8475 Y26.1749
G01 X28.8456 Y26.1357
G01 X28.8448 Y26.1050
G01 X28.8448 Y6.1752
G01 X7.4347 Y6.1752
G01 X6.7652 Y6.8447
G01 X6.7652 Y19.5000
G01 X7.0053 Y19.5002
G01 X7.0360 Y19.5017
G01 X7.0513 Y19.5030
G01 X7.0817 Y19.5068
G01 X7.0969 Y19.5092
G01 X7.1119 Y19.5120
G01 X7.1419 Y19.5187
G01 X7.1714 Y19.5269
G01 X7.2006 Y19.5365
G01 X7.2292 Y19.5476
G01 X7.2572 Y19.5600
G01 X7.2846 Y19.5738
G01 X7.3113 Y19.5889
G01 X7.3372 Y19.6053
G01 X7.3623 Y19.6230
G01 X7.3865 Y19.6419
G01 X7.4097 Y19.6619
G01 X7.4319 Y19.6831
G01 X7.4531 Y19.7053
G01 X7.4633 Y19.7168
G01 X7.4827 Y19.7405
G01 X7.5010 Y19.7651
G01 X7.5180 Y19.7906
G01 X7.5338 Y19.8169
G01 X7.5483 Y19.8440
G01 X7.5614 Y19.8717
G01 X7.5731 Y19.9001
G01 X7.5835 Y19.9289
G01 X7.5924 Y19.9583
G01 X7.5963 Y19.9731
G01 X7.6030 Y20.0031
G01 X7.6082 Y20.0333
G01 X7.6120 Y20.0637
G01 X7.6142 Y20.0943
G01 X7.6150 Y20.1250
G01 X7.6150 Y21.9250
G01 X7.6142 Y21.9557
G01 X7.6120 Y21.9863
G01 X7.6103 Y22.0015
G01 X7.6058 Y22.0319
G01 X7.5998 Y22.0619
G01 X7.5963 Y22.0769
G01 X7.5881 Y22.1064
G01 X7.5785 Y22.1356
G01 X7.5731 Y22.1499
G01 X7.5614 Y22.1783
G01 X7.5550 Y22.1922
G01 X7.5483 Y22.2060
G01 X7.5338 Y22.2331
G01 X7.5180 Y22.2594
G01 X7.5097 Y22.2722
G01 X7.4920 Y22.2973
G01 X7.4827 Y22.3095
G01 X7.4633 Y22.3332
G01 X7.4427 Y22.3560
G01 X7.4210 Y22.3777
G01 X7.4097 Y22.3881
G01 X7.3865 Y22.4081
G01 X7.3745 Y22.4177
G01 X7.3623 Y22.4270
G01 X7.3372 Y22.4447
G01 X7.3113 Y22.4611
G01 X7.2846 Y22.4762
G01 X7.2710 Y22.4833
G01 X7.2433 Y22.4964
G01 X7.2292 Y22.5024
G01 X7.2149 Y22.5081
G01 X7.1953 Y22.5153
G01 X7.2590 Y22.5858
G01 X7.2784 Y22.6095
G01 X7.3403 Y22.6927
G01 X7.3493 Y22.7051
G01 X7.3664 Y22.7306
G01 X7.4198 Y22.8194
G01 X7.4349 Y22.8461
G01 X7.4487 Y22.8735
G01 X7.4865 Y22.9534
G01 X7.4989 Y22.9814
G01 X7.5046 Y22.9957
G01 X7.5397 Y23.0932
G01 X7.5493 Y23.1223
G01 X7.5575 Y23.1519
G01 X7.5790 Y23.2376
G01 X7.5857 Y23.2675
G01 X7.5909 Y23.2977
G01 X7.6039 Y23.3851
G01 X7.6077 Y23.4155
G01 X7.6099 Y23.4461
G01 X7.6142 Y23.5343
G01 X7.6150 Y23.5650
G01 X7.6142 Y23.5957
G01 X7.6099 Y23.6839
G01 X7.6077 Y23.7145
G01 X7.6039 Y23.7449
G01 X7.5909 Y23.8323
G01 X7.5857 Y23.8625
G01 X7.5825 Y23.8775
G01 X7.5575 Y23.9781
G01 X7.5493 Y24.0077
G01 X7.5397 Y24.0368
G01 X7.5046 Y24.1343
G01 X7.4929 Y24.1627
G01 X7.4865 Y24.1766
G01 X7.4487 Y24.2565
G01 X7.4349 Y24.2839
G01 X7.4198 Y24.3106
G01 X7.3664 Y24.3994
G01 X7.3580 Y24.4122
G01 X7.3403 Y24.4373
G01 X7.2784 Y24.5205
G01 X7.2590 Y24.5442
G01 X7.1895 Y24.6211
G01 X7.1683 Y24.6433
G01 X7.1461 Y24.6645
G01 X7.0807 Y24.7238
G01 X7.0574 Y24.7438
G01 X7.0455 Y24.7534
G01 X6.9623 Y24.8153
G01 X6.9372 Y24.8330
G01 X6.9113 Y24.8494
G01 X6.8223 Y24.9025
G01 X6.7953 Y24.9170
G01 X6.7652 Y24.9314
G01 X6.7652 Y26.7493
G01 X6.7826 Y26.7637
G01 X6.7941 Y26.7739
G01 X6.8668 Y26.8398
G01 X6.8890 Y26.8610
G01 X6.9102 Y26.8832
G01 X6.9761 Y26.9559
G01 X6.9961 Y26.9791
G01 X7.0150 Y27.0033
G01 X7.0735 Y27.0821
G01 X7.0911 Y27.1072
G01 X7.1075 Y27.1331
G01 X7.1580 Y27.2173
G01 X7.1731 Y27.2440
G01 X7.1869 Y27.2714
G01 X7.2289 Y27.3601
G01 X7.2413 Y27.3881
G01 X7.2523 Y27.4168
G01 X7.2854 Y27.5092
G01 X7.2950 Y27.5383
G01 X7.3032 Y27.5679
G01 X7.3271 Y27.6630
G01 X7.3338 Y27.6930
G01 X7.3390 Y27.7232
G01 X7.3534 Y27.8203
G01 X7.3572 Y27.8507
G01 X7.3594 Y27.8813
G01 X7.3642 Y27.9793
G01 X7.3650 Y28.0100
G01 X7.3642 Y28.0407
G01 X7.3594 Y28.1387
G01 X7.3572 Y28.1693
G01 X7.3555 Y28.1845
G01 X7.3390 Y28.2968
G01 X7.3338 Y28.3270
G01 X7.3271 Y28.3570
G01 X7.3032 Y28.4521
G01 X7.2950 Y28.4817
G01 X7.2854 Y28.5108
G01 X7.2523 Y28.6032
G01 X7.2413 Y28.6319
G01 X7.2289 Y28.6599
G01 X7.1869 Y28.7486
G01 X7.1731 Y28.7760
G01 X7.1580 Y28.8027
G01 X7.1075 Y28.8869
G01 X7.0911 Y28.9128
G01 X7.0735 Y28.9379
G01 X7.0150 Y29.0167
G01 X6.9961 Y29.0409
G01 X6.9761 Y29.0641
G01 X6.9102 Y29.1368
G01 X6.8890 Y29.1590
G01 X6.8668 Y29.1802
G01 X6.7941 Y29.2461
G01 X6.7709 Y29.2661
G01 X6.7467 Y29.2850
G01 X6.6679 Y29.3435
G01 X6.6428 Y29.3611
G01 X6.6169 Y29.3775
G01 X6.5327 Y29.4280
G01 X6.5060 Y29.4431
G01 X6.4786 Y29.4569
G01 X6.3899 Y29.4989
G01 X6.3619 Y29.5113
G01 X6.3332 Y29.5223
G01 X6.2408 Y29.5554
G01 X6.2117 Y29.5650
G01 X6.1821 Y29.5732
G01 X6.0870 Y29.5971
G01 X6.0570 Y29.6038
G01 X6.0268 Y29.6090
G01 X5.9297 Y29.6234
G01 X5.8993 Y29.6272
G01 X5.8687 Y29.6294
G01 X5.7707 Y29.6342
G01 X5.7400 Y29.6350
G01 X5.7093 Y29.6342
G01 X5.6113 Y29.6294
G01 X5.5807 Y29.6272
G01 X5.5503 Y29.6234
G01 X5.4532 Y29.6090
G01 X5.4230 Y29.6038
G01 X5.3930 Y29.5971
G01 X5.2979 Y29.5732
G01 X5.2683 Y29.5650
G01 X5.2392 Y29.5554
G01 X5.1468 Y29.5223
G01 X5.1181 Y29.5113
G01 X5.0901 Y29.4989
G01 X5.0014 Y29.4569
G01 X4.9740 Y29.4431
G01 X4.9473 Y29.4280
G01 X4.8631 Y29.3775
G01 X4.8372 Y29.3611
G01 X4.8121 Y29.3435
G01 X4.7333 Y29.2850
G01 X4.7091 Y29.2661
G01 X4.6859 Y29.2461
G01 X4.6132 Y29.1802
G01 X4.5910 Y29.1590
G01 X4.5698 Y29.1368
G01 X4.5039 Y29.0641
G01 X4.4839 Y29.0409
G01 X4.4650 Y29.0167
G01 X4.4065 Y28.9379
G01 X4.3889 Y28.9128
G01 X4.3725 Y28.8869
G01 X4.3220 Y28.8027
G01 X4.3069 Y28.7760
G01 X4.2931 Y28.7486
G01 X4.2511 Y28.6599
G01 X4.2387 Y28.6319
G01 X4.2277 Y28.6032
G01 X4.1946 Y28.5108
G01 X4.1850 Y28.4817
G01 X4.1807 Y28.4670
G01 X4.1529 Y28.3570
G01 X4.1462 Y28.3270
G01 X4.1410 Y28.2968
G01 X4.1266 Y28.1997
G01 X4.1228 Y28.1693
G01 X4.1206 Y28.1387
G01 X4.1158 Y28.0407
G01 X4.1150 Y28.0100
G01 X4.1158 Y27.9793
G01 X4.1206 Y27.8813
G01 X4.1228 Y27.8507
G01 X4.1266 Y27.8203
G01 X4.1410 Y27.7232
G01 X4.1462 Y27.6930
G01 X4.1529 Y27.6630
G01 X4.1807 Y27.5530
G01 X4.1896 Y27.5237
G01 X4.1946 Y27.5092
G01 X4.2277 Y27.4168
G01 X4.2387 Y27.3881
G01 X4.2511 Y27.3601
G01 X4.2931 Y27.2714
G01 X4.3069 Y27.2440
G01 X4.3220 Y27.2173
G01 X4.3725 Y27.1331
G01 X4.3889 Y27.1072
G01 X4.4065 Y27.0821
G01 X4.4650 Y27.0033
G01 X4.4839 Y26.9791
G01 X4.5039 Y26.9559
G01 X4.5698 Y26.8832
G01 X4.5910 Y26.8610
G01 X4.6132 Y26.8398
G01 X4.6859 Y26.7739
G01 X4.6974 Y26.7637
G01 X4.7148 Y26.7493
G01 X4.7148 Y24.9314
G01 X4.6847 Y24.9170
G01 X4.6577 Y24.9025
G01 X4.5687 Y24.8494
G01 X4.5428 Y24.8330
G01 X4.5177 Y24.8153
G01 X4.4345 Y24.7534
G01 X4.4108 Y24.7340
G01 X4.3993 Y24.7238
G01 X4.3339 Y24.6645
G01 X4.3117 Y24.6433
G01 X4.2905 Y24.6211
G01 X4.2210 Y24.5442
G01 X4.2016 Y24.5205
G01 X4.1397 Y24.4373
G01 X4.1307 Y24.4249
G01 X4.1136 Y24.3994
G01 X4.0602 Y24.3106
G01 X4.0451 Y24.2839
G01 X4.0313 Y24.2565
G01 X3.9935 Y24.1766
G01 X3.9871 Y24.1627
G01 X3.9754 Y24.1343
G01 X3.9403 Y24.0368
G01 X3.9307 Y24.0077
G01 X3.9225 Y23.9781
G01 X3.9010 Y23.8924
G01 X3.8943 Y23.8625
G01 X3.8891 Y23.8323
G01 X3.8761 Y23.7449
G01 X3.8723 Y23.7145
G01 X3.8710 Y23.6992
G01 X3.8658 Y23.5957
G01 X3.8650 Y23.5650
G01 X3.8658 Y23.5343
G01 X3.8701 Y23.4461
G01 X3.8723 Y23.4155
G01 X3.8761 Y23.3851
G01 X3.8891 Y23.2977
G01 X3.8943 Y23.2675
G01 X3.9010 Y23.2376
G01 X3.9225 Y23.1519
G01 X3.9307 Y23.1223
G01 X3.9403 Y23.0932
G01 X3.9754 Y22.9957
G01 X3.9871 Y22.9673
G01 X3.9935 Y22.9534
G01 X4.0313 Y22.8735
G01 X4.0451 Y22.8461
G01 X4.0602 Y22.8194
G01 X4.1136 Y22.7306
G01 X4.1220 Y22.7178
G01 X4.1397 Y22.6927
G01 X4.2016 Y22.6095
G01 X4.2210 Y22.5858
G01 X4.2847 Y22.5153
G01 X4.2651 Y22.5081
G01 X4.2508 Y22.5024
G01 X4.2228 Y22.4900
G01 X4.2090 Y22.4833
G01 X4.1819 Y22.4688
G01 X4.1687 Y22.4611
G01 X4.1428 Y22.4447
G01 X4.1301 Y22.4360
G01 X4.1055 Y22.4177
G01 X4.0818 Y22.3983
G01 X4.0703 Y22.3881
G01 X4.0481 Y22.3669
G01 X4.0373 Y22.3560
G01 X4.0167 Y22.3332
G01 X3.9973 Y22.3095
G01 X3.9790 Y22.2849
G01 X3.9703 Y22.2722
G01 X3.9539 Y22.2463
G01 X3.9462 Y22.2331
G01 X3.9388 Y22.2196
G01 X3.9250 Y22.1922
G01 X3.9126 Y22.1642
G01 X3.9069 Y22.1499
G01 X3.8965 Y22.1211
G01 X3.8919 Y22.1064
G01 X3.8876 Y22.0917
G01 X3.8802 Y22.0619
G01 X3.8742 Y22.0319
G01 X3.8697 Y22.0015
G01 X3.8667 Y21.9710
G01 X3.8652 Y21.9403
G01 X3.8650 Y21.9250
G01 X3.8650 Y20.1250
G01 X3.8658 Y20.0943
G01 X3.8680 Y20.0637
G01 X3.8718 Y20.0333
G01 X3.8770 Y20.0031
G01 X3.8837 Y19.9731
G01 X3.8919 Y19.9436
G01 X3.8965 Y19.9289
G01 X3.9069 Y19.9001
G01 X3.9186 Y19.8717
G01 X3.9317 Y19.8440
G01 X3.9462 Y19.8169
G01 X3.9620 Y19.7906
G01 X3.9790 Y19.7651
G01 X3.9880 Y19.7527
G01 X4.0069 Y19.7285
G01 X4.0269 Y19.7053
G01 X4.0481 Y19.6831
G01 X4.0703 Y19.6619
G01 X4.0935 Y19.6419
G01 X4.1177 Y19.6230
G01 X4.1428 Y19.6053
G01 X4.1687 Y19.5889
G01 X4.1954 Y19.5738
G01 X4.2228 Y19.5600
G01 X4.2508 Y19.5476
G01 X4.2794 Y19.5365
G01 X4.3086 Y19.5269
G01 X4.3381 Y19.5187
G01 X4.3681 Y19.5120
G01 X4.3831 Y19.5092
G01 X4.3983 Y19.5068
G01 X4.4287 Y19.5030
G01 X4.4593 Y19.5008
G01 X4.4747 Y19.5002
G01 X4.7148 Y19.5000
G01 X4.7148 Y6.4200
G01 X4.7156 Y6.3893
G01 X4.7184 Y6.3348
G01 X4.7197 Y6.3195
G01 X4.7235 Y6.2891
G01 X4.7293 Y6.2502
G01 X4.7345 Y6.2200
G01 X4.7412 Y6.1901
G01 X4.7547 Y6.1371
G01 X4.7636 Y6.1078
G01 X4.7818 Y6.0563
G01 X4.7871 Y6.0419
G01 X4.7989 Y6.0136
G01 X4.8221 Y5.9641
G01 X4.8359 Y5.9367
G01 X4.8510 Y5.9100
G01 X4.8712 Y5.8763
G01 X4.8876 Y5.8504
G01 X4.8963 Y5.8378
G01 X4.9286 Y5.7938
G01 X4.9475 Y5.7696
G01 X4.9675 Y5.7464
G01 X4.9939 Y5.7173
G01 X5.0151 Y5.6951
G01 X6.2961 Y4.4144
G01 X6.3364 Y4.3775
G01 X6.3596 Y4.3575
G01 X6.3838 Y4.3386
G01 X6.4153 Y4.3152
G01 X6.4404 Y4.2976
G01 X6.4663 Y4.2812
G01 X6.5000 Y4.2610
G01 X6.5267 Y4.2459
G01 X6.5541 Y4.2321
G01 X6.5896 Y4.2153
G01 X6.6177 Y4.2028
G01 X6.6463 Y4.1918
G01 X6.6833 Y4.1786
G01 X6.7124 Y4.1689
G01 X6.7420 Y4.1608
G01 X6.7801 Y4.1512
G01 X6.8100 Y4.1445
G01 X6.8402 Y4.1393
G01 X6.8791 Y4.1335
G01 X6.9095 Y4.1297
G01 X6.9401 Y4.1275
G01 X6.9947 Y4.1250
G01 X57.1750 Y4.1248
G01 X57.2057 Y4.1256
G01 X57.2449 Y4.1275
G01 X57.2755 Y4.1297
G01 X57.3059 Y4.1335
G01 X57.3599 Y4.1417
G01 X57.3900 Y4.1477
G01 X57.4430 Y4.1608
G01 X57.4726 Y4.1689
G01 X57.5017 Y4.1786
G01 X57.5531 Y4.1971
G01 X57.5814 Y4.2089
G01 X57.6447 Y4.2388
G01 X57.6717 Y4.2533
G01 X57.7187 Y4.2812
G01 X57.7446 Y4.2976
G01 X57.7572 Y4.3063
G01 X57.7782 Y4.3216
G01 X57.8134 Y4.3479
G01 X57.8254 Y4.3575
G01 X57.8486 Y4.3775
G01 X57.8777 Y4.4039
G01 X57.8999 Y4.4251
G01 X59.0499 Y5.5751
G01 X59.0711 Y5.5973
G01 X59.0975 Y5.6264
G01 X59.1175 Y5.6496
G01 X59.1364 Y5.6738
G01 X59.1687 Y5.7178
G01 X59.1858 Y5.7433
G01 X59.2217 Y5.8033
G01 X59.2362 Y5.8303
G01 X59.2661 Y5.8936
G01 X59.2779 Y5.9219
G01 X59.3014 Y5.9878
G01 X59.3103 Y6.0171
G01 X59.3238 Y6.0701
G01 X59.3305 Y6.1000
G01 X59.3357 Y6.1302
G01 X59.3436 Y6.1843
G01 X59.3466 Y6.2148
G01 X59.3500 Y6.2847
G01 X59.3502 Y6.4642
G01 X59.4927 Y6.5498
G01 X59.5056 Y6.5581
G01 X59.5307 Y6.5758
G01 X59.6489 Y6.6635
G01 X59.6731 Y6.6824
G01 X59.6963 Y6.7024
G01 X59.8054 Y6.8012
G01 X59.8276 Y6.8224
G01 X59.8488 Y6.8446
G01 X59.9476 Y6.9537
G01 X59.9676 Y6.9769
G01 X59.9865 Y7.0011
G01 X60.0742 Y7.1193
G01 X60.0919 Y7.1444
G01 X60.1083 Y7.1703
G01 X60.1840 Y7.2966
G01 X60.1991 Y7.3233
G01 X60.2129 Y7.3507
G01 X60.2758 Y7.4838
G01 X60.2882 Y7.5118
G01 X60.2993 Y7.5404
G01 X60.3489 Y7.6790
G01 X60.3585 Y7.7081
G01 X60.3667 Y7.7377
G01 X60.4024 Y7.8805
G01 X60.4060 Y7.8954
G01 X60.4120 Y7.9255
G01 X60.4381 Y8.1015
G01 X60.4398 Y8.1167
G01 X60.4420 Y8.1473
G01 X60.4492 Y8.2943
G01 X60.4500 Y8.3250
G01 X60.4492 Y8.3557
G01 X60.4420 Y8.5027
G01 X60.4398 Y8.5333
G01 X60.4360 Y8.5637
G01 X60.4144 Y8.7093
G01 X60.4092 Y8.7396
G01 X60.4024 Y8.7695
G01 X60.3667 Y8.9123
G01 X60.3585 Y8.9419
G01 X60.3489 Y8.9710
G01 X60.2993 Y9.1096
G01 X60.2882 Y9.1382
G01 X60.2758 Y9.1662
G01 X60.2129 Y9.2993
G01 X60.1991 Y9.3267
G01 X60.1840 Y9.3534
G01 X60.1083 Y9.4797
G01 X60.0919 Y9.5056
G01 X60.0742 Y9.5307
G01 X59.9865 Y9.6489
G01 X59.9676 Y9.6731
G01 X59.9476 Y9.6963
G01 X59.8488 Y9.8054
G01 X59.8276 Y9.8276
G01 X59.8054 Y9.8488
G01 X59.6963 Y9.9476
G01 X59.6731 Y9.9676
G01 X59.6489 Y9.9865
G01 X59.5307 Y10.0742
G01 X59.5056 Y10.0919
G01 X59.4797 Y10.1083
G01 X59.3502 Y10.1858
G01 X59.3502 Y13.4492
G01 X59.4797 Y13.5267
G01 X59.5056 Y13.5431
G01 X59.5307 Y13.5608
G01 X59.6489 Y13.6485
G01 X59.6731 Y13.6674
G01 X59.6963 Y13.6874
G01 X59.8054 Y13.7862
G01 X59.8276 Y13.8074
G01 X59.8488 Y13.8296
G01 X59.9476 Y13.9387
G01 X59.9676 Y13.9619
G01 X59.9865 Y13.9861
G01 X60.0742 Y14.1043
G01 X60.0919 Y14.1294
G01 X60.1083 Y14.1553
G01 X60.1840 Y14.2816
G01 X60.1991 Y14.3083
G01 X60.2129 Y14.3357
G01 X60.2758 Y14.4688
G01 X60.2882 Y14.4968
G01 X60.2993 Y14.5254
G01 X60.3489 Y14.6640
G01 X60.3585 Y14.6931
G01 X60.3667 Y14.7227
G01 X60.4024 Y14.8655
G01 X60.4092 Y14.8954
G01 X60.4144 Y14.9257
G01 X60.4360 Y15.0713
G01 X60.4398 Y15.1017
G01 X60.4420 Y15.1323
G01 X60.4492 Y15.2793
G01 X60.4500 Y15.3100
G01 X60.4492 Y15.3407
G01 X60.4420 Y15.4877
G01 X60.4398 Y15.5183
G01 X60.4360 Y15.5487
G01 X60.4144 Y15.6943
G01 X60.4092 Y15.7246
G01 X60.4024 Y15.7545
G01 X60.3667 Y15.8973
G01 X60.3585 Y15.9269
G01 X60.3489 Y15.9560
G01 X60.2993 Y16.0946
G01 X60.2882 Y16.1232
G01 X60.2758 Y16.1512
G01 X60.2129 Y16.2843
G01 X60.1991 Y16.3117
G01 X60.1840 Y16.3384
G01 X60.1083 Y16.4647
G01 X60.0919 Y16.4906
G01 X60.0742 Y16.5157
G01 X59.9865 Y16.6339
G01 X59.9676 Y16.6581
G01 X59.9476 Y16.6813
G01 X59.8488 Y16.7904
G01 X59.8276 Y16.8126
G01 X59.8054 Y16.8338
G01 X59.6963 Y16.9326
G01 X59.6731 Y16.9526
G01 X59.6489 Y16.9715
G01 X59.5307 Y17.0592
G01 X59.5056 Y17.0769
G01 X59.4797 Y17.0933
G01 X59.3502 Y17.1708
G01 X59.3502 Y20.8428
G01 X59.3828 Y20.8483
G01 X59.4127 Y20.8551
G01 X59.5084 Y20.8792
G01 X59.5378 Y20.8881
G01 X59.5523 Y20.8931
G01 X59.6308 Y20.9212
G01 X59.6595 Y20.9323
G01 X59.6875 Y20.9447
G01 X59.7629 Y20.9804
G01 X59.7903 Y20.9942
G01 X59.8170 Y21.0093
G01 X59.8885 Y21.0522
G01 X59.9145 Y21.0686
G01 X59.9395 Y21.0862
G01 X60.0065 Y21.1359
G01 X60.0307 Y21.1548
G01 X60.0425 Y21.1647
G01 X60.1158 Y21.2309
G01 X60.1380 Y21.2520
G01 X60.1591 Y21.2742
G01 X60.2152 Y21.3360
G01 X60.2352 Y21.3593
G01 X60.2541 Y21.3835
G01 X60.3038 Y21.4505
G01 X60.3127 Y21.4629
G01 X60.3298 Y21.4884
G01 X60.3807 Y21.5730
G01 X60.3958 Y21.5997
G01 X60.4096 Y21.6271
G01 X60.4453 Y21.7025
G01 X60.4577 Y21.7305
G01 X60.4688 Y21.7592
G01 X60.4969 Y21.8377
G01 X60.5065 Y21.8668
G01 X60.5147 Y21.8964
G01 X60.5385 Y21.9922
G01 X60.5445 Y22.0223
G01 X60.5591 Y22.1200
G01 X60.5629 Y22.1504
G01 X60.5652 Y22.1810
G01 X60.5692 Y22.2643
G01 X60.5698 Y22.2797
G01 X60.5698 Y22.3103
G01 X60.5652 Y22.4090
G01 X60.5629 Y22.4396
G01 X60.5591 Y22.4700
G01 X60.5469 Y22.5525
G01 X60.5417 Y22.5828
G01 X60.5349 Y22.6127
G01 X60.5147 Y22.6936
G01 X60.5065 Y22.7232
G01 X60.4969 Y22.7523
G01 X60.4634 Y22.8452
G01 X60.4517 Y22.8736
G01 X60.4096 Y22.9629
G01 X60.3958 Y22.9903
G01 X60.3807 Y23.0170
G01 X60.3378 Y23.0885
G01 X60.3214 Y23.1145
G01 X60.3038 Y23.1395
G01 X60.2448 Y23.2188
G01 X60.2253 Y23.2425
G01 X60.1591 Y23.3158
G01 X60.1380 Y23.3380
G01 X60.1158 Y23.3591
G01 X60.0425 Y23.4253
G01 X60.0307 Y23.4352
G01 X60.0065 Y23.4541
G01 X59.9271 Y23.5127
G01 X59.9016 Y23.5298
G01 X59.8432 Y23.5650
G01 X59.8885 Y23.5922
G01 X59.9145 Y23.6086
G01 X59.9395 Y23.6262
G01 X60.0188 Y23.6852
G01 X60.0307 Y23.6948
G01 X60.0540 Y23.7148
G01 X60.1270 Y23.7813
G01 X60.1487 Y23.8030
G01 X60.1591 Y23.8142
G01 X60.2152 Y23.8760
G01 X60.2352 Y23.8993
G01 X60.2541 Y23.9235
G01 X60.3127 Y24.0029
G01 X60.3214 Y24.0155
G01 X60.3378 Y24.0415
G01 X60.3807 Y24.1130
G01 X60.3958 Y24.1397
G01 X60.4096 Y24.1671
G01 X60.4453 Y24.2425
G01 X60.4577 Y24.2705
G01 X60.4688 Y24.2992
G01 X60.4969 Y24.3777
G01 X60.5065 Y24.4068
G01 X60.5147 Y24.4364
G01 X60.5385 Y24.5322
G01 X60.5445 Y24.5623
G01 X60.5469 Y24.5775
G01 X60.5591 Y24.6600
G01 X60.5629 Y24.6904
G01 X60.5652 Y24.7210
G01 X60.5692 Y24.8043
G01 X60.5698 Y24.8197
G01 X60.5698 Y24.8503
G01 X60.5642 Y24.9643
G01 X60.5629 Y24.9796
G01 X60.5591 Y25.0100
G01 X60.5469 Y25.0925
G01 X60.5417 Y25.1228
G01 X60.5349 Y25.1527
G01 X60.5147 Y25.2336
G01 X60.5108 Y25.2484
G01 X60.5019 Y25.2778
G01 X60.4634 Y25.3852
G01 X60.4517 Y25.4136
G01 X60.4453 Y25.4275
G01 X60.4096 Y25.5029
G01 X60.3958 Y25.5303
G01 X60.3807 Y25.5570
G01 X60.3298 Y25.6416
G01 X60.3214 Y25.6545
G01 X60.3038 Y25.6795
G01 X60.2448 Y25.7588
G01 X60.2253 Y25.7825
G01 X60.1487 Y25.8670
G01 X60.1270 Y25.8887
G01 X60.0947 Y25.9182
G01 X60.1264 Y25.9269
G01 X60.1556 Y25.9365
G01 X60.1699 Y25.9419
G01 X60.1842 Y25.9476
G01 X60.2122 Y25.9600
G01 X60.2396 Y25.9738
G01 X60.2531 Y25.9812
G01 X60.2663 Y25.9889
G01 X60.2922 Y26.0053
G01 X60.3173 Y26.0230
G01 X60.3295 Y26.0323
G01 X60.3532 Y26.0517
G01 X60.3647 Y26.0619
G01 X60.3869 Y26.0831
G01 X60.3977 Y26.0940
G01 X60.4081 Y26.1053
G01 X60.4281 Y26.1285
G01 X60.4470 Y26.1527
G01 X60.4647 Y26.1778
G01 X60.4730 Y26.1906
G01 X60.4888 Y26.2169
G01 X60.4962 Y26.2304
G01 X60.5100 Y26.2578
G01 X60.5164 Y26.2717
G01 X60.5281 Y26.3001
G01 X60.5335 Y26.3144
G01 X60.5385 Y26.3289
G01 X60.5474 Y26.3583
G01 X60.5548 Y26.3881
G01 X60.5580 Y26.4031
G01 X60.5632 Y26.4333
G01 X60.5670 Y26.4637
G01 X60.5692 Y26.4943
G01 X60.5700 Y26.5250
G01 X60.5700 Y28.2250
G01 X60.5698 Y28.2403
G01 X60.5683 Y28.2710
G01 X60.5670 Y28.2863
G01 X60.5632 Y28.3167
G01 X60.5580 Y28.3469
G01 X60.5513 Y28.3769
G01 X60.5474 Y28.3917
G01 X60.5385 Y28.4211
G01 X60.5335 Y28.4356
G01 X60.5224 Y28.4642
G01 X60.5100 Y28.4922
G01 X60.5033 Y28.5060
G01 X60.4888 Y28.5331
G01 X60.4730 Y28.5594
G01 X60.4560 Y28.5849
G01 X60.4470 Y28.5973
G01 X60.4281 Y28.6215
G01 X60.4081 Y28.6447
G01 X60.3977 Y28.6560
G01 X60.3869 Y28.6669
G01 X60.3647 Y28.6881
G01 X60.3532 Y28.6983
G01 X60.3295 Y28.7177
G01 X60.3049 Y28.7360
G01 X60.2922 Y28.7447
G01 X60.2663 Y28.7611
G01 X60.2396 Y28.7762
G01 X60.2122 Y28.7900
G01 X60.1842 Y28.8024
G01 X60.1556 Y28.8135
G01 X60.1264 Y28.8231
G01 X60.0969 Y28.8313
G01 X60.0669 Y28.8380
G01 X60.0367 Y28.8432
G01 X60.0063 Y28.8470
G01 X59.9757 Y28.8492
G01 X59.9450 Y28.8500
G01 X59.4702 Y28.8500
G01 X59.4702 Y29.2135
G01 X59.4694 Y29.2442
G01 X59.4666 Y29.2987
G01 X59.4636 Y29.3292
G01 X59.4533 Y29.3984
G01 X59.4473 Y29.4285
G01 X59.4342 Y29.4815
G01 X59.4261 Y29.5111
G01 X59.4164 Y29.5402
G01 X59.4032 Y29.5772
G01 X59.3922 Y29.6058
G01 X59.3861 Y29.6199
G01 X59.3562 Y29.6832
G01 X59.3491 Y29.6968
G01 X59.3340 Y29.7235
G01 X59.3138 Y29.7571
G01 X59.2974 Y29.7831
G01 X59.2798 Y29.8081
G01 X59.2564 Y29.8397
G01 X59.2471 Y29.8519
G01 X59.2276 Y29.8756
G01 X59.1911 Y29.9162
G01 X59.1699 Y29.9384
G01 X54.3183 Y34.7900
G01 X55.2350 Y34.7900
G01 X55.2503 Y34.7902
G01 X55.2902 Y34.7920
G01 X55.3208 Y34.7942
G01 X55.3512 Y34.7980
G01 X55.3906 Y34.8040
G01 X55.4207 Y34.8100
G01 X55.4594 Y34.8195
G01 X55.4890 Y34.8277
G01 X55.5036 Y34.8323
G01 X55.5412 Y34.8456
G01 X55.5698 Y34.8566
G01 X55.5839 Y34.8626
G01 X55.6201 Y34.8795
G01 X55.6339 Y34.8863
G01 X55.6609 Y34.9007
G01 X55.6952 Y34.9211
G01 X55.7211 Y34.9375
G01 X55.7338 Y34.9461
G01 X55.7659 Y34.9697
G01 X55.7901 Y34.9886
G01 X55.8018 Y34.9985
G01 X55.8315 Y35.0251
G01 X55.8537 Y35.0463
G01 X55.8644 Y35.0573
G01 X55.8913 Y35.0867
G01 X55.9015 Y35.0982
G01 X55.9210 Y35.1219
G01 X55.9539 Y35.1662
G01 X55.9709 Y35.1917
G01 X55.9789 Y35.2048
G01 X55.9993 Y35.2391
G01 X56.0067 Y35.2525
G01 X56.0205 Y35.2799
G01 X56.0374 Y35.3161
G01 X56.0491 Y35.3444
G01 X56.0544 Y35.3588
G01 X56.0677 Y35.3964
G01 X56.0723 Y35.4110
G01 X56.0805 Y35.4406
G01 X56.0900 Y35.4793
G01 X56.0960 Y35.5094
G01 X56.0984 Y35.5245
G01 X56.1041 Y35.5640
G01 X56.1071 Y35.5945
G01 X56.1092 Y35.6343
G01 X56.1100 Y35.6650
G01 X56.1100 Y36.8650
G01 X56.1092 Y36.8957
G01 X56.1071 Y36.9355
G01 X56.1058 Y36.9508
G01 X56.1041 Y36.9660
G01 X56.0984 Y37.0055
G01 X56.0932 Y37.0357
G01 X56.0865 Y37.0656
G01 X56.0766 Y37.1043
G01 X56.0723 Y37.1190
G01 X56.0677 Y37.1336
G01 X56.0544 Y37.1712
G01 X56.0434 Y37.1998
G01 X56.0374 Y37.2139
G01 X56.0137 Y37.2639
G01 X55.9993 Y37.2909
G01 X55.9709 Y37.3383
G01 X55.9539 Y37.3638
G01 X55.9449 Y37.3762
G01 X55.9210 Y37.4081
G01 X55.9114 Y37.4201
G01 X55.9015 Y37.4318
G01 X55.8749 Y37.4615
G01 X55.8644 Y37.4727
G01 X55.8427 Y37.4944
G01 X55.8133 Y37.5213
G01 X55.8018 Y37.5315
G01 X55.7781 Y37.5510
G01 X55.7338 Y37.5839
G01 X55.7083 Y37.6009
G01 X55.6602 Y37.6297
G01 X55.6602 Y37.7450
G01 X55.6780 Y37.7620
G01 X55.6991 Y37.7842
G01 X55.7552 Y37.8460
G01 X55.7752 Y37.8693
G01 X55.7941 Y37.8935
G01 X55.8438 Y37.9605
G01 X55.8614 Y37.9855
G01 X55.8778 Y38.0115
G01 X55.9207 Y38.0830
G01 X55.9358 Y38.1097
G01 X55.9496 Y38.1371
G01 X55.9917 Y38.2264
G01 X56.0034 Y38.2548
G01 X56.0088 Y38.2692
G01 X56.0369 Y38.3477
G01 X56.0465 Y38.3768
G01 X56.0547 Y38.4064
G01 X56.0749 Y38.4873
G01 X56.0817 Y38.5172
G01 X56.0845 Y38.5323
G01 X56.0991 Y38.6300
G01 X56.1012 Y38.6452
G01 X56.1042 Y38.6757
G01 X56.1092 Y38.7743
G01 X56.1100 Y38.8050
G01 X56.1092 Y38.8357
G01 X56.1052 Y38.9190
G01 X56.1029 Y38.9496
G01 X56.0991 Y38.9800
G01 X56.0869 Y39.0625
G01 X56.0817 Y39.0928
G01 X56.0749 Y39.1227
G01 X56.0547 Y39.2036
G01 X56.0465 Y39.2332
G01 X56.0369 Y39.2623
G01 X56.0088 Y39.3408
G01 X55.9977 Y39.3695
G01 X55.9853 Y39.3975
G01 X55.9496 Y39.4729
G01 X55.9429 Y39.4867
G01 X55.9284 Y39.5137
G01 X55.8778 Y39.5985
G01 X55.8614 Y39.6245
G01 X55.8438 Y39.6495
G01 X55.7848 Y39.7288
G01 X55.7653 Y39.7525
G01 X55.6887 Y39.8370
G01 X55.6780 Y39.8480
G01 X55.6606 Y39.8646
G01 X55.6602 Y41.3452
G01 X55.6594 Y41.3757
G01 X55.6575 Y41.4149
G01 X55.6553 Y41.4455
G01 X55.6515 Y41.4759
G01 X55.6433 Y41.5299
G01 X55.6405 Y41.5450
G01 X55.6338 Y41.5749
G01 X55.6203 Y41.6279
G01 X55.6114 Y41.6572
G01 X55.5932 Y41.7087
G01 X55.5822 Y41.7373
G01 X55.5697 Y41.7654
G01 X55.5462 Y41.8147
G01 X55.5317 Y41.8417
G01 X55.5038 Y41.8887
G01 X55.4958 Y41.9017
G01 X55.4787 Y41.9272
G01 X55.4464 Y41.9712
G01 X55.4275 Y41.9954
G01 X55.4075 Y42.0186
G01 X55.3811 Y42.0477
G01 X55.3599 Y42.0699
G01 X53.4549 Y43.9749
G01 X53.4327 Y43.9961
G01 X53.3921 Y44.0326
G01 X53.3684 Y44.0521
G01 X53.3247 Y44.0848
G01 X53.2996 Y44.1024
G01 X53.2737 Y44.1188
G01 X53.2267 Y44.1467
G01 X53.1997 Y44.1612
G01 X53.1504 Y44.1847
G01 X53.1223 Y44.1972
G01 X53.0937 Y44.2082
G01 X53.0422 Y44.2264
G01 X53.0129 Y44.2353
G01 X52.9599 Y44.2488
G01 X52.9300 Y44.2555
G01 X52.8998 Y44.2607
G01 X52.8457 Y44.2686
G01 X52.8152 Y44.2716
G01 X52.7607 Y44.2744
G01 X52.7300 Y44.2752
G01 X28.6000 Y44.2752
G01 X28.5693 Y44.2744
G01 X28.5301 Y44.2725
G01 X28.4995 Y44.2703
G01 X28.4691 Y44.2665
G01 X28.4302 Y44.2607
G01 X28.4000 Y44.2555
G01 X28.3850 Y44.2523
G01 X28.3510 Y44.2440
G01 X28.3171 Y44.2353
G01 X28.3024 Y44.2311
G01 X28.2733 Y44.2214
G01 X28.2219 Y44.2029
G01 X28.2077 Y44.1972
G01 X28.1796 Y44.1847
G01 X28.1441 Y44.1679
G01 X28.1167 Y44.1541
G01 X28.0900 Y44.1390
G01 X28.0563 Y44.1188
G01 X28.0304 Y44.1024
G01 X28.0053 Y44.0848
G01 X27.9738 Y44.0614
G01 X27.9496 Y44.0425
G01 X27.9264 Y44.0225
G01 X27.8973 Y43.9961
G01 X27.8751 Y43.9749
G01 X22.7951 Y38.8949
G01 X22.7739 Y38.8727
G01 X22.7475 Y38.8436
G01 X22.7275 Y38.8204
G01 X22.7086 Y38.7962
G01 X22.6852 Y38.7647
G01 X22.6676 Y38.7396
G01 X22.6512 Y38.7137
G01 X22.6310 Y38.6800
G01 X22.6159 Y38.6533
G01 X22.6021 Y38.6259
G01 X22.5853 Y38.5904
G01 X22.5789 Y38.5764
G01 X22.5671 Y38.5481
G01 X22.5486 Y38.4967
G01 X22.5389 Y38.4676
G01 X22.5308 Y38.4380
G01 X22.5212 Y38.3999
G01 X22.5145 Y38.3700
G01 X22.5093 Y38.3398
G01 X22.5035 Y38.3009
G01 X22.4997 Y38.2705
G01 X22.4975 Y38.2399
G01 X22.4956 Y38.2007
G01 X22.4948 Y38.1700
G01 X22.4948 Y29.6702
G01 X21.5343 Y29.6702
G01 X21.4722 Y29.7265
G01 X21.4490 Y29.7465
G01 X21.4248 Y29.7654
G01 X21.3493 Y29.8212
G01 X21.3238 Y29.8382
G01 X21.2434 Y29.8866
G01 X21.2167 Y29.9017
G01 X21.1904 Y29.9150
G01 X21.2167 Y29.9283
G01 X21.2302 Y29.9357
G01 X21.3108 Y29.9837
G01 X21.3367 Y30.0002
G01 X21.3618 Y30.0178
G01 X21.4370 Y30.0739
G01 X21.4607 Y30.0933
G01 X21.4722 Y30.1035
G01 X21.5304 Y30.1562
G01 X21.5526 Y30.1774
G01 X21.5738 Y30.1996
G01 X21.6367 Y30.2693
G01 X21.6561 Y30.2930
G01 X21.7122 Y30.3682
G01 X21.7212 Y30.3807
G01 X21.7382 Y30.4062
G01 X21.7866 Y30.4866
G01 X21.8017 Y30.5133
G01 X21.8155 Y30.5407
G01 X21.8491 Y30.6116
G01 X21.8555 Y30.6256
G01 X21.8672 Y30.6539
G01 X21.8990 Y30.7422
G01 X21.9086 Y30.7713
G01 X21.9168 Y30.8009
G01 X21.9394 Y30.8920
G01 X21.9454 Y30.9221
G01 X21.9479 Y30.9372
G01 X21.9594 Y31.0149
G01 X21.9631 Y31.0453
G01 X21.9654 Y31.0759
G01 X21.9698 Y31.1697
G01 X21.9698 Y31.2003
G01 X21.9654 Y31.2941
G01 X21.9631 Y31.3247
G01 X21.9594 Y31.3551
G01 X21.9479 Y31.4328
G01 X21.9426 Y31.4630
G01 X21.9359 Y31.4929
G01 X21.9129 Y31.5839
G01 X21.9086 Y31.5987
G01 X21.8990 Y31.6278
G01 X21.8672 Y31.7161
G01 X21.8555 Y31.7444
G01 X21.8155 Y31.8293
G01 X21.8017 Y31.8567
G01 X21.7866 Y31.8834
G01 X21.7463 Y31.9508
G01 X21.7298 Y31.9767
G01 X21.7212 Y31.9893
G01 X21.6654 Y32.0648
G01 X21.6465 Y32.0890
G01 X21.6265 Y32.1122
G01 X21.5633 Y32.1816
G01 X21.5526 Y32.1926
G01 X21.5304 Y32.2138
G01 X21.4722 Y32.2665
G01 X21.4490 Y32.2865
G01 X21.4248 Y32.3054
G01 X21.3493 Y32.3612
G01 X21.3238 Y32.3782
G01 X21.2434 Y32.4266
G01 X21.2167 Y32.4417
G01 X21.1904 Y32.4550
G01 X21.2167 Y32.4683
G01 X21.2302 Y32.4757
G01 X21.3108 Y32.5237
G01 X21.3367 Y32.5402
G01 X21.3618 Y32.5578
G01 X21.4370 Y32.6139
G01 X21.4607 Y32.6333
G01 X21.4722 Y32.6435
G01 X21.5304 Y32.6962
G01 X21.5526 Y32.7174
G01 X21.5738 Y32.7396
G01 X21.6367 Y32.8093
G01 X21.6561 Y32.8330
G01 X21.7122 Y32.9082
G01 X21.7212 Y32.9207
G01 X21.7382 Y32.9462
G01 X21.7866 Y33.0266
G01 X21.8017 Y33.0533
G01 X21.8155 Y33.0807
G01 X21.8491 Y33.1516
G01 X21.8615 Y33.1797
G01 X21.8672 Y33.1939
G01 X21.8990 Y33.2822
G01 X21.9086 Y33.3113
G01 X21.9168 Y33.3409
G01 X21.9394 Y33.4320
G01 X21.9426 Y33.4470
G01 X21.9479 Y33.4772
G01 X21.9594 Y33.5549
G01 X21.9631 Y33.5853
G01 X21.9654 Y33.6159
G01 X21.9698 Y33.7097
G01 X21.9698 Y33.7403
G01 X21.9654 Y33.8341
G01 X21.9631 Y33.8647
G01 X21.9594 Y33.8951
G01 X21.9479 Y33.9728
G01 X21.9426 Y34.0030
G01 X21.9359 Y34.0329
G01 X21.9129 Y34.1239
G01 X21.9086 Y34.1387
G01 X21.8990 Y34.1678
G01 X21.8672 Y34.2561
G01 X21.8555 Y34.2844
G01 X21.8155 Y34.3693
G01 X21.8017 Y34.3967
G01 X21.7866 Y34.4234
G01 X21.7463 Y34.4908
G01 X21.7298 Y34.5167
G01 X21.7212 Y34.5293
G01 X21.6654 Y34.6048
G01 X21.6465 Y34.6290
G01 X21.6265 Y34.6522
G01 X21.5633 Y34.7216
G01 X21.5526 Y34.7326
G01 X21.5304 Y34.7538
G01 X21.4722 Y34.8065
G01 X21.4490 Y34.8265
G01 X21.4248 Y34.8454
G01 X21.3493 Y34.9012
G01 X21.3238 Y34.9182
G01 X21.2434 Y34.9666
G01 X21.2167 Y34.9817
G01 X21.1904 Y34.9950
G01 X21.2167 Y35.0083
G01 X21.2302 Y35.0157
G01 X21.3108 Y35.0637
G01 X21.3367 Y35.0802
G01 X21.3618 Y35.0978
G01 X21.4370 Y35.1539
G01 X21.4607 Y35.1733
G01 X21.4722 Y35.1835
G01 X21.5304 Y35.2362
G01 X21.5526 Y35.2574
G01 X21.5738 Y35.2796
G01 X21.6265 Y35.3378
G01 X21.6465 Y35.3610
G01 X21.6561 Y35.3730
G01 X21.7122 Y35.4482
G01 X21.7298 Y35.4733
G01 X21.7463 Y35.4992
G01 X21.7943 Y35.5798
G01 X21.8088 Y35.6069
G01 X21.8155 Y35.6207
G01 X21.8491 Y35.6916
G01 X21.8615 Y35.7197
G01 X21.8726 Y35.7483
G01 X21.8990 Y35.8222
G01 X21.9040 Y35.8367
G01 X21.9129 Y35.8661
G01 X21.9359 Y35.9571
G01 X21.9426 Y35.9870
G01 X21.9479 Y36.0172
G01 X21.9594 Y36.0949
G01 X21.9614 Y36.1101
G01 X21.9645 Y36.1406
G01 X21.9692 Y36.2343
G01 X21.9700 Y36.2650
G01 X21.9692 Y36.2957
G01 X21.9654 Y36.3741
G01 X21.9645 Y36.3894
G01 X21.9614 Y36.4199
G01 X21.9479 Y36.5128
G01 X21.9426 Y36.5430
G01 X21.9359 Y36.5729
G01 X21.9129 Y36.6639
G01 X21.9086 Y36.6787
G01 X21.8990 Y36.7078
G01 X21.8726 Y36.7817
G01 X21.8615 Y36.8103
G01 X21.8491 Y36.8384
G01 X21.8155 Y36.9093
G01 X21.8017 Y36.9367
G01 X21.7943 Y36.9502
G01 X21.7463 Y37.0308
G01 X21.7298 Y37.0567
G01 X21.7122 Y37.0818
G01 X21.6654 Y37.1448
G01 X21.6561 Y37.1570
G01 X21.6367 Y37.1807
G01 X21.5738 Y37.2504
G01 X21.5526 Y37.2726
G01 X21.5304 Y37.2938
G01 X21.4722 Y37.3465
G01 X21.4607 Y37.3567
G01 X21.4370 Y37.3761
G01 X21.3493 Y37.4412
G01 X21.3238 Y37.4582
G01 X21.3108 Y37.4663
G01 X21.2434 Y37.5066
G01 X21.2167 Y37.5217
G01 X21.1893 Y37.5355
G01 X21.1044 Y37.5755
G01 X21.0761 Y37.5872
G01 X21.0617 Y37.5926
G01 X20.9878 Y37.6190
G01 X20.9587 Y37.6286
G01 X20.9291 Y37.6368
G01 X20.8529 Y37.6559
G01 X20.8230 Y37.6626
G01 X20.8079 Y37.6654
G01 X20.7151 Y37.6794
G01 X20.6847 Y37.6831
G01 X20.6541 Y37.6854
G01 X20.5757 Y37.6892
G01 X20.5450 Y37.6900
G01 X19.1450 Y37.6900
G01 X19.1143 Y37.6892
G01 X19.0359 Y37.6854
G01 X19.0053 Y37.6831
G01 X18.9749 Y37.6794
G01 X18.8972 Y37.6679
G01 X18.8821 Y37.6654
G01 X18.8520 Y37.6594
G01 X18.7609 Y37.6368
G01 X18.7313 Y37.6286
G01 X18.7022 Y37.6190
G01 X18.6283 Y37.5926
G01 X18.5997 Y37.5815
G01 X18.5716 Y37.5691
G01 X18.5007 Y37.5355
G01 X18.4733 Y37.5217
G01 X18.4466 Y37.5066
G01 X18.3662 Y37.4582
G01 X18.3407 Y37.4412
G01 X18.3282 Y37.4322
G01 X18.2652 Y37.3854
G01 X18.2410 Y37.3665
G01 X18.2178 Y37.3465
G01 X18.1596 Y37.2938
G01 X18.1484 Y37.2833
G01 X18.1267 Y37.2616
G01 X18.0533 Y37.1807
G01 X18.0339 Y37.1570
G01 X18.0246 Y37.1448
G01 X17.9778 Y37.0818
G01 X17.9602 Y37.0567
G01 X17.9437 Y37.0308
G01 X17.9034 Y36.9634
G01 X17.8883 Y36.9367
G01 X17.8812 Y36.9231
G01 X17.8409 Y36.8384
G01 X17.8285 Y36.8103
G01 X17.8174 Y36.7817
G01 X17.7910 Y36.7078
G01 X17.7814 Y36.6787
G01 X17.7732 Y36.6491
G01 X17.7541 Y36.5729
G01 X17.7474 Y36.5430
G01 X17.7421 Y36.5128
G01 X17.7306 Y36.4351
G01 X17.7269 Y36.4047
G01 X17.7246 Y36.3741
G01 X17.7208 Y36.2957
G01 X17.7200 Y36.2650
G01 X17.7208 Y36.2343
G01 X17.7246 Y36.1559
G01 X17.7269 Y36.1253
G01 X17.7306 Y36.0949
G01 X17.7421 Y36.0172
G01 X17.7474 Y35.9870
G01 X17.7541 Y35.9571
G01 X17.7732 Y35.8809
G01 X17.7814 Y35.8513
G01 X17.7860 Y35.8367
G01 X17.8174 Y35.7483
G01 X17.8285 Y35.7197
G01 X17.8409 Y35.6916
G01 X17.8745 Y35.6207
G01 X17.8883 Y35.5933
G01 X17.9034 Y35.5666
G01 X17.9437 Y35.4992
G01 X17.9602 Y35.4733
G01 X17.9778 Y35.4482
G01 X18.0246 Y35.3852
G01 X18.0339 Y35.3730
G01 X18.0533 Y35.3493
G01 X18.1162 Y35.2796
G01 X18.1374 Y35.2574
G01 X18.1596 Y35.2362
G01 X18.2178 Y35.1835
G01 X18.2293 Y35.1733
G01 X18.2530 Y35.1539
G01 X18.3282 Y35.0978
G01 X18.3407 Y35.0888
G01 X18.3662 Y35.0718
G01 X18.4598 Y35.0157
G01 X18.4733 Y35.0083
G01 X18.4996 Y34.9950
G01 X18.4733 Y34.9817
G01 X18.4598 Y34.9743
G01 X18.3792 Y34.9263
G01 X18.3533 Y34.9098
G01 X18.3282 Y34.8922
G01 X18.2652 Y34.8454
G01 X18.2410 Y34.8265
G01 X18.2178 Y34.8065
G01 X18.1596 Y34.7538
G01 X18.1374 Y34.7326
G01 X18.1162 Y34.7104
G01 X18.0635 Y34.6522
G01 X18.0435 Y34.6290
G01 X18.0246 Y34.6048
G01 X17.9778 Y34.5418
G01 X17.9688 Y34.5293
G01 X17.9518 Y34.5038
G01 X17.9034 Y34.4234
G01 X17.8883 Y34.3967
G01 X17.8745 Y34.3693
G01 X17.8409 Y34.2984
G01 X17.8285 Y34.2703
G01 X17.8174 Y34.2417
G01 X17.7910 Y34.1678
G01 X17.7860 Y34.1533
G01 X17.7771 Y34.1239
G01 X17.7541 Y34.0329
G01 X17.7474 Y34.0030
G01 X17.7421 Y33.9728
G01 X17.7306 Y33.8951
G01 X17.7269 Y33.8647
G01 X17.7246 Y33.8341
G01 X17.7208 Y33.7557
G01 X17.7200 Y33.7250
G01 X17.7208 Y33.6943
G01 X17.7255 Y33.6006
G01 X17.7269 Y33.5853
G01 X17.7306 Y33.5549
G01 X17.7421 Y33.4772
G01 X17.7474 Y33.4470
G01 X17.7541 Y33.4171
G01 X17.7732 Y33.3409
G01 X17.7814 Y33.3113
G01 X17.7860 Y33.2967
G01 X17.8228 Y33.1939
G01 X17.8345 Y33.1656
G01 X17.8409 Y33.1516
G01 X17.8745 Y33.0807
G01 X17.8883 Y33.0533
G01 X17.9034 Y33.0266
G01 X17.9437 Y32.9592
G01 X17.9602 Y32.9333
G01 X17.9688 Y32.9207
G01 X18.0339 Y32.8330
G01 X18.0533 Y32.8093
G01 X18.0635 Y32.7978
G01 X18.1162 Y32.7396
G01 X18.1374 Y32.7174
G01 X18.1596 Y32.6962
G01 X18.2293 Y32.6333
G01 X18.2530 Y32.6139
G01 X18.2652 Y32.6046
G01 X18.3282 Y32.5578
G01 X18.3533 Y32.5402
G01 X18.3792 Y32.5237
G01 X18.4598 Y32.4757
G01 X18.4733 Y32.4683
G01 X18.4996 Y32.4550
G01 X18.4733 Y32.4417
G01 X18.4598 Y32.4343
G01 X18.3792 Y32.3863
G01 X18.3533 Y32.3698
G01 X18.3282 Y32.3522
G01 X18.2652 Y32.3054
G01 X18.2410 Y32.2865
G01 X18.2178 Y32.2665
G01 X18.1596 Y32.2138
G01 X18.1374 Y32.1926
G01 X18.1162 Y32.1704
G01 X18.0635 Y32.1122
G01 X18.0435 Y32.0890
G01 X18.0246 Y32.0648
G01 X17.9778 Y32.0018
G01 X17.9688 Y31.9893
G01 X17.9518 Y31.9638
G01 X17.9034 Y31.8834
G01 X17.8883 Y31.8567
G01 X17.8745 Y31.8293
G01 X17.8409 Y31.7584
G01 X17.8285 Y31.7303
G01 X17.8174 Y31.7017
G01 X17.7910 Y31.6278
G01 X17.7860 Y31.6133
G01 X17.7771 Y31.5839
G01 X17.7541 Y31.4929
G01 X17.7474 Y31.4630
G01 X17.7421 Y31.4328
G01 X17.7306 Y31.3551
G01 X17.7269 Y31.3247
G01 X17.7246 Y31.2941
G01 X17.7208 Y31.2157
G01 X17.7200 Y31.1850
G01 X17.7202 Y31.1697
G01 X17.7246 Y31.0759
G01 X17.7269 Y31.0453
G01 X17.7306 Y31.0149
G01 X17.7446 Y30.9221
G01 X17.7474 Y30.9070
G01 X17.7541 Y30.8771
G01 X17.7732 Y30.8009
G01 X17.7814 Y30.7713
G01 X17.7910 Y30.7422
G01 X17.8174 Y30.6683
G01 X17.8285 Y30.6397
G01 X17.8345 Y30.6256
G01 X17.8745 Y30.5407
G01 X17.8883 Y30.5133
G01 X17.9034 Y30.4866
G01 X17.9437 Y30.4192
G01 X17.9602 Y30.3933
G01 X17.9778 Y30.3682
G01 X18.0339 Y30.2930
G01 X18.0533 Y30.2693
G01 X18.0635 Y30.2578
G01 X18.1162 Y30.1996
G01 X18.1374 Y30.1774
G01 X18.1596 Y30.1562
G01 X18.2178 Y30.1035
G01 X18.2293 Y30.0933
G01 X18.2530 Y30.0739
G01 X18.3282 Y30.0178
G01 X18.3533 Y30.0002
G01 X18.3792 Y29.9837
G01 X18.4598 Y29.9357
G01 X18.4733 Y29.9283
G01 X18.4996 Y29.9150
G01 X18.4733 Y29.9017
G01 X18.4466 Y29.8866
G01 X18.3662 Y29.8382
G01 X18.3407 Y29.8212
G01 X18.2652 Y29.7654
G01 X18.2410 Y29.7465
G01 X18.2178 Y29.7265
G01 X18.1557 Y29.6702
G01 X17.3547 Y29.6702
G01 X13.2099 Y33.8149
G01 X13.1877 Y33.8361
G01 X13.1586 Y33.8625
G01 X13.1354 Y33.8825
G01 X13.1112 Y33.9014
G01 X13.0797 Y33.9248
G01 X13.0672 Y33.9337
G01 X13.0417 Y33.9508
G01 X12.9950 Y33.9790
G01 X12.9683 Y33.9941
G01 X12.9409 Y34.0079
G01 X12.9054 Y34.0247
G01 X12.8914 Y34.0311
G01 X12.8631 Y34.0429
G01 X12.7972 Y34.0664
G01 X12.7679 Y34.0753
G01 X12.7530 Y34.0792
G01 X12.7149 Y34.0888
G01 X12.6850 Y34.0955
G01 X12.6548 Y34.1007
G01 X12.6159 Y34.1065
G01 X12.5855 Y34.1103
G01 X12.5549 Y34.1125
G01 X12.5003 Y34.1150
G01 X11.8950 Y34.1152
G01 X11.8780 Y34.1330
G01 X11.8558 Y34.1541
G01 X11.7825 Y34.2203
G01 X11.7588 Y34.2398
G01 X11.6795 Y34.2988
G01 X11.6545 Y34.3164
G01 X11.6285 Y34.3328
G01 X11.5832 Y34.3600
G01 X11.6285 Y34.3872
G01 X11.6545 Y34.4036
G01 X11.6795 Y34.4212
G01 X11.7588 Y34.4802
G01 X11.7825 Y34.4997
G01 X11.7940 Y34.5098
G01 X11.8670 Y34.5763
G01 X11.8887 Y34.5980
G01 X11.8991 Y34.6092
G01 X11.9552 Y34.6710
G01 X11.9752 Y34.6943
G01 X11.9941 Y34.7185
G01 X12.0438 Y34.7855
G01 X12.0614 Y34.8105
G01 X12.0698 Y34.8234
G01 X12.1284 Y34.9213
G01 X12.1358 Y34.9347
G01 X12.1496 Y34.9621
G01 X12.1853 Y35.0375
G01 X12.1977 Y35.0655
G01 X12.2088 Y35.0942
G01 X12.2369 Y35.1727
G01 X12.2465 Y35.2018
G01 X12.2508 Y35.2166
G01 X12.2785 Y35.3272
G01 X12.2845 Y35.3573
G01 X12.2869 Y35.3725
G01 X12.3012 Y35.4702
G01 X12.3029 Y35.4854
G01 X12.3052 Y35.5160
G01 X12.3092 Y35.5993
G01 X12.3100 Y35.6300
G01 X12.3092 Y35.6607
G01 X12.3042 Y35.7593
G01 X12.3012 Y35.7898
G01 X12.2991 Y35.8050
G01 X12.2869 Y35.8875
G01 X12.2817 Y35.9178
G01 X12.2749 Y35.9477
G01 X12.2547 Y36.0286
G01 X12.2508 Y36.0434
G01 X12.2419 Y36.0728
G01 X12.2034 Y36.1802
G01 X12.1917 Y36.2086
G01 X12.1853 Y36.2225
G01 X12.1496 Y36.2979
G01 X12.1358 Y36.3253
G01 X12.1207 Y36.3520
G01 X12.0778 Y36.4235
G01 X12.0698 Y36.4366
G01 X12.0527 Y36.4621
G01 X11.9941 Y36.5415
G01 X11.9848 Y36.5538
G01 X11.9653 Y36.5775
G01 X11.8887 Y36.6620
G01 X11.8670 Y36.6837
G01 X11.8347 Y36.7132
G01 X11.8517 Y36.7176
G01 X11.8811 Y36.7265
G01 X11.9099 Y36.7369
G01 X11.9242 Y36.7426
G01 X11.9383 Y36.7486
G01 X11.9660 Y36.7617
G01 X11.9796 Y36.7688
G01 X12.0063 Y36.7839
G01 X12.0194 Y36.7920
G01 X12.0449 Y36.8090
G01 X12.0573 Y36.8180
G01 X12.0815 Y36.8369
G01 X12.0932 Y36.8467
G01 X12.1160 Y36.8673
G01 X12.1269 Y36.8781
G01 X12.1481 Y36.9003
G01 X12.1681 Y36.9235
G01 X12.1777 Y36.9355
G01 X12.1870 Y36.9477
G01 X12.2047 Y36.9728
G01 X12.2130 Y36.9856
G01 X12.2288 Y37.0119
G01 X12.2433 Y37.0390
G01 X12.2500 Y37.0528
G01 X12.2564 Y37.0667
G01 X12.2681 Y37.0951
G01 X12.2785 Y37.1239
G01 X12.2874 Y37.1533
G01 X12.2913 Y37.1681
G01 X12.2980 Y37.1981
G01 X12.3032 Y37.2283
G01 X12.3053 Y37.2435
G01 X12.3083 Y37.2740
G01 X12.3098 Y37.3047
G01 X12.3100 Y37.3200
G01 X12.3100 Y39.0200
G01 X12.3098 Y39.0353
G01 X12.3083 Y39.0660
G01 X12.3053 Y39.0965
G01 X12.3032 Y39.1117
G01 X12.2980 Y39.1419
G01 X12.2913 Y39.1719
G01 X12.2874 Y39.1867
G01 X12.2785 Y39.2161
G01 X12.2681 Y39.2449
G01 X12.2624 Y39.2592
G01 X12.2500 Y39.2872
G01 X12.2433 Y39.3010
G01 X12.2288 Y39.3281
G01 X12.2130 Y39.3544
G01 X12.1960 Y39.3799
G01 X12.1777 Y39.4045
G01 X12.1583 Y39.4282
G01 X12.1481 Y39.4397
G01 X12.1269 Y39.4619
G01 X12.1047 Y39.4831
G01 X12.0815 Y39.5031
G01 X12.0695 Y39.5127
G01 X12.0449 Y39.5310
G01 X12.0194 Y39.5480
G01 X11.9931 Y39.5638
G01 X11.9660 Y39.5783
G01 X11.9383 Y39.5914
G01 X11.9099 Y39.6031
G01 X11.8811 Y39.6135
G01 X11.8517 Y39.6224
G01 X11.8219 Y39.6298
G01 X11.7919 Y39.6358
G01 X11.7615 Y39.6403
G01 X11.7310 Y39.6433
G01 X11.7003 Y39.6448
G01 X8.6850 Y39.6450
G01 X8.6543 Y39.6442
G01 X8.6390 Y39.6433
G01 X8.6085 Y39.6403
G01 X8.5933 Y39.6382
G01 X8.5631 Y39.6330
G01 X8.5331 Y39.6263
G01 X8.5036 Y39.6181
G01 X8.4744 Y39.6085
G01 X8.4601 Y39.6031
G01 X8.4458 Y39.5974
G01 X8.4178 Y39.5850
G01 X8.4040 Y39.5783
G01 X8.3769 Y39.5638
G01 X8.3506 Y39.5480
G01 X8.3251 Y39.5310
G01 X8.3005 Y39.5127
G01 X8.2885 Y39.5031
G01 X8.2653 Y39.4831
G01 X8.2431 Y39.4619
G01 X8.2219 Y39.4397
G01 X8.2019 Y39.4165
G01 X8.1830 Y39.3923
G01 X8.1653 Y39.3672
G01 X8.1489 Y39.3413
G01 X8.1338 Y39.3146
G01 X8.1200 Y39.2872
G01 X8.1076 Y39.2592
G01 X8.0965 Y39.2306
G01 X8.0869 Y39.2014
G01 X8.0787 Y39.1719
G01 X8.0720 Y39.1419
G01 X8.0668 Y39.1117
G01 X8.0630 Y39.0813
G01 X8.0608 Y39.0507
G01 X8.0600 Y39.0200
G01 X8.0600 Y37.3200
G01 X8.0608 Y37.2893
G01 X8.0630 Y37.2587
G01 X8.0668 Y37.2283
G01 X8.0692 Y37.2131
G01 X8.0752 Y37.1831
G01 X8.0826 Y37.1533
G01 X8.0915 Y37.1239
G01 X8.0965 Y37.1094
G01 X8.1076 Y37.0808
G01 X8.1136 Y37.0667
G01 X8.1267 Y37.0390
G01 X8.1338 Y37.0254
G01 X8.1412 Y37.0119
G01 X8.1570 Y36.9856
G01 X8.1653 Y36.9728
G01 X8.1830 Y36.9477
G01 X8.2019 Y36.9235
G01 X8.2117 Y36.9118
G01 X8.2323 Y36.8890
G01 X8.2431 Y36.8781
G01 X8.2653 Y36.8569
G01 X8.2768 Y36.8467
G01 X8.2885 Y36.8369
G01 X8.3127 Y36.8180
G01 X8.3378 Y36.8003
G01 X8.3637 Y36.7839
G01 X8.3769 Y36.7762
G01 X8.4040 Y36.7617
G01 X8.4317 Y36.7486
G01 X8.4458 Y36.7426
G01 X8.4744 Y36.7315
G01 X8.4889 Y36.7265
G01 X8.5183 Y36.7176
G01 X8.5353 Y36.7132
G01 X8.5030 Y36.6837
G01 X8.4813 Y36.6620
G01 X8.4047 Y36.5775
G01 X8.3852 Y36.5538
G01 X8.3759 Y36.5415
G01 X8.3173 Y36.4621
G01 X8.3086 Y36.4495
G01 X8.2922 Y36.4235
G01 X8.2493 Y36.3520
G01 X8.2342 Y36.3253
G01 X8.2204 Y36.2979
G01 X8.1847 Y36.2225
G01 X8.1723 Y36.1945
G01 X8.1666 Y36.1802
G01 X8.1281 Y36.0728
G01 X8.1192 Y36.0434
G01 X8.1153 Y36.0286
G01 X8.0951 Y35.9477
G01 X8.0883 Y35.9178
G01 X8.0831 Y35.8875
G01 X8.0709 Y35.8050
G01 X8.0671 Y35.7746
G01 X8.0658 Y35.7593
G01 X8.0608 Y35.6607
G01 X8.0600 Y35.6300
G01 X8.0608 Y35.5993
G01 X8.0648 Y35.5160
G01 X8.0671 Y35.4854
G01 X8.0709 Y35.4550
G01 X8.0831 Y35.3725
G01 X8.0883 Y35.3422
G01 X8.0951 Y35.3123
G01 X8.1192 Y35.2166
G01 X8.1235 Y35.2018
G01 X8.1331 Y35.1727
G01 X8.1612 Y35.0942
G01 X8.1723 Y35.0655
G01 X8.1847 Y35.0375
G01 X8.2204 Y34.9621
G01 X8.2271 Y34.9483
G01 X8.2416 Y34.9213
G01 X8.3002 Y34.8234
G01 X8.3173 Y34.7979
G01 X8.3262 Y34.7855
G01 X8.3759 Y34.7185
G01 X8.3948 Y34.6943
G01 X8.4148 Y34.6710
G01 X8.4709 Y34.6092
G01 X8.4813 Y34.5980
G01 X8.5030 Y34.5763
G01 X8.5760 Y34.5098
G01 X8.5875 Y34.4997
G01 X8.6112 Y34.4802
G01 X8.6905 Y34.4212
G01 X8.7155 Y34.4036
G01 X8.7415 Y34.3872
G01 X8.7868 Y34.3600
G01 X8.7415 Y34.3328
G01 X8.7155 Y34.3164
G01 X8.6905 Y34.2988
G01 X8.6112 Y34.2398
G01 X8.5875 Y34.2203
G01 X8.5760 Y34.2102
G01 X8.5030 Y34.1437
G01 X8.4813 Y34.1220
G01 X8.4709 Y34.1108
G01 X8.4148 Y34.0490
G01 X8.3948 Y34.0257
G01 X8.3759 Y34.0015
G01 X8.3173 Y33.9221
G01 X8.3086 Y33.9095
G01 X8.2922 Y33.8835
G01 X8.2493 Y33.8120
G01 X8.2342 Y33.7853
G01 X8.2204 Y33.7579
G01 X8.1847 Y33.6825
G01 X8.1723 Y33.6545
G01 X8.1612 Y33.6258
G01 X8.1331 Y33.5473
G01 X8.1235 Y33.5182
G01 X8.1153 Y33.4886
G01 X8.0951 Y33.4077
G01 X8.0915 Y33.3928
G01 X8.0855 Y33.3627
G01 X8.0709 Y33.2650
G01 X8.0671 Y33.2346
G01 X8.0658 Y33.2193
G01 X8.0602 Y33.1053
G01 X8.0600 Y33.0900
G01 X8.0608 Y33.0593
G01 X8.0648 Y32.9760
G01 X8.0671 Y32.9454
G01 X8.0709 Y32.9150
G01 X8.0831 Y32.8325
G01 X8.0855 Y32.8173
G01 X8.0915 Y32.7872
G01 X8.1153 Y32.6914
G01 X8.1235 Y32.6618
G01 X8.1281 Y32.6472
G01 X8.1612 Y32.5542
G01 X8.1723 Y32.5255
G01 X8.1847 Y32.4975
G01 X8.2204 Y32.4221
G01 X8.2342 Y32.3947
G01 X8.2493 Y32.3680
G01 X8.2922 Y32.2965
G01 X8.3086 Y32.2705
G01 X8.3262 Y32.2455
G01 X8.3759 Y32.1785
G01 X8.3852 Y32.1662
G01 X8.4047 Y32.1425
G01 X8.4709 Y32.0692
G01 X8.4813 Y32.0580
G01 X8.5030 Y32.0363
G01 X8.5875 Y31.9597
G01 X8.5993 Y31.9498
G01 X8.6235 Y31.9309
G01 X8.6905 Y31.8812
G01 X8.7155 Y31.8636
G01 X8.7415 Y31.8472
G01 X8.8130 Y31.8043
G01 X8.8263 Y31.7966
G01 X8.8533 Y31.7821
G01 X8.9425 Y31.7397
G01 X8.9705 Y31.7273
G01 X8.9848 Y31.7216
G01 X9.0922 Y31.6831
G01 X9.1216 Y31.6742
G01 X9.1364 Y31.6703
G01 X9.2322 Y31.6465
G01 X9.2623 Y31.6405
G01 X9.2775 Y31.6381
G01 X9.3600 Y31.6259
G01 X9.3904 Y31.6221
G01 X9.4210 Y31.6198
G01 X9.5197 Y31.6152
G01 X10.8503 Y31.6152
G01 X10.9490 Y31.6198
G01 X10.9796 Y31.6221
G01 X11.0100 Y31.6259
G01 X11.1077 Y31.6405
G01 X11.1378 Y31.6465
G01 X11.2336 Y31.6703
G01 X11.2632 Y31.6785
G01 X11.2923 Y31.6881
G01 X11.3708 Y31.7162
G01 X11.3995 Y31.7273
G01 X11.4275 Y31.7397
G01 X11.5029 Y31.7754
G01 X11.5303 Y31.7892
G01 X11.5570 Y31.8043
G01 X11.6285 Y31.8472
G01 X11.6545 Y31.8636
G01 X11.6795 Y31.8812
G01 X11.7465 Y31.9309
G01 X11.7707 Y31.9498
G01 X11.7940 Y31.9698
G01 X11.8670 Y32.0363
G01 X11.8780 Y32.0470
G01 X11.8948 Y32.0645
G01 X12.0605 Y32.0646
G01 X16.2051 Y27.9201
G01 X16.2273 Y27.8989
G01 X16.2679 Y27.8624
G01 X16.2916 Y27.8429
G01 X16.3353 Y27.8102
G01 X16.3478 Y27.8013
G01 X16.3733 Y27.7842
G01 X16.4200 Y27.7560
G01 X16.4467 Y27.7409
G01 X16.4741 Y27.7271
G01 X16.5096 Y27.7103
G01 X16.5377 Y27.6978
G01 X16.5519 Y27.6921
G01 X16.6033 Y27.6736
G01 X16.6324 Y27.6639
G01 X16.6620 Y27.6558
G01 X16.7001 Y27.6462
G01 X16.7300 Y27.6395
G01 X16.7451 Y27.6367
G01 X16.7991 Y27.6285
G01 X16.8295 Y27.6247
G01 X16.8601 Y27.6225
G01 X16.8993 Y27.6206
G01 X16.9300 Y27.6198
G01 X18.1557 Y27.6198
G01 X18.2178 Y27.5635
G01 X18.2410 Y27.5435
G01 X18.2652 Y27.5246
G01 X18.3407 Y27.4688
G01 X18.3662 Y27.4518
G01 X18.4466 Y27.4034
G01 X18.4733 Y27.3883
G01 X18.4996 Y27.3750
G01 X18.4733 Y27.3617
G01 X18.4466 Y27.3466
G01 X18.3662 Y27.2982
G01 X18.3407 Y27.2812
G01 X18.2652 Y27.2254
G01 X18.2410 Y27.2065
G01 X18.2178 Y27.1865
G01 X18.1557 Y27.1302
G01 X16.3247 Y27.1302
G01 X14.7089 Y28.7456
G01 X14.6686 Y28.7825
G01 X14.6454 Y28.8025
G01 X14.6212 Y28.8214
G01 X14.5897 Y28.8448
G01 X14.5646 Y28.8624
G01 X14.5387 Y28.8788
G01 X14.4917 Y28.9067
G01 X14.4647 Y28.9212
G01 X14.4154 Y28.9447
G01 X14.3873 Y28.9572
G01 X14.3731 Y28.9629
G01 X14.3072 Y28.9864
G01 X14.2779 Y28.9953
G01 X14.2100 Y29.0123
G01 X14.1799 Y29.0183
G01 X14.1107 Y29.0286
G01 X14.0802 Y29.0316
G01 X14.0257 Y29.0344
G01 X13.9950 Y29.0352
G01 X12.0807 Y29.0352
G01 X12.0663 Y29.0526
G01 X12.0561 Y29.0641
G01 X11.9902 Y29.1368
G01 X11.9690 Y29.1590
G01 X11.9468 Y29.1802
G01 X11.8741 Y29.2461
G01 X11.8509 Y29.2661
G01 X11.8267 Y29.2850
G01 X11.7479 Y29.3435
G01 X11.7228 Y29.3611
G01 X11.6969 Y29.3775
G01 X11.6127 Y29.4280
G01 X11.5860 Y29.4431
G01 X11.5586 Y29.4569
G01 X11.4699 Y29.4989
G01 X11.4419 Y29.5113
G01 X11.4132 Y29.5223
G01 X11.3208 Y29.5554
G01 X11.2917 Y29.5650
G01 X11.2621 Y29.5732
G01 X11.1670 Y29.5971
G01 X11.1370 Y29.6038
G01 X11.1068 Y29.6090
G01 X10.9945 Y29.6255
G01 X10.9640 Y29.6285
G01 X10.9487 Y29.6294
G01 X10.8353 Y29.6348
G01 X10.8047 Y29.6348
G01 X10.7893 Y29.6342
G01 X10.6913 Y29.6294
G01 X10.6607 Y29.6272
G01 X10.6303 Y29.6234
G01 X10.5181 Y29.6066
G01 X10.4880 Y29.6006
G01 X10.4730 Y29.5971
G01 X10.3779 Y29.5732
G01 X10.3483 Y29.5650
G01 X10.3192 Y29.5554
G01 X10.2268 Y29.5223
G01 X10.1981 Y29.5113
G01 X10.1701 Y29.4989
G01 X10.0814 Y29.4569
G01 X10.0540 Y29.4431
G01 X10.0273 Y29.4280
G01 X9.9431 Y29.3775
G01 X9.9172 Y29.3611
G01 X9.8921 Y29.3435
G01 X9.8133 Y29.2850
G01 X9.7891 Y29.2661
G01 X9.7659 Y29.2461
G01 X9.6932 Y29.1802
G01 X9.6710 Y29.1590
G01 X9.6498 Y29.1368
G01 X9.5839 Y29.0641
G01 X9.5639 Y29.0409
G01 X9.5450 Y29.0167
G01 X9.4865 Y28.9379
G01 X9.4775 Y28.9255
G01 X9.4605 Y28.8999
G01 X9.4020 Y28.8027
G01 X9.3869 Y28.7760
G01 X9.3731 Y28.7486
G01 X9.3311 Y28.6599
G01 X9.3247 Y28.6460
G01 X9.3130 Y28.6176
G01 X9.2746 Y28.5108
G01 X9.2650 Y28.4817
G01 X9.2607 Y28.4670
G01 X9.2329 Y28.3570
G01 X9.2262 Y28.3270
G01 X9.2210 Y28.2968
G01 X9.2066 Y28.1997
G01 X9.2028 Y28.1693
G01 X9.2006 Y28.1387
G01 X9.1958 Y28.0407
G01 X9.1950 Y28.0100
G01 X9.1958 Y27.9793
G01 X9.2006 Y27.8813
G01 X9.2028 Y27.8507
G01 X9.2066 Y27.8203
G01 X9.2210 Y27.7232
G01 X9.2262 Y27.6930
G01 X9.2329 Y27.6630
G01 X9.2568 Y27.5679
G01 X9.2650 Y27.5383
G01 X9.2746 Y27.5092
G01 X9.3077 Y27.4168
G01 X9.3187 Y27.3881
G01 X9.3311 Y27.3601
G01 X9.3731 Y27.2714
G01 X9.3869 Y27.2440
G01 X9.3943 Y27.2305
G01 X9.4605 Y27.1201
G01 X9.4689 Y27.1072
G01 X9.4865 Y27.0821
G01 X9.5450 Y27.0033
G01 X9.5639 Y26.9791
G01 X9.5839 Y26.9559
G01 X9.6602 Y26.8719
G01 X9.6710 Y26.8610
G01 X9.6932 Y26.8398
G01 X9.7659 Y26.7739
G01 X9.7774 Y26.7637
G01 X9.8011 Y26.7443
G01 X9.8921 Y26.6765
G01 X9.9172 Y26.6589
G01 X9.9301 Y26.6505
G01 X10.0273 Y26.5920
G01 X10.0540 Y26.5769
G01 X10.0814 Y26.5631
G01 X10.1701 Y26.5211
G01 X10.1981 Y26.5087
G01 X10.2124 Y26.5030
G01 X10.3192 Y26.4646
G01 X10.3483 Y26.4550
G01 X10.3779 Y26.4468
G01 X10.4730 Y26.4229
G01 X10.4880 Y26.4194
G01 X10.5181 Y26.4134
G01 X10.6455 Y26.3945
G01 X10.6760 Y26.3915
G01 X10.6913 Y26.3906
G01 X10.7893 Y26.3858
G01 X10.8200 Y26.3850
G01 X10.8507 Y26.3858
G01 X10.9487 Y26.3906
G01 X10.9793 Y26.3928
G01 X11.0097 Y26.3966
G01 X11.1068 Y26.4110
G01 X11.1370 Y26.4162
G01 X11.1670 Y26.4229
G01 X11.2621 Y26.4468
G01 X11.2917 Y26.4550
G01 X11.3208 Y26.4646
G01 X11.4132 Y26.4977
G01 X11.4419 Y26.5087
G01 X11.4699 Y26.5211
G01 X11.5586 Y26.5631
G01 X11.5860 Y26.5769
G01 X11.6127 Y26.5920
G01 X11.6969 Y26.6425
G01 X11.7228 Y26.6589
G01 X11.7479 Y26.6765
G01 X11.8267 Y26.7350
G01 X11.8509 Y26.7539
G01 X11.8741 Y26.7739
G01 X11.9468 Y26.8398
G01 X11.9690 Y26.8610
G01 X11.9902 Y26.8832
G01 X12.0561 Y26.9559
G01 X12.0663 Y26.9674
G01 X12.0807 Y26.9848
G01 X13.5703 Y26.9848
G01 X15.1861 Y25.3694
G01 X15.2264 Y25.3325
G01 X15.2496 Y25.3125
G01 X15.2738 Y25.2936
G01 X15.3053 Y25.2702
G01 X15.3304 Y25.2526
G01 X15.3563 Y25.2362
G01 X15.3900 Y25.2160
G01 X15.4167 Y25.2009
G01 X15.4441 Y25.1871
G01 X15.4936 Y25.1639
G01 X15.5219 Y25.1521
G01 X15.5878 Y25.1286
G01 X15.6171 Y25.1197
G01 X15.6850 Y25.1027
G01 X15.7151 Y25.0967
G01 X15.7843 Y25.0864
G01 X15.8148 Y25.0834
G01 X15.8847 Y25.0800
G01 X18.1557 Y25.0798
G01 X18.2178 Y25.0235
G01 X18.2410 Y25.0035
G01 X18.2652 Y24.9846
G01 X18.3407 Y24.9288
G01 X18.3662 Y24.9118
G01 X18.4466 Y24.8634
G01 X18.4733 Y24.8483
G01 X18.4996 Y24.8350
G01 X18.4733 Y24.8217
G01 X18.4598 Y24.8143
G01 X18.3792 Y24.7663
G01 X18.3533 Y24.7498
G01 X18.3282 Y24.7322
G01 X18.2652 Y24.6854
G01 X18.2530 Y24.6761
G01 X18.2293 Y24.6567
G01 X18.1484 Y24.5833
G01 X18.1267 Y24.5616
G01 X18.1162 Y24.5504
G01 X18.0635 Y24.4922
G01 X18.0435 Y24.4690
G01 X18.0246 Y24.4448
G01 X17.9688 Y24.3693
G01 X17.9518 Y24.3438
G01 X17.9437 Y24.3308
G01 X17.9034 Y24.2634
G01 X17.8883 Y24.2367
G01 X17.8745 Y24.2093
G01 X17.8345 Y24.1244
G01 X17.8285 Y24.1103
G01 X17.8174 Y24.0817
G01 X17.7910 Y24.0078
G01 X17.7814 Y23.9787
G01 X17.7732 Y23.9491
G01 X17.7541 Y23.8729
G01 X17.7474 Y23.8430
G01 X17.7446 Y23.8279
G01 X17.7286 Y23.7199
G01 X17.7255 Y23.6894
G01 X17.7208 Y23.5957
G01 X17.7200 Y23.5650
G01 X17.7208 Y23.5343
G01 X17.7246 Y23.4559
G01 X17.7269 Y23.4253
G01 X17.7306 Y23.3949
G01 X17.7421 Y23.3172
G01 X17.7474 Y23.2870
G01 X17.7541 Y23.2571
G01 X17.7771 Y23.1661
G01 X17.7814 Y23.1513
G01 X17.7910 Y23.1222
G01 X17.8174 Y23.0483
G01 X17.8285 Y23.0197
G01 X17.8409 Y22.9916
G01 X17.8745 Y22.9207
G01 X17.8883 Y22.8933
G01 X17.9034 Y22.8666
G01 X17.9437 Y22.7992
G01 X17.9602 Y22.7733
G01 X17.9778 Y22.7482
G01 X18.0246 Y22.6852
G01 X18.0339 Y22.6730
G01 X18.0533 Y22.6493
G01 X18.1162 Y22.5796
G01 X18.1374 Y22.5574
G01 X18.1596 Y22.5362
G01 X18.2178 Y22.4835
G01 X18.2410 Y22.4635
G01 X18.2652 Y22.4446
G01 X18.3282 Y22.3978
G01 X18.3533 Y22.3802
G01 X18.3792 Y22.3637
G01 X18.4598 Y22.3157
G01 X18.4733 Y22.3083
G01 X18.4996 Y22.2950
G01 X18.4733 Y22.2817
G01 X18.4466 Y22.2666
G01 X18.3662 Y22.2182
G01 X18.3407 Y22.2012
G01 X18.2652 Y22.1454
G01 X18.2410 Y22.1265
G01 X18.2178 Y22.1065
G01 X18.1557 Y22.0502
G01 X14.4197 Y22.0502
G01 X12.4450 Y24.0249
G01 X12.4450 Y25.2000
G01 X12.4442 Y25.2307
G01 X12.4433 Y25.2460
G01 X12.4403 Y25.2765
G01 X12.4358 Y25.3069
G01 X12.4298 Y25.3369
G01 X12.4224 Y25.3667
G01 X12.4135 Y25.3961
G01 X12.4031 Y25.4249
G01 X12.3914 Y25.4533
G01 X12.3783 Y25.4810
G01 X12.3638 Y25.5081
G01 X12.3561 Y25.5213
G01 X12.3397 Y25.5472
G01 X12.3220 Y25.5723
G01 X12.3031 Y25.5965
G01 X12.2831 Y25.6197
G01 X12.2619 Y25.6419
G01 X12.2397 Y25.6631
G01 X12.2165 Y25.6831
G01 X12.2045 Y25.6927
G01 X12.1799 Y25.7110
G01 X12.1544 Y25.7280
G01 X12.1281 Y25.7438
G01 X12.1010 Y25.7583
G01 X12.0872 Y25.7650
G01 X12.0733 Y25.7714
G01 X12.0449 Y25.7831
G01 X12.0161 Y25.7935
G01 X11.9867 Y25.8024
G01 X11.9569 Y25.8098
G01 X11.9419 Y25.8130
G01 X11.9117 Y25.8182
G01 X11.8965 Y25.8203
G01 X11.8660 Y25.8233
G01 X11.8507 Y25.8242
G01 X11.8200 Y25.8250
G01 X9.8200 Y25.8250
G01 X9.7893 Y25.8242
G01 X9.7740 Y25.8233
G01 X9.7435 Y25.8203
G01 X9.7283 Y25.8182
G01 X9.6981 Y25.8130
G01 X9.6831 Y25.8098
G01 X9.6533 Y25.8024
G01 X9.6386 Y25.7981
G01 X9.6094 Y25.7885
G01 X9.5951 Y25.7831
G01 X9.5667 Y25.7714
G01 X9.5390 Y25.7583
G01 X9.5119 Y25.7438
G01 X9.4987 Y25.7361
G01 X9.4728 Y25.7197
G01 X9.4601 Y25.7110
G01 X9.4477 Y25.7020
G01 X9.4235 Y25.6831
G01 X9.4003 Y25.6631
G01 X9.3890 Y25.6527
G01 X9.3781 Y25.6419
G01 X9.3569 Y25.6197
G01 X9.3467 Y25.6082
G01 X9.3273 Y25.5845
G01 X9.3090 Y25.5599
G01 X9.2920 Y25.5344
G01 X9.2839 Y25.5213
G01 X9.2762 Y25.5081
G01 X9.2617 Y25.4810
G01 X9.2550 Y25.4672
G01 X9.2426 Y25.4392
G01 X9.2369 Y25.4249
G01 X9.2265 Y25.3961
G01 X9.2219 Y25.3814
G01 X9.2137 Y25.3519
G01 X9.2102 Y25.3369
G01 X9.2042 Y25.3069
G01 X9.1997 Y25.2765
G01 X9.1980 Y25.2613
G01 X9.1958 Y25.2307
G01 X9.1952 Y25.2153
G01 X9.1950 Y23.2000
G01 X9.1958 Y23.1693
G01 X9.1980 Y23.1387
G01 X9.2018 Y23.1083
G01 X9.2042 Y23.0931
G01 X9.2102 Y23.0631
G01 X9.2176 Y23.0333
G01 X9.2219 Y23.0186
G01 X9.2265 Y23.0039
G01 X9.2369 Y22.9751
G01 X9.2486 Y22.9467
G01 X9.2550 Y22.9328
G01 X9.2617 Y22.9190
G01 X9.2762 Y22.8919
G01 X9.2920 Y22.8656
G01 X9.3090 Y22.8401
G01 X9.3273 Y22.8155
G01 X9.3369 Y22.8035
G01 X9.3467 Y22.7918
G01 X9.3673 Y22.7690
G01 X9.3890 Y22.7473
G01 X9.4118 Y22.7267
G01 X9.4355 Y22.7073
G01 X9.4601 Y22.6890
G01 X9.4856 Y22.6720
G01 X9.5119 Y22.6562
G01 X9.5390 Y22.6417
G01 X9.5667 Y22.6286
G01 X9.5808 Y22.6226
G01 X9.6094 Y22.6115
G01 X9.6386 Y22.6019
G01 X9.6681 Y22.5937
G01 X9.6981 Y22.5870
G01 X9.7283 Y22.5818
G01 X9.7587 Y22.5780
G01 X9.7740 Y22.5767
G01 X9.7893 Y22.5758
G01 X9.8200 Y22.5750
G01 X10.9951 Y22.5750
G01 X13.2701 Y20.3001
G01 X13.2923 Y20.2789
G01 X13.3214 Y20.2525
G01 X13.3329 Y20.2424
G01 X13.3566 Y20.2229
G01 X13.4128 Y20.1813
G01 X13.4383 Y20.1642
G01 X13.4513 Y20.1562
G01 X13.4850 Y20.1360
G01 X13.5117 Y20.1209
G01 X13.5391 Y20.1071
G01 X13.5886 Y20.0839
G01 X13.6027 Y20.0778
G01 X13.6313 Y20.0668
G01 X13.6683 Y20.0536
G01 X13.6974 Y20.0439
G01 X13.7270 Y20.0358
G01 X13.7800 Y20.0227
G01 X13.7950 Y20.0195
G01 X13.8252 Y20.0143
G01 X13.8641 Y20.0085
G01 X13.8945 Y20.0047
G01 X13.9251 Y20.0025
G01 X13.9797 Y20.0000
G01 X18.1557 Y19.9998
G01 X18.2178 Y19.9435
G01 X18.2410 Y19.9235
G01 X18.2652 Y19.9046
G01 X18.3407 Y19.8488
G01 X18.3662 Y19.8318
G01 X18.4466 Y19.7834
G01 X18.4733 Y19.7683
G01 X18.4996 Y19.7550
G01 X18.4733 Y19.7417
G01 X18.4466 Y19.7266
G01 X18.3662 Y19.6782
G01 X18.3407 Y19.6612
G01 X18.2652 Y19.6054
G01 X18.2410 Y19.5865
G01 X18.2178 Y19.5665
G01 X18.1557 Y19.5102
G01 X12.4450 Y19.5102
G01 X12.4450 Y20.1200
G01 X12.4442 Y20.1507
G01 X12.4433 Y20.1660
G01 X12.4403 Y20.1965
G01 X12.4358 Y20.2269
G01 X12.4298 Y20.2569
G01 X12.4263 Y20.2719
G01 X12.4181 Y20.3014
G01 X12.4135 Y20.3161
G01 X12.4031 Y20.3449
G01 X12.3914 Y20.3733
G01 X12.3783 Y20.4010
G01 X12.3638 Y20.4281
G01 X12.3480 Y20.4544
G01 X12.3397 Y20.4672
G01 X12.3310 Y20.4799
G01 X12.3127 Y20.5045
G01 X12.2933 Y20.5282
G01 X12.2831 Y20.5397
G01 X12.2619 Y20.5619
G01 X12.2397 Y20.5831
G01 X12.2165 Y20.6031
G01 X12.2045 Y20.6127
G01 X12.1799 Y20.6310
G01 X12.1544 Y20.6480
G01 X12.1413 Y20.6561
G01 X12.1146 Y20.6712
G01 X12.0872 Y20.6850
G01 X12.0592 Y20.6974
G01 X12.0306 Y20.7085
G01 X12.0161 Y20.7135
G01 X11.9867 Y20.7224
G01 X11.9719 Y20.7263
G01 X11.9419 Y20.7330
G01 X11.9117 Y20.7382
G01 X11.8965 Y20.7403
G01 X11.8660 Y20.7433
G01 X11.8353 Y20.7448
G01 X11.8200 Y20.7450
G01 X9.8200 Y20.7450
G01 X9.7893 Y20.7442
G01 X9.7740 Y20.7433
G01 X9.7435 Y20.7403
G01 X9.7283 Y20.7382
G01 X9.6981 Y20.7330
G01 X9.6681 Y20.7263
G01 X9.6386 Y20.7181
G01 X9.6094 Y20.7085
G01 X9.5951 Y20.7031
G01 X9.5667 Y20.6914
G01 X9.5390 Y20.6783
G01 X9.5254 Y20.6712
G01 X9.4987 Y20.6561
G01 X9.4856 Y20.6480
G01 X9.4728 Y20.6397
G01 X9.4477 Y20.6220
G01 X9.4235 Y20.6031
G01 X9.4118 Y20.5933
G01 X9.4003 Y20.5831
G01 X9.3781 Y20.5619
G01 X9.3569 Y20.5397
G01 X9.3467 Y20.5282
G01 X9.3273 Y20.5045
G01 X9.3090 Y20.4799
G01 X9.2920 Y20.4544
G01 X9.2839 Y20.4413
G01 X9.2762 Y20.4281
G01 X9.2617 Y20.4010
G01 X9.2486 Y20.3733
G01 X9.2369 Y20.3449
G01 X9.2265 Y20.3161
G01 X9.2176 Y20.2867
G01 X9.2102 Y20.2569
G01 X9.2042 Y20.2269
G01 X9.1997 Y20.1965
G01 X9.1967 Y20.1660
G01 X9.1952 Y20.1353
G01 X9.1950 Y18.1200
G01 X9.1958 Y18.0893
G01 X9.1980 Y18.0587
G01 X9.1997 Y18.0435
G01 X9.2042 Y18.0131
G01 X9.2070 Y17.9981
G01 X9.2137 Y17.9681
G01 X9.2176 Y17.9533
G01 X9.2265 Y17.9239
G01 X9.2315 Y17.9094
G01 X9.2369 Y17.8951
G01 X9.2486 Y17.8667
G01 X9.2550 Y17.8528
G01 X9.2688 Y17.8254
G01 X9.2839 Y17.7987
G01 X9.2920 Y17.7856
G01 X9.3003 Y17.7728
G01 X9.3180 Y17.7477
G01 X9.3369 Y17.7235
G01 X9.3569 Y17.7003
G01 X9.3673 Y17.6890
G01 X9.3890 Y17.6673
G01 X9.4003 Y17.6569
G01 X9.4118 Y17.6467
G01 X9.4355 Y17.6273
G01 X9.4477 Y17.6180
G01 X9.4728 Y17.6003
G01 X9.4856 Y17.5920
G01 X9.5119 Y17.5762
G01 X9.5390 Y17.5617
G01 X9.5667 Y17.5486
G01 X9.5808 Y17.5426
G01 X9.5951 Y17.5369
G01 X9.6239 Y17.5265
G01 X9.6533 Y17.5176
G01 X9.6681 Y17.5137
G01 X9.6981 Y17.5070
G01 X9.7131 Y17.5042
G01 X9.7283 Y17.5018
G01 X9.7587 Y17.4980
G01 X9.7740 Y17.4967
G01 X9.8047 Y17.4952
G01 X11.1900 Y17.4950
G01 X11.2251 Y17.4862
G01 X11.2550 Y17.4795
G01 X11.2852 Y17.4743
G01 X11.3393 Y17.4664
G01 X11.3545 Y17.4647
G01 X11.3851 Y17.4625
G01 X11.4243 Y17.4606
G01 X11.4550 Y17.4598
G01 X18.1557 Y17.4598
G01 X18.2178 Y17.4035
G01 X18.2410 Y17.3835
G01 X18.2652 Y17.3646
G01 X18.3407 Y17.3088
G01 X18.3662 Y17.2918
G01 X18.4466 Y17.2434
G01 X18.4733 Y17.2283
G01 X18.4996 Y17.2150
G01 X18.4733 Y17.2017
G01 X18.4598 Y17.1943
G01 X18.3792 Y17.1463
G01 X18.3533 Y17.1298
G01 X18.3282 Y17.1122
G01 X18.2652 Y17.0654
G01 X18.2530 Y17.0561
G01 X18.2293 Y17.0367
G01 X18.1484 Y16.9633
G01 X18.1267 Y16.9416
G01 X18.1162 Y16.9304
G01 X18.0635 Y16.8722
G01 X18.0435 Y16.8490
G01 X18.0246 Y16.8248
G01 X17.9688 Y16.7493
G01 X17.9518 Y16.7238
G01 X17.9437 Y16.7108
G01 X17.9034 Y16.6434
G01 X17.8883 Y16.6167
G01 X17.8745 Y16.5893
G01 X17.8345 Y16.5044
G01 X17.8285 Y16.4903
G01 X17.8174 Y16.4617
G01 X17.7910 Y16.3878
G01 X17.7814 Y16.3587
G01 X17.7732 Y16.3291
G01 X17.7541 Y16.2529
G01 X17.7474 Y16.2230
G01 X17.7446 Y16.2079
G01 X17.7286 Y16.0999
G01 X17.7255 Y16.0694
G01 X17.7208 Y15.9757
G01 X17.7200 Y15.9450
G01 X17.7208 Y15.9143
G01 X17.7246 Y15.8359
G01 X17.7269 Y15.8053
G01 X17.7306 Y15.7749
G01 X17.7421 Y15.6972
G01 X17.7474 Y15.6670
G01 X17.7541 Y15.6371
G01 X17.7771 Y15.5461
G01 X17.7814 Y15.5313
G01 X17.7910 Y15.5022
G01 X17.8174 Y15.4283
G01 X17.8285 Y15.3997
G01 X17.8409 Y15.3716
G01 X17.8745 Y15.3007
G01 X17.8883 Y15.2733
G01 X17.9034 Y15.2466
G01 X17.9518 Y15.1662
G01 X17.9688 Y15.1407
G01 X17.9778 Y15.1282
G01 X18.0246 Y15.0652
G01 X18.0435 Y15.0410
G01 X18.0635 Y15.0178
G01 X18.1162 Y14.9596
G01 X18.1374 Y14.9374
G01 X18.1596 Y14.9162
G01 X18.2178 Y14.8635
G01 X18.2410 Y14.8435
G01 X18.2652 Y14.8246
G01 X18.3282 Y14.7778
G01 X18.3533 Y14.7602
G01 X18.3792 Y14.7437
G01 X18.4598 Y14.6957
G01 X18.4733 Y14.6883
G01 X18.4996 Y14.6750
G01 X18.4733 Y14.6617
G01 X18.4466 Y14.6466
G01 X18.3662 Y14.5982
G01 X18.3407 Y14.5812
G01 X18.2652 Y14.5254
G01 X18.2410 Y14.5065
G01 X18.2178 Y14.4865
G01 X18.1557 Y14.4302
G01 X13.3049 Y14.4302
G01 X13.2985 Y14.4511
G01 X13.2881 Y14.4799
G01 X13.2824 Y14.4942
G01 X13.2700 Y14.5222
G01 X13.2562 Y14.5496
G01 X13.2488 Y14.5631
G01 X13.2330 Y14.5894
G01 X13.2247 Y14.6022
G01 X13.2160 Y14.6149
G01 X13.1977 Y14.6395
G01 X13.1881 Y14.6515
G01 X13.1681 Y14.6747
G01 X13.1469 Y14.6969
G01 X13.1360 Y14.7077
G01 X13.1132 Y14.7283
G01 X13.0895 Y14.7477
G01 X13.0773 Y14.7570
G01 X13.0522 Y14.7747
G01 X13.0263 Y14.7911
G01 X12.9996 Y14.8062
G01 X12.9722 Y14.8200
G01 X12.9583 Y14.8264
G01 X12.9299 Y14.8381
G01 X12.9156 Y14.8435
G01 X12.9011 Y14.8485
G01 X12.8717 Y14.8574
G01 X12.8569 Y14.8613
G01 X12.8269 Y14.8680
G01 X12.7967 Y14.8732
G01 X12.7663 Y14.8770
G01 X12.7510 Y14.8783
G01 X12.7203 Y14.8798
G01 X10.2050 Y14.8800
G01 X10.1743 Y14.8792
G01 X10.1437 Y14.8770
G01 X10.1285 Y14.8753
G01 X10.0981 Y14.8708
G01 X10.0681 Y14.8648
G01 X10.0531 Y14.8613
G01 X10.0236 Y14.8531
G01 X9.9944 Y14.8435
G01 X9.9658 Y14.8324
G01 X9.9517 Y14.8264
G01 X9.9240 Y14.8133
G01 X9.8969 Y14.7988
G01 X9.8706 Y14.7830
G01 X9.8578 Y14.7747
G01 X9.8327 Y14.7570
G01 X9.8085 Y14.7381
G01 X9.7968 Y14.7283
G01 X9.7740 Y14.7077
G01 X9.7523 Y14.6860
G01 X9.7419 Y14.6747
G01 X9.7219 Y14.6515
G01 X9.7030 Y14.6273
G01 X9.6853 Y14.6022
G01 X9.6689 Y14.5763
G01 X9.6612 Y14.5631
G01 X9.6538 Y14.5496
G01 X9.6400 Y14.5222
G01 X9.6276 Y14.4942
G01 X9.6165 Y14.4656
G01 X9.6069 Y14.4364
G01 X9.6026 Y14.4217
G01 X9.5987 Y14.4069
G01 X9.5920 Y14.3769
G01 X9.5868 Y14.3467
G01 X9.5847 Y14.3315
G01 X9.5817 Y14.3010
G01 X9.5802 Y14.2703
G01 X9.5800 Y12.5550
G01 X9.5808 Y12.5243
G01 X9.5817 Y12.5090
G01 X9.5847 Y12.4785
G01 X9.5868 Y12.4633
G01 X9.5920 Y12.4331
G01 X9.5952 Y12.4181
G01 X9.6026 Y12.3883
G01 X9.6069 Y12.3736
G01 X9.6115 Y12.3589
G01 X9.6219 Y12.3301
G01 X9.6276 Y12.3158
G01 X9.6400 Y12.2878
G01 X9.6538 Y12.2604
G01 X9.6612 Y12.2469
G01 X9.6689 Y12.2337
G01 X9.6853 Y12.2078
G01 X9.6940 Y12.1951
G01 X9.7123 Y12.1705
G01 X9.7317 Y12.1468
G01 X9.7419 Y12.1353
G01 X9.7631 Y12.1131
G01 X9.7740 Y12.1023
G01 X9.7968 Y12.0817
G01 X9.8085 Y12.0719
G01 X9.8205 Y12.0623
G01 X9.8451 Y12.0440
G01 X9.8706 Y12.0270
G01 X9.8837 Y12.0189
G01 X9.9104 Y12.0038
G01 X9.9240 Y11.9967
G01 X9.9517 Y11.9836
G01 X9.9658 Y11.9776
G01 X9.9801 Y11.9719
G01 X10.0089 Y11.9615
G01 X10.0383 Y11.9526
G01 X10.0553 Y11.9482
G01 X10.0230 Y11.9187
G01 X10.0013 Y11.8970
G01 X9.9247 Y11.8125
G01 X9.9052 Y11.7888
G01 X9.8959 Y11.7765
G01 X9.8373 Y11.6971
G01 X9.8202 Y11.6716
G01 X9.8122 Y11.6585
G01 X9.7693 Y11.5870
G01 X9.7542 Y11.5603
G01 X9.7404 Y11.5329
G01 X9.7047 Y11.4575
G01 X9.6923 Y11.4295
G01 X9.6866 Y11.4152
G01 X9.6481 Y11.3078
G01 X9.6392 Y11.2784
G01 X9.6353 Y11.2636
G01 X9.6151 Y11.1827
G01 X9.6083 Y11.1528
G01 X9.6031 Y11.1225
G01 X9.5909 Y11.0400
G01 X9.5871 Y11.0096
G01 X9.5858 Y10.9943
G01 X9.5808 Y10.8957
G01 X9.5800 Y10.8650
G01 X9.5808 Y10.8343
G01 X9.5848 Y10.7510
G01 X9.5871 Y10.7204
G01 X9.5888 Y10.7052
G01 X9.6055 Y10.5923
G01 X9.6115 Y10.5622
G01 X9.6151 Y10.5473
G01 X9.6353 Y10.4664
G01 X9.6435 Y10.4368
G01 X9.6531 Y10.4077
G01 X9.6812 Y10.3292
G01 X9.6923 Y10.3005
G01 X9.6983 Y10.2864
G01 X9.7471 Y10.1833
G01 X9.7616 Y10.1563
G01 X9.7693 Y10.1430
G01 X9.8202 Y10.0584
G01 X9.8286 Y10.0455
G01 X9.8462 Y10.0205
G01 X9.8959 Y9.9535
G01 X9.9148 Y9.9293
G01 X9.9348 Y9.9060
G01 X9.9909 Y9.8442
G01 X10.0013 Y9.8330
G01 X10.0230 Y9.8113
G01 X10.0960 Y9.7448
G01 X10.1193 Y9.7248
G01 X10.1312 Y9.7152
G01 X10.2105 Y9.6562
G01 X10.2355 Y9.6386
G01 X10.2615 Y9.6222
G01 X10.3068 Y9.5950
G01 X10.2484 Y9.5598
G01 X10.2229 Y9.5427
G01 X10.1435 Y9.4841
G01 X10.1193 Y9.4652
G01 X10.1075 Y9.4553
G01 X10.0342 Y9.3891
G01 X10.0120 Y9.3680
G01 X9.9909 Y9.3458
G01 X9.9348 Y9.2840
G01 X9.9247 Y9.2725
G01 X9.9052 Y9.2488
G01 X9.8462 Y9.1695
G01 X9.8286 Y9.1445
G01 X9.8122 Y9.1185
G01 X9.7693 Y9.0470
G01 X9.7542 Y9.0203
G01 X9.7404 Y8.9929
G01 X9.7047 Y8.9175
G01 X9.6923 Y8.8895
G01 X9.6812 Y8.8608
G01 X9.6481 Y8.7678
G01 X9.6435 Y8.7532
G01 X9.6353 Y8.7236
G01 X9.6115 Y8.6278
G01 X9.6055 Y8.5977
G01 X9.5909 Y8.5000
G01 X9.5871 Y8.4696
G01 X9.5858 Y8.4543
G01 X9.5808 Y8.3557
G01 X9.5800 Y8.3250
G01 X9.5808 Y8.2943
G01 X9.5858 Y8.1957
G01 X9.5888 Y8.1652
G01 X9.6031 Y8.0675
G01 X9.6083 Y8.0372
G01 X9.6115 Y8.0222
G01 X9.6353 Y7.9264
G01 X9.6435 Y7.8968
G01 X9.6531 Y7.8677
G01 X9.6812 Y7.7892
G01 X9.6923 Y7.7605
G01 X9.6983 Y7.7464
G01 X9.7471 Y7.6433
G01 X9.7616 Y7.6163
G01 X9.7693 Y7.6030
G01 X9.8122 Y7.5315
G01 X9.8286 Y7.5055
G01 X9.8462 Y7.4805
G01 X9.9052 Y7.4012
G01 X9.9148 Y7.3893
G01 X9.9348 Y7.3660
G01 X9.9909 Y7.3042
G01 X10.0120 Y7.2820
G01 X10.0342 Y7.2609
G01 X10.1075 Y7.1947
G01 X10.1312 Y7.1752
G01 X10.1435 Y7.1659
G01 X10.2105 Y7.1162
G01 X10.2355 Y7.0986
G01 X10.2615 Y7.0822
G01 X10.3330 Y7.0393
G01 X10.3463 Y7.0316
G01 X10.3733 Y7.0171
G01 X10.4625 Y6.9747
G01 X10.4905 Y6.9623
G01 X10.5192 Y6.9512
G01 X10.6122 Y6.9181
G01 X10.6416 Y6.9092
G01 X10.6564 Y6.9053
G01 X10.7373 Y6.8851
G01 X10.7672 Y6.8783
G01 X10.7975 Y6.8731
G01 X10.8800 Y6.8609
G01 X10.9104 Y6.8571
G01 X10.9257 Y6.8558
G01 X11.0243 Y6.8508
G01 X11.0550 Y6.8500
G01 X11.8703 Y6.8502
G01 X11.9690 Y6.8548
G01 X11.9996 Y6.8571
G01 X12.0300 Y6.8609
G01 X12.1125 Y6.8731
G01 X12.1277 Y6.8755
G01 X12.1578 Y6.8815
G01 X12.2536 Y6.9053
G01 X12.2832 Y6.9135
G01 X12.3123 Y6.9231
G01 X12.3908 Y6.9512
G01 X12.4195 Y6.9623
G01 X12.4475 Y6.9747
G01 X12.5367 Y7.0171
G01 X12.5637 Y7.0316
G01 X12.6485 Y7.0822
G01 X12.6745 Y7.0986
G01 X12.6995 Y7.1162
G01 X12.7788 Y7.1752
G01 X12.8025 Y7.1947
G01 X12.8758 Y7.2609
G01 X12.8980 Y7.2820
G01 X12.9146 Y7.2993
G00 Z2.0000
G00 X12.7407 Y7.6743
G01 F60.00
G01 Z-0.1100
G01 F80.00
G01 X18.3212 Y7.6748
G01 X18.3333 Y7.6589
G01 X18.3414 Y7.6496
G01 X18.3941 Y7.5914
G01 X18.4025 Y7.5825
G01 X18.4114 Y7.5741
G01 X18.4696 Y7.5214
G01 X18.4789 Y7.5133
G01 X18.4886 Y7.5058
G01 X18.5516 Y7.4590
G01 X18.5617 Y7.4520
G01 X18.5720 Y7.4454
G01 X18.6394 Y7.4050
G01 X18.6500 Y7.3990
G01 X18.6610 Y7.3935
G01 X18.7320 Y7.3599
G01 X18.7432 Y7.3549
G01 X18.7546 Y7.3505
G01 X18.8285 Y7.3241
G01 X18.8402 Y7.3202
G01 X18.8520 Y7.3169
G01 X18.9282 Y7.2979
G01 X18.9462 Y7.2941
G01 X19.0299 Y7.2816
G01 X19.0421 Y7.2801
G01 X19.0543 Y7.2792
G01 X19.1327 Y7.2753
G01 X19.1450 Y7.2750
G01 X20.5450 Y7.2750
G01 X20.5573 Y7.2753
G01 X20.6418 Y7.2795
G01 X20.6601 Y7.2816
G01 X20.7378 Y7.2931
G01 X20.7498 Y7.2952
G01 X20.7618 Y7.2979
G01 X20.8380 Y7.3169
G01 X20.8498 Y7.3202
G01 X20.8615 Y7.3241
G01 X20.9354 Y7.3505
G01 X20.9468 Y7.3549
G01 X20.9580 Y7.3599
G01 X21.0290 Y7.3935
G01 X21.0400 Y7.3990
G01 X21.0506 Y7.4050
G01 X21.1180 Y7.4454
G01 X21.1283 Y7.4520
G01 X21.1384 Y7.4590
G01 X21.2014 Y7.5058
G01 X21.2111 Y7.5133
G01 X21.2204 Y7.5214
G01 X21.2786 Y7.5741
G01 X21.2875 Y7.5825
G01 X21.2959 Y7.5914
G01 X21.3486 Y7.6496
G01 X21.3567 Y7.6589
G01 X21.3642 Y7.6686
G01 X21.4110 Y7.7316
G01 X21.4180 Y7.7417
G01 X21.4246 Y7.7520
G01 X21.4650 Y7.8194
G01 X21.4710 Y7.8300
G01 X21.4765 Y7.8410
G01 X21.5101 Y7.9120
G01 X21.5151 Y7.9232
G01 X21.5195 Y7.9346
G01 X21.5459 Y8.0085
G01 X21.5498 Y8.0202
G01 X21.5531 Y8.0320
G01 X21.5721 Y8.1082
G01 X21.5748 Y8.1202
G01 X21.5769 Y8.1322
G01 X21.5884 Y8.2099
G01 X21.5899 Y8.2221
G01 X21.5908 Y8.2343
G01 X21.5947 Y8.3127
G01 X21.5950 Y8.3250
G01 X21.5947 Y8.3373
G01 X21.5905 Y8.4218
G01 X21.5884 Y8.4401
G01 X21.5769 Y8.5178
G01 X21.5748 Y8.5298
G01 X21.5721 Y8.5418
G01 X21.5531 Y8.6180
G01 X21.5498 Y8.6298
G01 X21.5459 Y8.6415
G01 X21.5195 Y8.7154
G01 X21.5151 Y8.7268
G01 X21.5101 Y8.7380
G01 X21.4765 Y8.8090
G01 X21.4710 Y8.8200
G01 X21.4650 Y8.8306
G01 X21.4246 Y8.8980
G01 X21.4180 Y8.9083
G01 X21.4110 Y8.9184
G01 X21.3642 Y8.9814
G01 X21.3567 Y8.9911
G01 X21.3486 Y9.0004
G01 X21.2959 Y9.0586
G01 X21.2875 Y9.0675
G01 X21.2786 Y9.0759
G01 X21.2204 Y9.1286
G01 X21.2111 Y9.1367
G01 X21.2014 Y9.1442
G01 X21.1384 Y9.1910
G01 X21.1283 Y9.1980
G01 X21.1180 Y9.2046
G01 X21.0506 Y9.2450
G01 X21.0400 Y9.2510
G01 X21.0290 Y9.2565
G01 X20.9580 Y9.2901
G01 X20.9468 Y9.2951
G01 X20.9354 Y9.2995
G01 X20.8615 Y9.3259
G01 X20.8498 Y9.3298
G01 X20.8380 Y9.3331
G01 X20.7618 Y9.3521
G01 X20.7498 Y9.3548
G01 X20.7378 Y9.3569
G01 X20.6601 Y9.3684
G01 X20.6479 Y9.3699
G01 X20.6357 Y9.3708
G01 X20.5511 Y9.3749
G01 X19.1450 Y9.3750
G01 X19.1327 Y9.3747
G01 X19.0543 Y9.3708
G01 X19.0421 Y9.3699
G01 X19.0299 Y9.3684
G01 X18.9462 Y9.3559
G01 X18.9282 Y9.3521
G01 X18.8520 Y9.3331
G01 X18.8402 Y9.3298
G01 X18.8285 Y9.3259
G01 X18.7546 Y9.2995
G01 X18.7432 Y9.2951
G01 X18.7320 Y9.2901
G01 X18.6610 Y9.2565
G01 X18.6500 Y9.2510
G01 X18.6394 Y9.2450
G01 X18.5720 Y9.2046
G01 X18.5617 Y9.1980
G01 X18.5516 Y9.1910
G01 X18.4886 Y9.1442
G01 X18.4789 Y9.1367
G01 X18.4696 Y9.1286
G01 X18.4114 Y9.0759
G01 X18.4025 Y9.0675
G01 X18.3941 Y9.0586
G01 X18.3414 Y9.0004
G01 X18.3333 Y8.9911
G01 X18.3212 Y8.9752
G01 X12.7410 Y8.9752
G01 X12.7129 Y9.0132
G01 X12.7014 Y9.0275
G01 X12.6413 Y9.0939
G01 X12.6284 Y9.1071
G01 X12.5621 Y9.1673
G01 X12.5528 Y9.1753
G01 X12.5432 Y9.1829
G01 X12.4762 Y9.2326
G01 X12.4610 Y9.2430
G01 X12.3842 Y9.2891
G01 X12.3735 Y9.2951
G01 X12.3626 Y9.3006
G01 X12.2872 Y9.3363
G01 X12.2760 Y9.3413
G01 X12.2645 Y9.3457
G01 X12.1860 Y9.3738
G01 X12.1743 Y9.3776
G01 X12.1625 Y9.3809
G01 X12.0816 Y9.4012
G01 X12.0696 Y9.4039
G01 X12.0575 Y9.4060
G01 X11.9750 Y9.4182
G01 X11.9628 Y9.4197
G01 X11.9506 Y9.4206
G01 X11.8611 Y9.4249
G01 X11.0550 Y9.4250
G01 X11.0427 Y9.4247
G01 X10.9594 Y9.4206
G01 X10.9472 Y9.4197
G01 X10.9350 Y9.4182
G01 X10.8525 Y9.4060
G01 X10.8404 Y9.4039
G01 X10.8284 Y9.4012
G01 X10.7475 Y9.3809
G01 X10.7357 Y9.3776
G01 X10.7240 Y9.3738
G01 X10.6455 Y9.3457
G01 X10.6340 Y9.3413
G01 X10.6228 Y9.3363
G01 X10.5474 Y9.3006
G01 X10.5365 Y9.2951
G01 X10.5258 Y9.2891
G01 X10.4542 Y9.2462
G01 X10.4439 Y9.2396
G01 X10.4338 Y9.2326
G01 X10.3668 Y9.1829
G01 X10.3572 Y9.1753
G01 X10.3479 Y9.1673
G01 X10.2861 Y9.1113
G01 X10.2772 Y9.1028
G01 X10.2687 Y9.0939
G01 X10.2127 Y9.0321
G01 X10.2047 Y9.0228
G01 X10.1971 Y9.0132
G01 X10.1474 Y8.9462
G01 X10.1404 Y8.9361
G01 X10.1338 Y8.9258
G01 X10.0909 Y8.8542
G01 X10.0849 Y8.8435
G01 X10.0794 Y8.8326
G01 X10.0437 Y8.7572
G01 X10.0365 Y8.7403
G01 X10.0062 Y8.6560
G01 X10.0024 Y8.6443
G01 X9.9991 Y8.6325
G01 X9.9788 Y8.5516
G01 X9.9761 Y8.5396
G01 X9.9740 Y8.5275
G01 X9.9618 Y8.4450
G01 X9.9603 Y8.4328
G01 X9.9594 Y8.4206
G01 X9.9553 Y8.3373
G01 X9.9550 Y8.3250
G01 X9.9553 Y8.3127
G01 X9.9594 Y8.2294
G01 X9.9603 Y8.2172
G01 X9.9618 Y8.2050
G01 X9.9740 Y8.1225
G01 X9.9761 Y8.1104
G01 X9.9788 Y8.0984
G01 X9.9991 Y8.0175
G01 X10.0024 Y8.0057
G01 X10.0062 Y7.9940
G01 X10.0343 Y7.9155
G01 X10.0387 Y7.9040
G01 X10.0437 Y7.8928
G01 X10.0794 Y7.8174
G01 X10.0849 Y7.8065
G01 X10.0909 Y7.7958
G01 X10.1338 Y7.7242
G01 X10.1404 Y7.7139
G01 X10.1474 Y7.7038
G01 X10.1971 Y7.6368
G01 X10.2047 Y7.6272
G01 X10.2127 Y7.6179
G01 X10.2687 Y7.5561
G01 X10.2772 Y7.5472
G01 X10.2861 Y7.5387
G01 X10.3479 Y7.4827
G01 X10.3572 Y7.4747
G01 X10.3668 Y7.4671
G01 X10.4338 Y7.4174
G01 X10.4439 Y7.4104
G01 X10.4542 Y7.4038
G01 X10.5258 Y7.3609
G01 X10.5365 Y7.3549
G01 X10.5474 Y7.3494
G01 X10.6228 Y7.3137
G01 X10.6397 Y7.3065
G01 X10.7240 Y7.2762
G01 X10.7357 Y7.2724
G01 X10.7475 Y7.2691
G01 X10.8284 Y7.2488
G01 X10.8404 Y7.2461
G01 X10.8525 Y7.2440
G01 X10.9350 Y7.2318
G01 X10.9472 Y7.2303
G01 X10.9594 Y7.2294
G01 X11.0427 Y7.2253
G01 X11.0550 Y7.2250
G01 X11.8611 Y7.2251
G01 X11.9506 Y7.2294
G01 X11.9628 Y7.2303
G01 X11.9750 Y7.2318
G01 X12.0636 Y7.2450
G01 X12.0816 Y7.2488
G01 X12.1625 Y7.2691
G01 X12.1743 Y7.2724
G01 X12.1860 Y7.2762
G01 X12.2645 Y7.3043
G01 X12.2760 Y7.3087
G01 X12.2872 Y7.3137
G01 X12.3626 Y7.3494
G01 X12.3735 Y7.3549
G01 X12.3842 Y7.3609
G01 X12.4610 Y7.4070
G01 X12.4762 Y7.4174
G01 X12.5432 Y7.4671
G01 X12.5528 Y7.4747
G01 X12.5621 Y7.4827
G01 X12.6284 Y7.5429
G01 X12.6413 Y7.5561
G01 X12.7014 Y7.6225
G01 X12.7129 Y7.6368
G01 X12.7407 Y7.6743
G00 Z2.0000
G00 X12.6032 Y9.5950
G01 F60.00
G01 Z-0.1100
G01 F80.00
G01 X12.6485 Y9.5678
G01 X12.6745 Y9.5514
G01 X12.6995 Y9.5338
G01 X12.7788 Y9.4748
G01 X12.8025 Y9.4553
G01 X12.8758 Y9.3891
G01 X12.8980 Y9.3680
G01 X12.9150 Y9.3502
G01 X18.1557 Y9.3502
G01 X18.2178 Y9.4065
G01 X18.2410 Y9.4265
G01 X18.2652 Y9.4454
G01 X18.3407 Y9.5012
G01 X18.3662 Y9.5182
G01 X18.4466 Y9.5666
G01 X18.4733 Y9.5817
G01 X18.4996 Y9.5950
G01 X18.4733 Y9.6083
G01 X18.4466 Y9.6234
G01 X18.3662 Y9.6718
G01 X18.3407 Y9.6888
G01 X18.2652 Y9.7446
G01 X18.2410 Y9.7635
G01 X18.2178 Y9.7835
G01 X18.1558 Y9.8398
G01 X12.9146 Y9.8393
G01 X12.8980 Y9.8220
G01 X12.8758 Y9.8009
G01 X12.8025 Y9.7347
G01 X12.7788 Y9.7152
G01 X12.6995 Y9.6562
G01 X12.6745 Y9.6386
G01 X12.6485 Y9.6222
G01 X12.6032 Y9.5950
G00 Z2.0000
G00 X12.7407 Y10.2143
G01 F60.00
G01 Z-0.1100
G01 F80.00
G01 X18.3212 Y10.2148
G01 X18.3333 Y10.1989
G01 X18.3414 Y10.1896
G01 X18.3941 Y10.1314
G01 X18.4025 Y10.1225
G01 X18.4114 Y10.1141
G01 X18.4696 Y10.0614
G01 X18.4789 Y10.0533
G01 X18.4886 Y10.0458
G01 X18.5516 Y9.9990
G01 X18.5617 Y9.9920
G01 X18.5720 Y9.9854
G01 X18.6394 Y9.9450
G01 X18.6500 Y9.9390
G01 X18.6610 Y9.9335
G01 X18.7320 Y9.8999
G01 X18.7432 Y9.8949
G01 X18.7546 Y9.8905
G01 X18.8285 Y9.8641
G01 X18.8402 Y9.8602
G01 X18.8520 Y9.8569
G01 X18.9282 Y9.8379
G01 X18.9462 Y9.8341
G01 X19.0299 Y9.8216
G01 X19.0421 Y9.8201
G01 X19.0543 Y9.8192
G01 X19.1327 Y9.8153
G01 X19.1450 Y9.8150
G01 X20.5450 Y9.8150
G01 X20.5573 Y9.8153
G01 X20.6418 Y9.8195
G01 X20.6601 Y9.8216
G01 X20.7378 Y9.8331
G01 X20.7498 Y9.8352
G01 X20.7618 Y9.8379
G01 X20.8380 Y9.8569
G01 X20.8498 Y9.8602
G01 X20.8615 Y9.8641
G01 X20.9354 Y9.8905
G01 X20.9468 Y9.8949
G01 X20.9580 Y9.8999
G01 X21.0290 Y9.9335
G01 X21.0400 Y9.9390
G01 X21.0506 Y9.9450
G01 X21.1180 Y9.9854
G01 X21.1283 Y9.9920
G01 X21.1384 Y9.9990
G01 X21.2014 Y10.0458
G01 X21.2111 Y10.0533
G01 X21.2204 Y10.0614
G01 X21.2786 Y10.1141
G01 X21.2875 Y10.1225
G01 X21.2959 Y10.1314
G01 X21.3486 Y10.1896
G01 X21.3567 Y10.1989
G01 X21.3642 Y10.2086
G01 X21.4110 Y10.2716
G01 X21.4180 Y10.2817
G01 X21.4246 Y10.2920
G01 X21.4650 Y10.3594
G01 X21.4710 Y10.3700
G01 X21.4765 Y10.3810
G01 X21.5101 Y10.4520
G01 X21.5151 Y10.4632
G01 X21.5195 Y10.4746
G01 X21.5459 Y10.5485
G01 X21.5498 Y10.5602
G01 X21.5531 Y10.5720
G01 X21.5721 Y10.6482
G01 X21.5748 Y10.6602
G01 X21.5769 Y10.6722
G01 X21.5884 Y10.7499
G01 X21.5899 Y10.7621
G01 X21.5908 Y10.7743
G01 X21.5947 Y10.8527
G01 X21.5950 Y10.8650
G01 X21.5947 Y10.8773
G01 X21.5905 Y10.9618
G01 X21.5884 Y10.9801
G01 X21.5769 Y11.0578
G01 X21.5748 Y11.0698
G01 X21.5721 Y11.0818
G01 X21.5531 Y11.1580
G01 X21.5498 Y11.1698
G01 X21.5459 Y11.1815
G01 X21.5195 Y11.2554
G01 X21.5151 Y11.2668
G01 X21.5101 Y11.2780
G01 X21.4765 Y11.3490
G01 X21.4710 Y11.3600
G01 X21.4650 Y11.3706
G01 X21.4246 Y11.4380
G01 X21.4180 Y11.4483
G01 X21.4110 Y11.4584
G01 X21.3642 Y11.5214
G01 X21.3567 Y11.5311
G01 X21.3486 Y11.5404
G01 X21.2959 Y11.5986
G01 X21.2875 Y11.6075
G01 X21.2786 Y11.6159
G01 X21.2204 Y11.6686
G01 X21.2111 Y11.6767
G01 X21.2014 Y11.6842
G01 X21.1384 Y11.7310
G01 X21.1283 Y11.7380
G01 X21.1180 Y11.7446
G01 X21.0506 Y11.7850
G01 X21.0400 Y11.7910
G01 X21.0290 Y11.7965
G01 X20.9580 Y11.8301
G01 X20.9468 Y11.8351
G01 X20.9354 Y11.8395
G01 X20.8615 Y11.8659
G01 X20.8498 Y11.8698
G01 X20.8380 Y11.8731
G01 X20.7618 Y11.8921
G01 X20.7498 Y11.8948
G01 X20.7378 Y11.8969
G01 X20.6601 Y11.9084
G01 X20.6479 Y11.9099
G01 X20.6357 Y11.9108
G01 X20.5511 Y11.9149
G01 X19.1450 Y11.9150
G01 X19.1327 Y11.9147
G01 X19.0543 Y11.9108
G01 X19.0421 Y11.9099
G01 X19.0299 Y11.9084
G01 X18.9462 Y11.8959
G01 X18.9282 Y11.8921
G01 X18.8520 Y11.8731
G01 X18.8402 Y11.8698
G01 X18.8285 Y11.8659
G01 X18.7546 Y11.8395
G01 X18.7432 Y11.8351
G01 X18.7320 Y11.8301
G01 X18.6610 Y11.7965
G01 X18.6500 Y11.7910
G01 X18.6394 Y11.7850
G01 X18.5720 Y11.7446
G01 X18.5617 Y11.7380
G01 X18.5516 Y11.7310
G01 X18.4886 Y11.6842
G01 X18.4789 Y11.6767
G01 X18.4696 Y11.6686
G01 X18.4114 Y11.6159
G01 X18.4025 Y11.6075
G01 X18.3941 Y11.5986
G01 X18.3414 Y11.5404
G01 X18.3333 Y11.5311
G01 X18.3212 Y11.5152
G01 X12.7410 Y11.5152
G01 X12.7129 Y11.5532
G01 X12.7014 Y11.5675
G01 X12.6413 Y11.6339
G01 X12.6284 Y11.6471
G01 X12.5621 Y11.7073
G01 X12.5528 Y11.7153
G01 X12.5432 Y11.7229
G01 X12.4762 Y11.7726
G01 X12.4610 Y11.7830
G01 X12.3842 Y11.8291
G01 X12.3735 Y11.8351
G01 X12.3626 Y11.8406
G01 X12.2872 Y11.8763
G01 X12.2760 Y11.8813
G01 X12.2645 Y11.8857
G01 X12.1860 Y11.9138
G01 X12.1743 Y11.9176
G01 X12.1625 Y11.9209
G01 X12.0816 Y11.9412
G01 X12.0696 Y11.9439
G01 X12.0575 Y11.9460
G01 X11.9750 Y11.9582
G01 X11.9628 Y11.9597
G01 X11.9506 Y11.9606
G01 X11.8611 Y11.9649
G01 X11.0550 Y11.9650
G01 X11.0427 Y11.9647
G01 X10.9594 Y11.9606
G01 X10.9472 Y11.9597
G01 X10.9350 Y11.9582
G01 X10.8525 Y11.9460
G01 X10.8404 Y11.9439
G01 X10.8284 Y11.9412
G01 X10.7475 Y11.9209
G01 X10.7357 Y11.9176
G01 X10.7240 Y11.9138
G01 X10.6455 Y11.8857
G01 X10.6340 Y11.8813
G01 X10.6228 Y11.8763
G01 X10.5474 Y11.8406
G01 X10.5365 Y11.8351
G01 X10.5258 Y11.8291
G01 X10.4542 Y11.7862
G01 X10.4439 Y11.7796
G01 X10.4338 Y11.7726
G01 X10.3668 Y11.7229
G01 X10.3572 Y11.7153
G01 X10.3479 Y11.7073
G01 X10.2861 Y11.6513
G01 X10.2772 Y11.6428
G01 X10.2687 Y11.6339
G01 X10.2127 Y11.5721
G01 X10.2047 Y11.5628
G01 X10.1971 Y11.5532
G01 X10.1474 Y11.4862
G01 X10.1404 Y11.4761
G01 X10.1338 Y11.4658
G01 X10.0909 Y11.3942
G01 X10.0849 Y11.3835
G01 X10.0794 Y11.3726
G01 X10.0437 Y11.2972
G01 X10.0365 Y11.2803
G01 X10.0062 Y11.1960
G01 X10.0024 Y11.1843
G01 X9.9991 Y11.1725
G01 X9.9788 Y11.0916
G01 X9.9761 Y11.0796
G01 X9.9740 Y11.0675
G01 X9.9618 Y10.9850
G01 X9.9603 Y10.9728
G01 X9.9594 Y10.9606
G01 X9.9553 Y10.8773
G01 X9.9550 Y10.8650
G01 X9.9553 Y10.8527
G01 X9.9594 Y10.7694
G01 X9.9603 Y10.7572
G01 X9.9618 Y10.7450
G01 X9.9740 Y10.6625
G01 X9.9761 Y10.6504
G01 X9.9788 Y10.6384
G01 X9.9991 Y10.5575
G01 X10.0024 Y10.5457
G01 X10.0062 Y10.5340
G01 X10.0343 Y10.4555
G01 X10.0387 Y10.4440
G01 X10.0437 Y10.4328
G01 X10.0794 Y10.3574
G01 X10.0849 Y10.3465
G01 X10.0909 Y10.3358
G01 X10.1338 Y10.2642
G01 X10.1404 Y10.2539
G01 X10.1474 Y10.2438
G01 X10.1971 Y10.1768
G01 X10.2047 Y10.1672
G01 X10.2127 Y10.1579
G01 X10.2687 Y10.0961
G01 X10.2772 Y10.0872
G01 X10.2861 Y10.0787
G01 X10.3479 Y10.0227
G01 X10.3572 Y10.0147
G01 X10.3668 Y10.0071
G01 X10.4338 Y9.9574
G01 X10.4439 Y9.9504
G01 X10.4542 Y9.9438
G01 X10.5258 Y9.9009
G01 X10.5365 Y9.8949
G01 X10.5474 Y9.8894
G01 X10.6228 Y9.8537
G01 X10.6397 Y9.8465
G01 X10.7240 Y9.8162
G01 X10.7357 Y9.8124
G01 X10.7475 Y9.8091
G01 X10.8284 Y9.7888
G01 X10.8404 Y9.7861
G01 X10.8525 Y9.7840
G01 X10.9350 Y9.7718
G01 X10.9472 Y9.7703
G01 X10.9594 Y9.7694
G01 X11.0427 Y9.7653
G01 X11.0550 Y9.7650
G01 X11.8611 Y9.7651
G01 X11.9506 Y9.7694
G01 X11.9628 Y9.7703
G01 X11.9750 Y9.7718
G01 X12.0636 Y9.7850
G01 X12.0816 Y9.7888
G01 X12.1625 Y9.8091
G01 X12.1743 Y9.8124
G01 X12.1860 Y9.8162
G01 X12.2645 Y9.8443
G01 X12.2760 Y9.8487
G01 X12.2872 Y9.8537
G01 X12.3626 Y9.8894
G01 X12.3735 Y9.8949
G01 X12.3842 Y9.9009
G01 X12.4610 Y9.9470
G01 X12.4762 Y9.9574
G01 X12.5432 Y10.0071
G01 X12.5528 Y10.0147
G01 X12.5621 Y10.0227
G01 X12.6284 Y10.0829
G01 X12.6413 Y10.0961
G01 X12.7014 Y10.1625
G01 X12.7129 Y10.1768
G01 X12.7407 Y10.2143
G00 Z2.0000
G00 X12.8547 Y11.9482
G01 F60.00
G01 Z-0.1100
G01 F80.00
G01 X12.8870 Y11.9187
G01 X12.8980 Y11.9080
G01 X12.9150 Y11.8902
G01 X18.1557 Y11.8902
G01 X18.2178 Y11.9465
G01 X18.2410 Y11.9665
G01 X18.2652 Y11.9854
G01 X18.3407 Y12.0412
G01 X18.3662 Y12.0582
G01 X18.4466 Y12.1066
G01 X18.4733 Y12.1217
G01 X18.4996 Y12.1350
G01 X18.4733 Y12.1483
G01 X18.4466 Y12.1634
G01 X18.3662 Y12.2118
G01 X18.3407 Y12.2288
G01 X18.2652 Y12.2846
G01 X18.2410 Y12.3035
G01 X18.2178 Y12.3235
G01 X18.1557 Y12.3798
G01 X13.3049 Y12.3798
G01 X13.2985 Y12.3589
G01 X13.2935 Y12.3444
G01 X13.2881 Y12.3301
G01 X13.2764 Y12.3017
G01 X13.2633 Y12.2740
G01 X13.2488 Y12.2469
G01 X13.2411 Y12.2337
G01 X13.2330 Y12.2206
G01 X13.2160 Y12.1951
G01 X13.2070 Y12.1827
G01 X13.1881 Y12.1585
G01 X13.1783 Y12.1468
G01 X13.1577 Y12.1240
G01 X13.1360 Y12.1023
G01 X13.1132 Y12.0817
G01 X13.1015 Y12.0719
G01 X13.0773 Y12.0530
G01 X13.0522 Y12.0353
G01 X13.0394 Y12.0270
G01 X13.0263 Y12.0189
G01 X12.9996 Y12.0038
G01 X12.9860 Y11.9967
G01 X12.9583 Y11.9836
G01 X12.9299 Y11.9719
G01 X12.9156 Y11.9665
G01 X12.8864 Y11.9569
G01 X12.8547 Y11.9482
G00 Z2.0000
G00 X18.3212 Y12.7548
G01 F60.00
G01 Z-0.1100
G01 F80.00
G01 X18.3295 Y12.7437
G01 X18.3373 Y12.7342
G01 X18.3983 Y12.6669
G01 X18.4114 Y12.6541
G01 X18.4742 Y12.5973
G01 X18.4886 Y12.5858
G01 X18.5516 Y12.5390
G01 X18.5617 Y12.5320
G01 X18.5720 Y12.5254
G01 X18.6447 Y12.4819
G01 X18.6610 Y12.4735
G01 X18.7320 Y12.4399
G01 X18.7432 Y12.4349
G01 X18.7546 Y12.4305
G01 X18.8285 Y12.4041
G01 X18.8402 Y12.4002
G01 X18.8520 Y12.3969
G01 X18.9282 Y12.3779
G01 X18.9402 Y12.3752
G01 X18.9522 Y12.3731
G01 X19.0299 Y12.3616
G01 X19.0421 Y12.3601
G01 X19.0543 Y12.3592
G01 X19.1327 Y12.3553
G01 X19.1450 Y12.3550
G01 X20.5511 Y12.3551
G01 X20.6357 Y12.3592
G01 X20.6479 Y12.3601
G01 X20.6601 Y12.3616
G01 X20.7378 Y12.3731
G01 X20.7498 Y12.3752
G01 X20.7618 Y12.3779
G01 X20.8380 Y12.3969
G01 X20.8498 Y12.4002
G01 X20.8615 Y12.4041
G01 X20.9354 Y12.4305
G01 X20.9468 Y12.4349
G01 X20.9580 Y12.4399
G01 X21.0290 Y12.4735
G01 X21.0400 Y12.4790
G01 X21.0506 Y12.4850
G01 X21.1180 Y12.5254
G01 X21.1283 Y12.5320
G01 X21.1384 Y12.5390
G01 X21.2014 Y12.5858
G01 X21.2111 Y12.5933
G01 X21.2204 Y12.6014
G01 X21.2786 Y12.6541
G01 X21.2875 Y12.6625
G01 X21.2959 Y12.6714
G01 X21.3486 Y12.7296
G01 X21.3567 Y12.7389
G01 X21.3642 Y12.7486
G01 X21.4110 Y12.8116
G01 X21.4180 Y12.8217
G01 X21.4246 Y12.8320
G01 X21.4650 Y12.8994
G01 X21.4710 Y12.9100
G01 X21.4765 Y12.9210
G01 X21.5101 Y12.9920
G01 X21.5151 Y13.0032
G01 X21.5195 Y13.0146
G01 X21.5459 Y13.0885
G01 X21.5498 Y13.1002
G01 X21.5531 Y13.1120
G01 X21.5721 Y13.1882
G01 X21.5748 Y13.2002
G01 X21.5769 Y13.2122
G01 X21.5884 Y13.2899
G01 X21.5899 Y13.3021
G01 X21.5908 Y13.3143
G01 X21.5947 Y13.3927
G01 X21.5950 Y13.4050
G01 X21.5947 Y13.4173
G01 X21.5908 Y13.4957
G01 X21.5899 Y13.5079
G01 X21.5884 Y13.5201
G01 X21.5769 Y13.5978
G01 X21.5748 Y13.6098
G01 X21.5721 Y13.6218
G01 X21.5531 Y13.6980
G01 X21.5498 Y13.7098
