(G-CODE GENERATED BY FLATCAM v8.994 - www.flatcam.org - Version Date: 2020/11/7)

(Name: 3018Pendant-B_Cu.gbr_iso_combined_cnc)
(Type: G-code from Geometry)
(Units: MM)

(Created on Sunday, 23 January 2022 at 21:16)

(This preprocessor is the default preprocessor used by FlatCAM.)
(It is made to work with MACH3 compatible motion controllers.)

(TOOL DIAMETER: 0.5 mm)
(Feedrate_XY: 80.0 mm/min)
(Feedrate_Z: 60.0 mm/min)
(Feedrate rapids 1500.0 mm/min)

(Z_Cut: -0.11 mm)
(Z_Move: 2.0 mm)
(Z Start: None mm)
(Z End: 5.0 mm)
(X,Y End: None mm)
(Steps per circle: 64)
(Preprocessor Geometry: Default_no_M6)

(X range:   -0.6250 ...   51.7650  mm)
(Y range:   -0.6250 ...   35.5452  mm)

(Spindle Speed: 1000.0 RPM)
G21
G90
G94

G01 F80.00

M5
G00 Z15.0000
G00 X0.0000 Y0.0000
T2
(MSG, Change to Tool Dia = 0.5000)
M0
G00 Z15.0000
        
M03 S1000.0
G4 P1.0
G01 F80.00
G00 X4.3057 Y0.8493
G01 F60.00
G01 Z-0.1100
G01 F80.00
G01 X9.6362 Y0.8498
G01 X9.6483 Y0.8339
G01 X9.6564 Y0.8246
G01 X9.7091 Y0.7664
G01 X9.7175 Y0.7575
G01 X9.7264 Y0.7491
G01 X9.7846 Y0.6964
G01 X9.7939 Y0.6883
G01 X9.8036 Y0.6808
G01 X9.8666 Y0.6340
G01 X9.8767 Y0.6270
G01 X9.8870 Y0.6204
G01 X9.9544 Y0.5800
G01 X9.9650 Y0.5740
G01 X9.9760 Y0.5685
G01 X10.0470 Y0.5349
G01 X10.0582 Y0.5299
G01 X10.0696 Y0.5255
G01 X10.1435 Y0.4991
G01 X10.1552 Y0.4952
G01 X10.1670 Y0.4919
G01 X10.2432 Y0.4729
G01 X10.2612 Y0.4691
G01 X10.3449 Y0.4566
G01 X10.3571 Y0.4551
G01 X10.3693 Y0.4542
G01 X10.4477 Y0.4503
G01 X10.4600 Y0.4500
G01 X11.8600 Y0.4500
G01 X11.8723 Y0.4503
G01 X11.9507 Y0.4542
G01 X11.9629 Y0.4551
G01 X11.9751 Y0.4566
G01 X12.0528 Y0.4681
G01 X12.0648 Y0.4702
G01 X12.0768 Y0.4729
G01 X12.1530 Y0.4919
G01 X12.1648 Y0.4952
G01 X12.1765 Y0.4991
G01 X12.2504 Y0.5255
G01 X12.2618 Y0.5299
G01 X12.2730 Y0.5349
G01 X12.3440 Y0.5685
G01 X12.3550 Y0.5740
G01 X12.3656 Y0.5800
G01 X12.4330 Y0.6204
G01 X12.4433 Y0.6270
G01 X12.4534 Y0.6340
G01 X12.5164 Y0.6808
G01 X12.5261 Y0.6883
G01 X12.5354 Y0.6964
G01 X12.5936 Y0.7491
G01 X12.6025 Y0.7575
G01 X12.6109 Y0.7664
G01 X12.6636 Y0.8246
G01 X12.6717 Y0.8339
G01 X12.6792 Y0.8436
G01 X12.7260 Y0.9066
G01 X12.7330 Y0.9167
G01 X12.7396 Y0.9270
G01 X12.7800 Y0.9944
G01 X12.7860 Y1.0050
G01 X12.7915 Y1.0160
G01 X12.8251 Y1.0870
G01 X12.8301 Y1.0982
G01 X12.8345 Y1.1096
G01 X12.8609 Y1.1835
G01 X12.8648 Y1.1952
G01 X12.8681 Y1.2070
G01 X12.8871 Y1.2832
G01 X12.8898 Y1.2952
G01 X12.8919 Y1.3072
G01 X12.9034 Y1.3849
G01 X12.9049 Y1.3971
G01 X12.9058 Y1.4093
G01 X12.9097 Y1.4877
G01 X12.9100 Y1.5000
G01 X12.9097 Y1.5123
G01 X12.9058 Y1.5907
G01 X12.9049 Y1.6029
G01 X12.9034 Y1.6151
G01 X12.8919 Y1.6928
G01 X12.8898 Y1.7048
G01 X12.8871 Y1.7168
G01 X12.8681 Y1.7930
G01 X12.8648 Y1.8048
G01 X12.8609 Y1.8165
G01 X12.8345 Y1.8904
G01 X12.8301 Y1.9018
G01 X12.8251 Y1.9130
G01 X12.7915 Y1.9840
G01 X12.7860 Y1.9950
G01 X12.7800 Y2.0056
G01 X12.7396 Y2.0730
G01 X12.7330 Y2.0833
G01 X12.7260 Y2.0934
G01 X12.6792 Y2.1564
G01 X12.6717 Y2.1661
G01 X12.6636 Y2.1754
G01 X12.6109 Y2.2336
G01 X12.6025 Y2.2425
G01 X12.5936 Y2.2509
G01 X12.5354 Y2.3036
G01 X12.5261 Y2.3117
G01 X12.5164 Y2.3192
G01 X12.4534 Y2.3660
G01 X12.4433 Y2.3730
G01 X12.4330 Y2.3796
G01 X12.3656 Y2.4200
G01 X12.3550 Y2.4260
G01 X12.3440 Y2.4315
G01 X12.2730 Y2.4651
G01 X12.2618 Y2.4701
G01 X12.2504 Y2.4745
G01 X12.1765 Y2.5009
G01 X12.1648 Y2.5048
G01 X12.1530 Y2.5081
G01 X12.0768 Y2.5271
G01 X12.0648 Y2.5298
G01 X12.0528 Y2.5319
G01 X11.9751 Y2.5434
G01 X11.9629 Y2.5449
G01 X11.9507 Y2.5458
G01 X11.8661 Y2.5499
G01 X10.4600 Y2.5500
G01 X10.4477 Y2.5497
G01 X10.3693 Y2.5458
G01 X10.3571 Y2.5449
G01 X10.3449 Y2.5434
G01 X10.2612 Y2.5309
G01 X10.2432 Y2.5271
G01 X10.1670 Y2.5081
G01 X10.1552 Y2.5048
G01 X10.1435 Y2.5009
G01 X10.0696 Y2.4745
G01 X10.0582 Y2.4701
G01 X10.0470 Y2.4651
G01 X9.9760 Y2.4315
G01 X9.9650 Y2.4260
G01 X9.9544 Y2.4200
G01 X9.8870 Y2.3796
G01 X9.8767 Y2.3730
G01 X9.8666 Y2.3660
G01 X9.8036 Y2.3192
G01 X9.7939 Y2.3117
G01 X9.7846 Y2.3036
G01 X9.7264 Y2.2509
G01 X9.7175 Y2.2425
G01 X9.7091 Y2.2336
G01 X9.6564 Y2.1754
G01 X9.6483 Y2.1661
G01 X9.6362 Y2.1502
G01 X4.3060 Y2.1502
G01 X4.2779 Y2.1882
G01 X4.2664 Y2.2025
G01 X4.2063 Y2.2689
G01 X4.1934 Y2.2821
G01 X4.1271 Y2.3423
G01 X4.1178 Y2.3503
G01 X4.1082 Y2.3579
G01 X4.0412 Y2.4076
G01 X4.0260 Y2.4180
G01 X3.9492 Y2.4641
G01 X3.9385 Y2.4701
G01 X3.9276 Y2.4756
G01 X3.8522 Y2.5113
G01 X3.8410 Y2.5163
G01 X3.8295 Y2.5207
G01 X3.7510 Y2.5488
G01 X3.7393 Y2.5526
G01 X3.7275 Y2.5559
G01 X3.6466 Y2.5762
G01 X3.6346 Y2.5789
G01 X3.6225 Y2.5810
G01 X3.5400 Y2.5932
G01 X3.5278 Y2.5947
G01 X3.5156 Y2.5956
G01 X3.4323 Y2.5997
G01 X3.4200 Y2.6000
G01 X2.1200 Y2.6000
G01 X2.1077 Y2.5997
G01 X2.0183 Y2.5952
G01 X2.0000 Y2.5932
G01 X1.9175 Y2.5810
G01 X1.9054 Y2.5789
G01 X1.8934 Y2.5762
G01 X1.8125 Y2.5559
G01 X1.8007 Y2.5526
G01 X1.7890 Y2.5488
G01 X1.7105 Y2.5207
G01 X1.6990 Y2.5163
G01 X1.6878 Y2.5113
G01 X1.6124 Y2.4756
G01 X1.6015 Y2.4701
G01 X1.5908 Y2.4641
G01 X1.5192 Y2.4212
G01 X1.5089 Y2.4146
G01 X1.4988 Y2.4076
G01 X1.4318 Y2.3579
G01 X1.4222 Y2.3503
G01 X1.4129 Y2.3423
G01 X1.3511 Y2.2863
G01 X1.3422 Y2.2778
G01 X1.3337 Y2.2689
G01 X1.2777 Y2.2071
G01 X1.2697 Y2.1978
G01 X1.2621 Y2.1882
G01 X1.2124 Y2.1212
G01 X1.2054 Y2.1111
G01 X1.1988 Y2.1008
G01 X1.1559 Y2.0292
G01 X1.1499 Y2.0185
G01 X1.1444 Y2.0076
G01 X1.1087 Y1.9322
G01 X1.1037 Y1.9210
G01 X1.0993 Y1.9095
G01 X1.0712 Y1.8310
G01 X1.0674 Y1.8193
G01 X1.0641 Y1.8075
G01 X1.0438 Y1.7266
G01 X1.0411 Y1.7146
G01 X1.0390 Y1.7025
G01 X1.0268 Y1.6200
G01 X1.0253 Y1.6078
G01 X1.0244 Y1.5956
G01 X1.0203 Y1.5123
G01 X1.0200 Y1.5000
G01 X1.0203 Y1.4877
G01 X1.0244 Y1.4044
G01 X1.0253 Y1.3922
G01 X1.0268 Y1.3800
G01 X1.0390 Y1.2975
G01 X1.0411 Y1.2854
G01 X1.0438 Y1.2734
G01 X1.0641 Y1.1925
G01 X1.0674 Y1.1807
G01 X1.0712 Y1.1690
G01 X1.0993 Y1.0905
G01 X1.1037 Y1.0790
G01 X1.1087 Y1.0678
G01 X1.1444 Y0.9924
G01 X1.1499 Y0.9815
G01 X1.1559 Y0.9708
G01 X1.1988 Y0.8992
G01 X1.2054 Y0.8889
G01 X1.2124 Y0.8788
G01 X1.2621 Y0.8118
G01 X1.2697 Y0.8022
G01 X1.2777 Y0.7929
G01 X1.3337 Y0.7311
G01 X1.3422 Y0.7222
G01 X1.3511 Y0.7137
G01 X1.4129 Y0.6577
G01 X1.4222 Y0.6497
G01 X1.4318 Y0.6421
G01 X1.4988 Y0.5924
G01 X1.5089 Y0.5854
G01 X1.5192 Y0.5788
G01 X1.5908 Y0.5359
G01 X1.6015 Y0.5299
G01 X1.6124 Y0.5244
G01 X1.6878 Y0.4887
G01 X1.6990 Y0.4837
G01 X1.7105 Y0.4793
G01 X1.7890 Y0.4512
G01 X1.8007 Y0.4474
G01 X1.8125 Y0.4441
G01 X1.8934 Y0.4238
G01 X1.9054 Y0.4211
G01 X1.9175 Y0.4190
G01 X2.0000 Y0.4068
G01 X2.0122 Y0.4053
G01 X2.0244 Y0.4044
G01 X2.1139 Y0.4001
G01 X3.4261 Y0.4001
G01 X3.5156 Y0.4044
G01 X3.5278 Y0.4053
G01 X3.5400 Y0.4068
G01 X3.6225 Y0.4190
G01 X3.6346 Y0.4211
G01 X3.6466 Y0.4238
G01 X3.7275 Y0.4441
G01 X3.7393 Y0.4474
G01 X3.7510 Y0.4512
G01 X3.8295 Y0.4793
G01 X3.8410 Y0.4837
G01 X3.8522 Y0.4887
G01 X3.9276 Y0.5244
G01 X3.9385 Y0.5299
G01 X3.9492 Y0.5359
G01 X4.0260 Y0.5820
G01 X4.0412 Y0.5924
G01 X4.1082 Y0.6421
G01 X4.1178 Y0.6497
G01 X4.1271 Y0.6577
G01 X4.1934 Y0.7179
G01 X4.2063 Y0.7311
G01 X4.2664 Y0.7975
G01 X4.2779 Y0.8118
G01 X4.3057 Y0.8493
G00 Z2.0000
G00 X4.4796 Y0.4743
G01 F60.00
G01 Z-0.1100
G01 F80.00
G01 X9.4708 Y0.4748
G01 X9.5328 Y0.4185
G01 X9.5560 Y0.3985
G01 X9.5802 Y0.3796
G01 X9.6557 Y0.3238
G01 X9.6812 Y0.3068
G01 X9.7616 Y0.2584
G01 X9.7748 Y0.2507
G01 X9.8019 Y0.2362
G01 X9.8866 Y0.1959
G01 X9.9147 Y0.1835
G01 X9.9433 Y0.1724
G01 X10.0172 Y0.1460
G01 X10.0463 Y0.1364
G01 X10.0759 Y0.1282
G01 X10.1670 Y0.1056
G01 X10.1971 Y0.0996
G01 X10.2899 Y0.0856
G01 X10.3203 Y0.0819
G01 X10.3509 Y0.0796
G01 X10.4447 Y0.0752
G01 X11.8600 Y0.0750
G01 X11.8907 Y0.0758
G01 X11.9691 Y0.0796
G01 X11.9997 Y0.0819
G01 X12.0301 Y0.0856
G01 X12.1078 Y0.0971
G01 X12.1229 Y0.0996
G01 X12.1530 Y0.1056
G01 X12.2441 Y0.1282
G01 X12.2737 Y0.1364
G01 X12.3028 Y0.1460
G01 X12.3911 Y0.1778
G01 X12.4194 Y0.1895
G01 X12.4334 Y0.1959
G01 X12.5043 Y0.2295
G01 X12.5317 Y0.2433
G01 X12.5584 Y0.2584
G01 X12.6258 Y0.2987
G01 X12.6517 Y0.3152
G01 X12.6643 Y0.3238
G01 X12.7398 Y0.3796
G01 X12.7640 Y0.3985
G01 X12.7872 Y0.4185
G01 X12.8454 Y0.4712
G01 X12.8676 Y0.4924
G01 X12.8783 Y0.5034
G01 X12.9517 Y0.5843
G01 X12.9615 Y0.5960
G01 X12.9804 Y0.6202
G01 X13.0272 Y0.6832
G01 X13.0448 Y0.7083
G01 X13.0613 Y0.7342
G01 X13.1093 Y0.8148
G01 X13.1238 Y0.8419
G01 X13.1305 Y0.8557
G01 X13.1641 Y0.9266
G01 X13.1765 Y0.9547
G01 X13.1876 Y0.9833
G01 X13.2140 Y1.0572
G01 X13.2236 Y1.0863
G01 X13.2318 Y1.1159
G01 X13.2509 Y1.1921
G01 X13.2576 Y1.2220
G01 X13.2629 Y1.2522
G01 X13.2744 Y1.3299
G01 X13.2781 Y1.3603
G01 X13.2804 Y1.3909
G01 X13.2842 Y1.4693
G01 X13.2850 Y1.5000
G01 X13.2842 Y1.5307
G01 X13.2804 Y1.6091
G01 X13.2781 Y1.6397
G01 X13.2744 Y1.6701
G01 X13.2629 Y1.7478
G01 X13.2576 Y1.7780
G01 X13.2509 Y1.8079
G01 X13.2318 Y1.8841
G01 X13.2236 Y1.9137
G01 X13.2140 Y1.9428
G01 X13.1876 Y2.0167
G01 X13.1765 Y2.0453
G01 X13.1641 Y2.0734
G01 X13.1305 Y2.1443
G01 X13.1167 Y2.1717
G01 X13.1016 Y2.1984
G01 X13.0613 Y2.2658
G01 X13.0448 Y2.2917
G01 X13.0272 Y2.3168
G01 X12.9804 Y2.3798
G01 X12.9615 Y2.4040
G01 X12.9415 Y2.4272
G01 X12.8888 Y2.4854
G01 X12.8676 Y2.5076
G01 X12.8454 Y2.5288
G01 X12.7872 Y2.5815
G01 X12.7640 Y2.6015
G01 X12.7398 Y2.6204
G01 X12.6768 Y2.6672
G01 X12.6517 Y2.6848
G01 X12.6258 Y2.7013
G01 X12.5452 Y2.7493
G01 X12.5317 Y2.7567
G01 X12.5054 Y2.7700
G01 X12.5317 Y2.7833
G01 X12.5452 Y2.7907
G01 X12.6258 Y2.8387
G01 X12.6517 Y2.8552
G01 X12.6768 Y2.8728
G01 X12.7398 Y2.9196
G01 X12.7640 Y2.9385
G01 X12.7872 Y2.9585
G01 X12.8454 Y3.0112
G01 X12.8676 Y3.0324
G01 X12.8888 Y3.0546
G01 X12.9517 Y3.1243
G01 X12.9615 Y3.1360
G01 X12.9804 Y3.1602
G01 X13.0272 Y3.2232
G01 X13.0448 Y3.2483
G01 X13.0613 Y3.2742
G01 X13.1016 Y3.3416
G01 X13.1167 Y3.3683
G01 X13.1305 Y3.3957
G01 X13.1641 Y3.4666
G01 X13.1765 Y3.4947
G01 X13.1876 Y3.5233
G01 X13.2140 Y3.5972
G01 X13.2190 Y3.6117
G01 X13.2279 Y3.6411
G01 X13.2509 Y3.7321
G01 X13.2576 Y3.7620
G01 X13.2629 Y3.7922
G01 X13.2744 Y3.8699
G01 X13.2781 Y3.9003
G01 X13.2804 Y3.9309
G01 X13.2842 Y4.0093
G01 X13.2850 Y4.0400
G01 X13.2842 Y4.0707
G01 X13.2795 Y4.1644
G01 X13.2764 Y4.1949
G01 X13.2604 Y4.3029
G01 X13.2576 Y4.3180
G01 X13.2509 Y4.3479
G01 X13.2318 Y4.4241
G01 X13.2236 Y4.4537
G01 X13.2140 Y4.4828
G01 X13.1876 Y4.5567
G01 X13.1822 Y4.5711
G01 X13.1705 Y4.5994
G01 X13.1305 Y4.6843
G01 X13.1167 Y4.7117
G01 X13.1016 Y4.7384
G01 X13.0613 Y4.8058
G01 X13.0532 Y4.8188
G01 X13.0362 Y4.8443
G01 X12.9804 Y4.9198
G01 X12.9615 Y4.9440
G01 X12.9415 Y4.9672
G01 X12.8888 Y5.0254
G01 X12.8783 Y5.0366
G01 X12.8566 Y5.0583
G01 X12.7757 Y5.1317
G01 X12.7640 Y5.1415
G01 X12.7398 Y5.1604
G01 X12.6768 Y5.2072
G01 X12.6517 Y5.2248
G01 X12.6258 Y5.2413
G01 X12.5452 Y5.2893
G01 X12.5317 Y5.2967
G01 X12.5054 Y5.3100
G01 X12.5317 Y5.3233
G01 X12.5584 Y5.3384
G01 X12.6388 Y5.3868
G01 X12.6643 Y5.4038
G01 X12.7398 Y5.4596
G01 X12.7640 Y5.4785
G01 X12.7872 Y5.4985
G01 X12.8566 Y5.5617
G01 X12.8783 Y5.5834
G01 X12.9415 Y5.6528
G01 X12.9615 Y5.6760
G01 X12.9804 Y5.7002
G01 X13.0272 Y5.7632
G01 X13.0448 Y5.7883
G01 X13.0613 Y5.8142
G01 X13.1093 Y5.8948
G01 X13.1238 Y5.9219
G01 X13.1641 Y6.0066
G01 X13.1765 Y6.0347
G01 X13.1876 Y6.0633
G01 X13.2140 Y6.1372
G01 X13.2236 Y6.1663
G01 X13.2318 Y6.1959
G01 X13.2509 Y6.2721
G01 X13.2576 Y6.3020
G01 X13.2629 Y6.3322
G01 X13.2764 Y6.4251
G01 X13.2795 Y6.4556
G01 X13.2804 Y6.4709
G01 X13.2842 Y6.5493
G01 X13.2850 Y6.5800
G01 X13.2842 Y6.6107
G01 X13.2795 Y6.7044
G01 X13.2764 Y6.7349
G01 X13.2744 Y6.7501
G01 X13.2629 Y6.8278
G01 X13.2576 Y6.8580
G01 X13.2509 Y6.8879
G01 X13.2279 Y6.9789
G01 X13.2236 Y6.9937
G01 X13.2140 Y7.0228
G01 X13.1876 Y7.0967
G01 X13.1765 Y7.1253
G01 X13.1641 Y7.1534
G01 X13.1305 Y7.2243
G01 X13.1238 Y7.2381
G01 X13.1093 Y7.2652
G01 X13.0613 Y7.3458
G01 X13.0448 Y7.3717
G01 X13.0272 Y7.3968
G01 X12.9711 Y7.4720
G01 X12.9517 Y7.4957
G01 X12.9415 Y7.5072
G01 X12.8888 Y7.5654
G01 X12.8676 Y7.5876
G01 X12.8454 Y7.6088
G01 X12.7872 Y7.6615
G01 X12.7640 Y7.6815
G01 X12.7520 Y7.6911
G01 X12.6768 Y7.7472
G01 X12.6517 Y7.7648
G01 X12.6258 Y7.7813
G01 X12.5452 Y7.8293
G01 X12.5317 Y7.8367
G01 X12.5054 Y7.8500
G01 X12.5317 Y7.8633
G01 X12.5584 Y7.8784
G01 X12.6388 Y7.9268
G01 X12.6643 Y7.9438
G01 X12.7398 Y7.9996
G01 X12.7640 Y8.0185
G01 X12.7872 Y8.0385
G01 X12.8566 Y8.1017
G01 X12.8783 Y8.1234
G01 X12.9415 Y8.1928
G01 X12.9615 Y8.2160
G01 X12.9804 Y8.2402
G01 X13.0272 Y8.3032
G01 X13.0448 Y8.3283
G01 X13.0613 Y8.3542
G01 X13.1093 Y8.4348
G01 X13.1238 Y8.4619
G01 X13.1641 Y8.5466
G01 X13.1765 Y8.5747
G01 X13.1876 Y8.6033
G01 X13.2140 Y8.6772
G01 X13.2236 Y8.7063
G01 X13.2318 Y8.7359
G01 X13.2509 Y8.8121
G01 X13.2576 Y8.8420
G01 X13.2629 Y8.8722
G01 X13.2764 Y8.9651
G01 X13.2795 Y8.9956
G01 X13.2804 Y9.0109
G01 X13.2842 Y9.0893
G01 X13.2850 Y9.1200
G01 X13.2842 Y9.1507
G01 X13.2795 Y9.2444
G01 X13.2764 Y9.2749
G01 X13.2744 Y9.2901
G01 X13.2629 Y9.3678
G01 X13.2576 Y9.3980
G01 X13.2509 Y9.4279
G01 X13.2279 Y9.5189
G01 X13.2236 Y9.5337
G01 X13.2140 Y9.5628
G01 X13.1876 Y9.6367
G01 X13.1765 Y9.6653
G01 X13.1641 Y9.6934
G01 X13.1305 Y9.7643
G01 X13.1167 Y9.7917
G01 X13.1093 Y9.8052
G01 X13.0613 Y9.8858
G01 X13.0448 Y9.9117
G01 X13.0272 Y9.9368
G01 X12.9711 Y10.0120
G01 X12.9615 Y10.0240
G01 X12.9415 Y10.0472
G01 X12.8888 Y10.1054
G01 X12.8676 Y10.1276
G01 X12.8454 Y10.1488
G01 X12.7872 Y10.2015
G01 X12.7757 Y10.2117
G01 X12.7520 Y10.2311
G01 X12.6768 Y10.2872
G01 X12.6517 Y10.3048
G01 X12.6258 Y10.3213
G01 X12.5452 Y10.3693
G01 X12.5317 Y10.3767
G01 X12.5054 Y10.3900
G01 X12.5317 Y10.4033
G01 X12.5584 Y10.4184
G01 X12.6388 Y10.4668
G01 X12.6643 Y10.4838
G01 X12.7398 Y10.5396
G01 X12.7640 Y10.5585
G01 X12.7872 Y10.5785
G01 X12.8566 Y10.6417
G01 X12.8783 Y10.6634
G01 X12.9415 Y10.7328
G01 X12.9615 Y10.7560
G01 X12.9804 Y10.7802
G01 X13.0272 Y10.8432
G01 X13.0448 Y10.8683
G01 X13.0613 Y10.8942
G01 X13.1093 Y10.9748
G01 X13.1238 Y11.0019
G01 X13.1641 Y11.0866
G01 X13.1765 Y11.1147
G01 X13.1876 Y11.1433
G01 X13.2140 Y11.2172
G01 X13.2236 Y11.2463
G01 X13.2318 Y11.2759
G01 X13.2544 Y11.3670
G01 X13.2576 Y11.3820
G01 X13.2629 Y11.4122
G01 X13.2764 Y11.5051
G01 X13.2795 Y11.5356
G01 X13.2842 Y11.6293
G01 X13.2850 Y11.6600
G01 X13.2842 Y11.6907
G01 X13.2804 Y11.7691
G01 X13.2781 Y11.7997
G01 X13.2764 Y11.8149
G01 X13.2629 Y11.9078
G01 X13.2576 Y11.9380
G01 X13.2509 Y11.9679
G01 X13.2279 Y12.0589
G01 X13.2236 Y12.0737
G01 X13.2140 Y12.1028
G01 X13.1876 Y12.1767
G01 X13.1765 Y12.2053
G01 X13.1641 Y12.2334
G01 X13.1305 Y12.3043
G01 X13.1167 Y12.3317
G01 X13.1093 Y12.3452
G01 X13.0613 Y12.4258
G01 X13.0448 Y12.4517
G01 X13.0272 Y12.4768
G01 X12.9711 Y12.5520
G01 X12.9615 Y12.5640
G01 X12.9415 Y12.5872
G01 X12.8888 Y12.6454
G01 X12.8676 Y12.6676
G01 X12.8454 Y12.6888
G01 X12.7872 Y12.7415
G01 X12.7757 Y12.7517
G01 X12.7520 Y12.7711
G01 X12.6768 Y12.8272
G01 X12.6517 Y12.8448
G01 X12.6258 Y12.8613
G01 X12.5452 Y12.9093
G01 X12.5317 Y12.9167
G01 X12.5054 Y12.9300
G01 X12.5317 Y12.9433
G01 X12.5584 Y12.9584
G01 X12.6388 Y13.0068
G01 X12.6643 Y13.0238
G01 X12.7398 Y13.0796
G01 X12.7640 Y13.0985
G01 X12.7872 Y13.1185
G01 X12.8566 Y13.1817
G01 X12.8783 Y13.2034
G01 X12.8888 Y13.2146
G01 X12.9517 Y13.2843
G01 X12.9711 Y13.3080
G01 X13.0272 Y13.3832
G01 X13.0448 Y13.4083
G01 X13.0613 Y13.4342
G01 X13.1016 Y13.5016
G01 X13.1167 Y13.5283
G01 X13.1238 Y13.5419
G01 X13.1641 Y13.6266
G01 X13.1765 Y13.6547
G01 X13.1876 Y13.6833
G01 X13.2190 Y13.7717
G01 X13.2236 Y13.7863
G01 X13.2318 Y13.8159
G01 X13.2509 Y13.8921
G01 X13.2576 Y13.9220
G01 X13.2629 Y13.9522
G01 X13.2764 Y14.0451
G01 X13.2795 Y14.0756
G01 X13.2842 Y14.1693
G01 X13.2850 Y14.2000
G01 X13.2842 Y14.2307
G01 X13.2804 Y14.3091
G01 X13.2781 Y14.3397
G01 X13.2744 Y14.3701
G01 X13.2629 Y14.4478
G01 X13.2604 Y14.4629
G01 X13.2544 Y14.4930
G01 X13.2318 Y14.5841
G01 X13.2236 Y14.6137
G01 X13.2140 Y14.6428
G01 X13.1822 Y14.7311
G01 X13.1765 Y14.7453
G01 X13.1641 Y14.7734
G01 X13.1305 Y14.8443
G01 X13.1167 Y14.8717
G01 X13.1016 Y14.8984
G01 X13.0532 Y14.9788
G01 X13.0448 Y14.9917
G01 X13.0272 Y15.0168
G01 X12.9711 Y15.0920
G01 X12.9517 Y15.1157
G01 X12.8888 Y15.1854
G01 X12.8676 Y15.2076
G01 X12.8454 Y15.2288
G01 X12.7872 Y15.2815
G01 X12.7757 Y15.2917
G01 X12.7520 Y15.3111
G01 X12.6768 Y15.3672
G01 X12.6517 Y15.3848
G01 X12.6258 Y15.4013
G01 X12.5452 Y15.4493
G01 X12.5317 Y15.4567
G01 X12.5054 Y15.4700
G01 X12.5317 Y15.4833
G01 X12.5584 Y15.4984
G01 X12.6388 Y15.5468
G01 X12.6643 Y15.5638
G01 X12.7398 Y15.6196
G01 X12.7640 Y15.6385
G01 X12.7872 Y15.6585
G01 X12.8454 Y15.7112
G01 X12.8566 Y15.7217
G01 X12.8783 Y15.7434
G01 X12.9415 Y15.8128
G01 X12.9615 Y15.8360
G01 X12.9804 Y15.8602
G01 X13.0362 Y15.9357
G01 X13.0448 Y15.9483
G01 X13.0613 Y15.9742
G01 X13.1016 Y16.0416
G01 X13.1167 Y16.0683
G01 X13.1305 Y16.0957
G01 X13.1705 Y16.1806
G01 X13.1822 Y16.2089
G01 X13.2140 Y16.2972
G01 X13.2190 Y16.3117
G01 X13.2279 Y16.3411
G01 X13.2509 Y16.4321
G01 X13.2576 Y16.4620
G01 X13.2629 Y16.4922
G01 X13.2744 Y16.5699
G01 X13.2781 Y16.6003
G01 X13.2804 Y16.6309
G01 X13.2848 Y16.7247
G01 X13.2848 Y16.7553
G01 X13.2804 Y16.8491
G01 X13.2781 Y16.8797
G01 X13.2744 Y16.9101
G01 X13.2629 Y16.9878
G01 X13.2604 Y17.0029
G01 X13.2544 Y17.0330
G01 X13.2318 Y17.1241
G01 X13.2236 Y17.1537
G01 X13.2140 Y17.1828
G01 X13.1822 Y17.2711
G01 X13.1765 Y17.2853
G01 X13.1641 Y17.3134
G01 X13.1305 Y17.3843
G01 X13.1167 Y17.4117
G01 X13.1016 Y17.4384
G01 X13.0532 Y17.5188
G01 X13.0362 Y17.5443
G01 X13.0272 Y17.5568
G01 X12.9711 Y17.6320
G01 X12.9517 Y17.6557
G01 X12.8888 Y17.7254
G01 X12.8676 Y17.7476
G01 X12.8454 Y17.7688
G01 X12.7872 Y17.8215
G01 X12.7757 Y17.8317
G01 X12.7520 Y17.8511
G01 X12.6768 Y17.9072
G01 X12.6517 Y17.9248
G01 X12.6258 Y17.9413
G01 X12.5452 Y17.9893
G01 X12.5317 Y17.9967
G01 X12.5054 Y18.0100
G01 X12.5317 Y18.0233
G01 X12.5584 Y18.0384
G01 X12.6388 Y18.0868
G01 X12.6643 Y18.1038
G01 X12.7398 Y18.1596
G01 X12.7640 Y18.1785
G01 X12.7872 Y18.1985
G01 X12.8454 Y18.2512
G01 X12.8676 Y18.2724
G01 X12.8783 Y18.2834
G01 X12.9415 Y18.3528
G01 X12.9615 Y18.3760
G01 X12.9804 Y18.4002
G01 X13.0362 Y18.4757
G01 X13.0448 Y18.4883
G01 X13.0613 Y18.5142
G01 X13.1016 Y18.5816
G01 X13.1167 Y18.6083
G01 X13.1305 Y18.6357
G01 X13.1705 Y18.7206
G01 X13.1822 Y18.7489
G01 X13.2140 Y18.8372
G01 X13.2190 Y18.8517
G01 X13.2279 Y18.8811
G01 X13.2509 Y18.9721
G01 X13.2576 Y19.0020
G01 X13.2629 Y19.0322
G01 X13.2744 Y19.1099
G01 X13.2781 Y19.1403
G01 X13.2804 Y19.1709
G01 X13.2848 Y19.2647
G01 X13.2848 Y19.2953
G01 X13.2804 Y19.3891
G01 X13.2781 Y19.4197
G01 X13.2744 Y19.4501
G01 X13.2629 Y19.5278
G01 X13.2604 Y19.5429
G01 X13.2544 Y19.5730
G01 X13.2318 Y19.6641
G01 X13.2236 Y19.6937
G01 X13.2140 Y19.7228
G01 X13.1822 Y19.8111
G01 X13.1765 Y19.8253
G01 X13.1641 Y19.8534
G01 X13.1305 Y19.9243
G01 X13.1167 Y19.9517
G01 X13.1016 Y19.9784
G01 X13.0532 Y20.0588
G01 X13.0362 Y20.0843
G01 X13.0272 Y20.0968
G01 X12.9711 Y20.1720
G01 X12.9517 Y20.1957
G01 X12.8888 Y20.2654
G01 X12.8676 Y20.2876
G01 X12.8454 Y20.3088
G01 X12.7872 Y20.3615
G01 X12.7757 Y20.3717
G01 X12.7520 Y20.3911
G01 X12.6768 Y20.4472
G01 X12.6517 Y20.4648
G01 X12.6258 Y20.4813
G01 X12.5452 Y20.5293
G01 X12.5317 Y20.5367
G01 X12.5054 Y20.5500
G01 X12.5317 Y20.5633
G01 X12.5584 Y20.5784
G01 X12.6388 Y20.6268
G01 X12.6643 Y20.6438
G01 X12.7398 Y20.6996
G01 X12.7640 Y20.7185
G01 X12.7872 Y20.7385
G01 X12.8493 Y20.7948
G01 X14.2000 Y20.7948
G01 X14.2307 Y20.7956
G01 X14.2699 Y20.7975
G01 X14.2852 Y20.7984
G01 X14.3157 Y20.8014
G01 X14.3698 Y20.8093
G01 X14.4000 Y20.8145
G01 X14.4299 Y20.8212
G01 X14.4680 Y20.8308
G01 X14.4976 Y20.8389
G01 X14.5122 Y20.8436
G01 X14.5637 Y20.8618
G01 X14.5923 Y20.8728
G01 X14.6204 Y20.8853
G01 X14.6697 Y20.9088
G01 X14.6833 Y20.9159
G01 X14.7100 Y20.9310
G01 X14.7437 Y20.9512
G01 X14.7696 Y20.9676
G01 X14.7947 Y20.9852
G01 X14.8384 Y21.0179
G01 X14.8504 Y21.0275
G01 X14.8736 Y21.0475
G01 X14.9027 Y21.0739
G01 X14.9249 Y21.0951
G01 X20.6399 Y26.8101
G01 X20.6611 Y26.8323
G01 X20.6875 Y26.8614
G01 X20.7075 Y26.8846
G01 X20.7264 Y26.9088
G01 X20.7587 Y26.9528
G01 X20.7758 Y26.9783
G01 X20.8040 Y27.0250
G01 X20.8191 Y27.0517
G01 X20.8329 Y27.0791
G01 X20.8561 Y27.1286
G01 X20.8679 Y27.1569
G01 X20.8864 Y27.2083
G01 X20.8961 Y27.2374
G01 X20.9042 Y27.2670
G01 X20.9138 Y27.3051
G01 X20.9205 Y27.3350
G01 X20.9257 Y27.3652
G01 X20.9336 Y27.4193
G01 X20.9366 Y27.4498
G01 X20.9394 Y27.5043
G01 X20.9402 Y27.5350
G01 X20.9402 Y32.8253
G01 X21.6097 Y33.4948
G01 X23.1996 Y33.4948
G01 X23.1683 Y33.4758
G01 X23.1428 Y33.4587
G01 X23.0866 Y33.4171
G01 X23.0629 Y33.3976
G01 X23.0111 Y33.3506
G01 X21.7194 Y32.0589
G01 X21.6724 Y32.0071
G01 X21.6625 Y31.9954
G01 X21.6436 Y31.9712
G01 X21.6202 Y31.9397
G01 X21.6026 Y31.9146
G01 X21.5862 Y31.8887
G01 X21.5660 Y31.8550
G01 X21.5583 Y31.8417
G01 X21.5438 Y31.8147
G01 X21.5139 Y31.7514
G01 X21.5021 Y31.7231
G01 X21.4968 Y31.7087
G01 X21.4836 Y31.6717
G01 X21.4739 Y31.6426
G01 X21.4658 Y31.6130
G01 X21.4527 Y31.5600
G01 X21.4467 Y31.5299
G01 X21.4443 Y31.5148
G01 X21.4385 Y31.4759
G01 X21.4347 Y31.4455
G01 X21.4325 Y31.4149
G01 X21.4300 Y31.3603
G01 X21.4298 Y28.1700
G01 X21.4306 Y28.1393
G01 X21.4325 Y28.1001
G01 X21.4347 Y28.0695
G01 X21.4385 Y28.0391
G01 X21.4467 Y27.9851
G01 X21.4527 Y27.9550
G01 X21.4697 Y27.8871
G01 X21.4786 Y27.8578
G01 X21.4968 Y27.8063
G01 X21.5078 Y27.7777
G01 X21.5139 Y27.7636
G01 X21.5438 Y27.7003
G01 X21.5583 Y27.6733
G01 X21.5942 Y27.6133
G01 X21.6113 Y27.5878
G01 X21.6529 Y27.5316
G01 X21.6724 Y27.5079
G01 X21.7194 Y27.4561
G01 X23.0111 Y26.1644
G01 X23.0514 Y26.1275
G01 X23.0746 Y26.1075
G01 X23.0988 Y26.0886
G01 X23.1428 Y26.0563
G01 X23.1683 Y26.0392
G01 X23.2150 Y26.0110
G01 X23.2417 Y25.9959
G01 X23.2691 Y25.9821
G01 X23.3046 Y25.9653
G01 X23.3327 Y25.9528
G01 X23.3613 Y25.9418
G01 X23.3983 Y25.9286
G01 X23.4128 Y25.9236
G01 X23.4421 Y25.9147
G01 X23.4951 Y25.9012
G01 X23.5100 Y25.8977
G01 X23.5401 Y25.8917
G01 X23.6093 Y25.8814
G01 X23.6398 Y25.8784
G01 X23.6943 Y25.8756
G01 X23.7250 Y25.8748
G01 X25.7107 Y25.8748
G01 X25.7728 Y25.8185
G01 X25.7960 Y25.7985
G01 X25.8202 Y25.7796
G01 X25.8957 Y25.7238
G01 X25.9212 Y25.7068
G01 X26.0016 Y25.6584
G01 X26.0283 Y25.6433
G01 X26.0546 Y25.6300
G01 X26.0283 Y25.6167
G01 X26.0148 Y25.6093
G01 X25.9342 Y25.5613
G01 X25.9083 Y25.5448
G01 X25.8832 Y25.5272
G01 X25.8080 Y25.4711
G01 X25.7843 Y25.4517
G01 X25.7728 Y25.4415
G01 X25.7146 Y25.3888
G01 X25.6924 Y25.3676
G01 X25.6712 Y25.3454
G01 X25.6083 Y25.2757
G01 X25.5889 Y25.2520
G01 X25.5328 Y25.1768
G01 X25.5152 Y25.1517
G01 X25.5068 Y25.1388
G01 X25.4584 Y25.0584
G01 X25.4433 Y25.0317
G01 X25.4295 Y25.0043
G01 X25.3959 Y24.9334
G01 X25.3895 Y24.9194
G01 X25.3778 Y24.8911
G01 X25.3460 Y24.8028
G01 X25.3364 Y24.7737
G01 X25.3282 Y24.7441
G01 X25.3056 Y24.6530
G01 X25.2996 Y24.6229
G01 X25.2971 Y24.6078
G01 X25.2856 Y24.5301
G01 X25.2819 Y24.4997
G01 X25.2796 Y24.4691
G01 X25.2752 Y24.3753
G01 X25.2752 Y24.3447
G01 X25.2796 Y24.2509
G01 X25.2819 Y24.2203
G01 X25.2856 Y24.1899
G01 X25.2971 Y24.1122
G01 X25.3024 Y24.0820
G01 X25.3091 Y24.0521
G01 X25.3321 Y23.9611
G01 X25.3410 Y23.9317
G01 X25.3460 Y23.9172
G01 X25.3778 Y23.8289
G01 X25.3895 Y23.8006
G01 X25.4295 Y23.7157
G01 X25.4433 Y23.6883
G01 X25.4584 Y23.6616
G01 X25.4987 Y23.5942
G01 X25.5068 Y23.5812
G01 X25.5238 Y23.5557
G01 X25.5796 Y23.4802
G01 X25.5985 Y23.4560
G01 X25.6185 Y23.4328
G01 X25.6817 Y23.3634
G01 X25.7034 Y23.3417
G01 X25.7146 Y23.3312
G01 X25.7728 Y23.2785
G01 X25.7960 Y23.2585
G01 X25.8202 Y23.2396
G01 X25.8957 Y23.1838
G01 X25.9212 Y23.1668
G01 X26.0016 Y23.1184
G01 X26.0283 Y23.1033
G01 X26.0546 Y23.0900
G01 X26.0283 Y23.0767
G01 X26.0148 Y23.0693
G01 X25.9342 Y23.0213
G01 X25.9083 Y23.0048
G01 X25.8832 Y22.9872
G01 X25.8080 Y22.9311
G01 X25.7843 Y22.9117
G01 X25.7728 Y22.9015
G01 X25.7146 Y22.8488
G01 X25.6924 Y22.8276
G01 X25.6712 Y22.8054
G01 X25.6083 Y22.7357
G01 X25.5889 Y22.7120
G01 X25.5328 Y22.6368
G01 X25.5152 Y22.6117
G01 X25.5068 Y22.5988
G01 X25.4584 Y22.5184
G01 X25.4433 Y22.4917
G01 X25.4295 Y22.4643
G01 X25.3959 Y22.3934
G01 X25.3895 Y22.3794
G01 X25.3778 Y22.3511
G01 X25.3460 Y22.2628
G01 X25.3364 Y22.2337
G01 X25.3282 Y22.2041
G01 X25.3056 Y22.1130
G01 X25.2996 Y22.0829
G01 X25.2971 Y22.0678
G01 X25.2856 Y21.9901
G01 X25.2819 Y21.9597
G01 X25.2796 Y21.9291
G01 X25.2752 Y21.8353
G01 X25.2752 Y21.8047
G01 X25.2796 Y21.7109
G01 X25.2819 Y21.6803
G01 X25.2856 Y21.6499
G01 X25.2971 Y21.5722
G01 X25.3024 Y21.5420
G01 X25.3091 Y21.5121
G01 X25.3321 Y21.4211
G01 X25.3410 Y21.3917
G01 X25.3460 Y21.3772
G01 X25.3778 Y21.2889
G01 X25.3895 Y21.2606
G01 X25.4295 Y21.1757
G01 X25.4433 Y21.1483
G01 X25.4584 Y21.1216
G01 X25.4987 Y21.0542
G01 X25.5068 Y21.0412
G01 X25.5238 Y21.0157
G01 X25.5796 Y20.9402
G01 X25.5985 Y20.9160
G01 X25.6185 Y20.8928
G01 X25.6817 Y20.8234
G01 X25.7034 Y20.8017
G01 X25.7146 Y20.7912
G01 X25.7728 Y20.7385
G01 X25.7960 Y20.7185
G01 X25.8202 Y20.6996
G01 X25.8957 Y20.6438
G01 X25.9212 Y20.6268
G01 X26.0016 Y20.5784
G01 X26.0283 Y20.5633
G01 X26.0546 Y20.5500
G01 X26.0283 Y20.5367
G01 X26.0148 Y20.5293
G01 X25.9342 Y20.4813
G01 X25.9083 Y20.4648
G01 X25.8832 Y20.4472
G01 X25.8080 Y20.3911
G01 X25.7960 Y20.3815
G01 X25.7728 Y20.3615
G01 X25.7146 Y20.3088
G01 X25.6924 Y20.2876
G01 X25.6712 Y20.2654
G01 X25.6083 Y20.1957
G01 X25.5889 Y20.1720
G01 X25.5328 Y20.0968
G01 X25.5238 Y20.0843
G01 X25.5068 Y20.0588
G01 X25.4584 Y19.9784
G01 X25.4433 Y19.9517
G01 X25.4295 Y19.9243
G01 X25.3959 Y19.8534
G01 X25.3895 Y19.8394
G01 X25.3778 Y19.8111
G01 X25.3460 Y19.7228
G01 X25.3364 Y19.6937
G01 X25.3282 Y19.6641
G01 X25.3056 Y19.5730
G01 X25.2996 Y19.5429
G01 X25.2971 Y19.5278
G01 X25.2856 Y19.4501
G01 X25.2819 Y19.4197
G01 X25.2796 Y19.3891
G01 X25.2752 Y19.2953
G01 X25.2752 Y19.2647
G01 X25.2796 Y19.1709
G01 X25.2819 Y19.1403
G01 X25.2856 Y19.1099
G01 X25.2971 Y19.0322
G01 X25.3024 Y19.0020
G01 X25.3091 Y18.9721
G01 X25.3321 Y18.8811
G01 X25.3410 Y18.8517
G01 X25.3460 Y18.8372
G01 X25.3778 Y18.7489
G01 X25.3895 Y18.7206
G01 X25.4295 Y18.6357
G01 X25.4433 Y18.6083
G01 X25.4584 Y18.5816
G01 X25.4987 Y18.5142
G01 X25.5152 Y18.4883
G01 X25.5238 Y18.4757
G01 X25.5796 Y18.4002
G01 X25.5985 Y18.3760
G01 X25.6185 Y18.3528
G01 X25.6817 Y18.2834
G01 X25.7034 Y18.2617
G01 X25.7146 Y18.2512
G01 X25.7728 Y18.1985
G01 X25.7960 Y18.1785
G01 X25.8202 Y18.1596
G01 X25.8957 Y18.1038
G01 X25.9212 Y18.0868
G01 X26.0016 Y18.0384
G01 X26.0283 Y18.0233
G01 X26.0546 Y18.0100
G01 X26.0283 Y17.9967
G01 X26.0148 Y17.9893
G01 X25.9342 Y17.9413
G01 X25.9083 Y17.9248
G01 X25.8832 Y17.9072
G01 X25.8080 Y17.8511
G01 X25.7960 Y17.8415
G01 X25.7728 Y17.8215
G01 X25.7146 Y17.7688
G01 X25.6924 Y17.7476
G01 X25.6712 Y17.7254
G01 X25.6083 Y17.6557
G01 X25.5889 Y17.6320
G01 X25.5328 Y17.5568
G01 X25.5238 Y17.5443
G01 X25.5068 Y17.5188
G01 X25.4584 Y17.4384
G01 X25.4433 Y17.4117
G01 X25.4295 Y17.3843
G01 X25.3959 Y17.3134
G01 X25.3895 Y17.2994
G01 X25.3778 Y17.2711
G01 X25.3460 Y17.1828
G01 X25.3364 Y17.1537
G01 X25.3282 Y17.1241
G01 X25.3056 Y17.0330
G01 X25.2996 Y17.0029
G01 X25.2971 Y16.9878
G01 X25.2856 Y16.9101
G01 X25.2819 Y16.8797
G01 X25.2796 Y16.8491
G01 X25.2752 Y16.7553
G01 X25.2752 Y16.7247
G01 X25.2796 Y16.6309
G01 X25.2819 Y16.6003
G01 X25.2856 Y16.5699
G01 X25.2971 Y16.4922
G01 X25.3024 Y16.4620
G01 X25.3091 Y16.4321
G01 X25.3321 Y16.3411
G01 X25.3410 Y16.3117
G01 X25.3460 Y16.2972
G01 X25.3778 Y16.2089
G01 X25.3895 Y16.1806
G01 X25.4295 Y16.0957
G01 X25.4433 Y16.0683
G01 X25.4584 Y16.0416
G01 X25.4987 Y15.9742
G01 X25.5068 Y15.9612
G01 X25.5238 Y15.9357
G01 X25.5796 Y15.8602
G01 X25.5985 Y15.8360
G01 X25.6185 Y15.8128
G01 X25.6817 Y15.7434
G01 X25.7034 Y15.7217
G01 X25.7146 Y15.7112
G01 X25.7728 Y15.6585
G01 X25.7960 Y15.6385
G01 X25.8202 Y15.6196
G01 X25.8957 Y15.5638
G01 X25.9212 Y15.5468
G01 X26.0016 Y15.4984
G01 X26.0283 Y15.4833
G01 X26.0546 Y15.4700
G01 X26.0283 Y15.4567
G01 X26.0148 Y15.4493
G01 X25.9342 Y15.4013
G01 X25.9083 Y15.3848
G01 X25.8832 Y15.3672
G01 X25.8080 Y15.3111
G01 X25.7960 Y15.3015
G01 X25.7728 Y15.2815
G01 X25.7146 Y15.2288
G01 X25.6924 Y15.2076
G01 X25.6712 Y15.1854
G01 X25.6083 Y15.1157
G01 X25.5889 Y15.0920
G01 X25.5328 Y15.0168
G01 X25.5152 Y14.9917
G01 X25.5068 Y14.9788
G01 X25.4584 Y14.8984
G01 X25.4433 Y14.8717
G01 X25.4295 Y14.8443
G01 X25.3959 Y14.7734
G01 X25.3895 Y14.7594
G01 X25.3778 Y14.7311
G01 X25.3460 Y14.6428
G01 X25.3364 Y14.6137
G01 X25.3282 Y14.5841
G01 X25.3056 Y14.4930
G01 X25.2996 Y14.4629
G01 X25.2971 Y14.4478
G01 X25.2856 Y14.3701
G01 X25.2819 Y14.3397
G01 X25.2796 Y14.3091
G01 X25.2752 Y14.2153
G01 X25.2752 Y14.1847
G01 X25.2796 Y14.0909
G01 X25.2819 Y14.0603
G01 X25.2856 Y14.0299
G01 X25.2971 Y13.9522
G01 X25.3024 Y13.9220
G01 X25.3091 Y13.8921
G01 X25.3321 Y13.8011
G01 X25.3410 Y13.7717
G01 X25.3460 Y13.7572
G01 X25.3778 Y13.6689
G01 X25.3895 Y13.6406
G01 X25.4295 Y13.5557
G01 X25.4433 Y13.5283
G01 X25.4584 Y13.5016
G01 X25.4987 Y13.4342
G01 X25.5152 Y13.4083
G01 X25.5238 Y13.3957
G01 X25.5796 Y13.3202
G01 X25.5985 Y13.2960
G01 X25.6185 Y13.2728
G01 X25.6817 Y13.2034
G01 X25.7034 Y13.1817
G01 X25.7146 Y13.1712
G01 X25.7728 Y13.1185
G01 X25.7960 Y13.0985
G01 X25.8202 Y13.0796
G01 X25.8957 Y13.0238
G01 X25.9212 Y13.0068
G01 X26.0016 Y12.9584
G01 X26.0283 Y12.9433
G01 X26.0546 Y12.9300
G01 X26.0283 Y12.9167
G01 X26.0148 Y12.9093
G01 X25.9342 Y12.8613
G01 X25.9083 Y12.8448
G01 X25.8832 Y12.8272
G01 X25.8080 Y12.7711
G01 X25.7960 Y12.7615
G01 X25.7728 Y12.7415
G01 X25.7146 Y12.6888
G01 X25.6924 Y12.6676
G01 X25.6712 Y12.6454
G01 X25.6083 Y12.5757
G01 X25.5889 Y12.5520
G01 X25.5328 Y12.4768
G01 X25.5152 Y12.4517
G01 X25.5068 Y12.4388
G01 X25.4584 Y12.3584
G01 X25.4433 Y12.3317
G01 X25.4295 Y12.3043
G01 X25.3959 Y12.2334
G01 X25.3895 Y12.2194
G01 X25.3778 Y12.1911
G01 X25.3460 Y12.1028
G01 X25.3364 Y12.0737
G01 X25.3282 Y12.0441
G01 X25.3056 Y11.9530
G01 X25.3024 Y11.9380
G01 X25.2971 Y11.9078
G01 X25.2856 Y11.8301
G01 X25.2819 Y11.7997
G01 X25.2796 Y11.7691
G01 X25.2758 Y11.6907
G01 X25.2750 Y11.6600
G01 X25.2758 Y11.6293
G01 X25.2805 Y11.5356
G01 X25.2836 Y11.5051
G01 X25.2971 Y11.4122
G01 X25.3024 Y11.3820
G01 X25.3091 Y11.3521
G01 X25.3282 Y11.2759
G01 X25.3321 Y11.2611
G01 X25.3410 Y11.2317
G01 X25.3724 Y11.1433
G01 X25.3835 Y11.1147
G01 X25.3959 Y11.0866
G01 X25.4362 Y11.0019
G01 X25.4507 Y10.9748
G01 X25.4584 Y10.9616
G01 X25.4987 Y10.8942
G01 X25.5152 Y10.8683
G01 X25.5328 Y10.8432
G01 X25.5889 Y10.7680
G01 X25.6083 Y10.7443
G01 X25.6712 Y10.6746
G01 X25.6924 Y10.6524
G01 X25.7034 Y10.6417
G01 X25.7728 Y10.5785
G01 X25.7960 Y10.5585
G01 X25.8202 Y10.5396
G01 X25.8957 Y10.4838
G01 X25.9212 Y10.4668
G01 X26.0016 Y10.4184
G01 X26.0283 Y10.4033
G01 X26.0546 Y10.3900
G01 X26.0283 Y10.3767
G01 X26.0148 Y10.3693
G01 X25.9342 Y10.3213
G01 X25.9083 Y10.3048
G01 X25.8832 Y10.2872
G01 X25.8080 Y10.2311
G01 X25.7843 Y10.2117
G01 X25.7728 Y10.2015
G01 X25.7146 Y10.1488
G01 X25.6924 Y10.1276
G01 X25.6712 Y10.1054
G01 X25.6083 Y10.0357
G01 X25.5889 Y10.0120
G01 X25.5328 Y9.9368
G01 X25.5152 Y9.9117
G01 X25.5068 Y9.8988
G01 X25.4584 Y9.8184
G01 X25.4433 Y9.7917
G01 X25.4295 Y9.7643
G01 X25.3959 Y9.6934
G01 X25.3835 Y9.6653
G01 X25.3778 Y9.6511
G01 X25.3460 Y9.5628
G01 X25.3364 Y9.5337
G01 X25.3282 Y9.5041
G01 X25.3056 Y9.4130
G01 X25.3024 Y9.3980
G01 X25.2971 Y9.3678
G01 X25.2856 Y9.2901
G01 X25.2819 Y9.2597
G01 X25.2796 Y9.2291
G01 X25.2758 Y9.1507
G01 X25.2750 Y9.1200
G01 X25.2758 Y9.0893
G01 X25.2805 Y8.9956
G01 X25.2836 Y8.9651
G01 X25.2971 Y8.8722
G01 X25.3024 Y8.8420
G01 X25.3091 Y8.8121
G01 X25.3282 Y8.7359
G01 X25.3321 Y8.7211
G01 X25.3410 Y8.6917
G01 X25.3724 Y8.6033
G01 X25.3835 Y8.5747
G01 X25.3959 Y8.5466
G01 X25.4362 Y8.4619
G01 X25.4433 Y8.4483
G01 X25.4584 Y8.4216
G01 X25.4987 Y8.3542
G01 X25.5152 Y8.3283
G01 X25.5328 Y8.3032
G01 X25.5889 Y8.2280
G01 X25.6083 Y8.2043
G01 X25.6712 Y8.1346
G01 X25.6924 Y8.1124
G01 X25.7034 Y8.1017
G01 X25.7728 Y8.0385
G01 X25.7960 Y8.0185
G01 X25.8202 Y7.9996
G01 X25.8957 Y7.9438
G01 X25.9212 Y7.9268
G01 X26.0016 Y7.8784
G01 X26.0283 Y7.8633
G01 X26.0546 Y7.8500
G01 X26.0283 Y7.8367
G01 X26.0148 Y7.8293
G01 X25.9342 Y7.7813
G01 X25.9083 Y7.7648
G01 X25.8832 Y7.7472
G01 X25.8080 Y7.6911
G01 X25.7843 Y7.6717
G01 X25.7728 Y7.6615
G01 X25.7146 Y7.6088
G01 X25.6924 Y7.5876
G01 X25.6712 Y7.5654
G01 X25.6185 Y7.5072
G01 X25.5985 Y7.4840
G01 X25.5889 Y7.4720
G01 X25.5328 Y7.3968
G01 X25.5152 Y7.3717
G01 X25.4987 Y7.3458
G01 X25.4507 Y7.2652
G01 X25.4433 Y7.2517
G01 X25.4295 Y7.2243
G01 X25.3959 Y7.1534
G01 X25.3835 Y7.1253
G01 X25.3724 Y7.0967
G01 X25.3460 Y7.0228
G01 X25.3364 Y6.9937
G01 X25.3321 Y6.9789
G01 X25.3091 Y6.8879
G01 X25.3024 Y6.8580
G01 X25.2971 Y6.8278
G01 X25.2856 Y6.7501
G01 X25.2819 Y6.7197
G01 X25.2805 Y6.7044
G01 X25.2758 Y6.6107
G01 X25.2750 Y6.5800
G01 X25.2758 Y6.5493
G01 X25.2796 Y6.4709
G01 X25.2819 Y6.4403
G01 X25.2836 Y6.4251
G01 X25.2971 Y6.3322
G01 X25.3024 Y6.3020
G01 X25.3091 Y6.2721
G01 X25.3282 Y6.1959
G01 X25.3364 Y6.1663
G01 X25.3460 Y6.1372
G01 X25.3724 Y6.0633
G01 X25.3835 Y6.0347
G01 X25.3959 Y6.0066
G01 X25.4362 Y5.9219
G01 X25.4507 Y5.8948
G01 X25.4987 Y5.8142
G01 X25.5152 Y5.7883
G01 X25.5328 Y5.7632
G01 X25.5796 Y5.7002
G01 X25.5985 Y5.6760
G01 X25.6185 Y5.6528
G01 X25.6817 Y5.5834
G01 X25.7034 Y5.5617
G01 X25.7728 Y5.4985
G01 X25.7960 Y5.4785
G01 X25.8202 Y5.4596
G01 X25.8957 Y5.4038
G01 X25.9212 Y5.3868
G01 X26.0016 Y5.3384
G01 X26.0283 Y5.3233
G01 X26.0546 Y5.3100
G01 X26.0283 Y5.2967
G01 X26.0148 Y5.2893
G01 X25.9342 Y5.2413
G01 X25.9083 Y5.2248
G01 X25.8832 Y5.2072
G01 X25.8080 Y5.1511
G01 X25.7843 Y5.1317
G01 X25.7728 Y5.1215
G01 X25.7146 Y5.0688
G01 X25.6924 Y5.0476
G01 X25.6712 Y5.0254
G01 X25.6185 Y4.9672
G01 X25.5985 Y4.9440
G01 X25.5889 Y4.9320
G01 X25.5328 Y4.8568
G01 X25.5152 Y4.8317
G01 X25.4987 Y4.8058
G01 X25.4584 Y4.7384
G01 X25.4433 Y4.7117
G01 X25.4295 Y4.6843
G01 X25.3895 Y4.5994
G01 X25.3835 Y4.5853
G01 X25.3724 Y4.5567
G01 X25.3460 Y4.4828
G01 X25.3364 Y4.4537
G01 X25.3282 Y4.4241
G01 X25.3091 Y4.3479
G01 X25.3024 Y4.3180
G01 X25.2996 Y4.3029
G01 X25.2856 Y4.2101
G01 X25.2819 Y4.1797
G01 X25.2796 Y4.1491
G01 X25.2752 Y4.0553
G01 X25.2752 Y4.0247
G01 X25.2758 Y4.0093
G01 X25.2796 Y3.9309
G01 X25.2819 Y3.9003
G01 X25.2856 Y3.8699
G01 X25.2971 Y3.7922
G01 X25.3024 Y3.7620
G01 X25.3091 Y3.7321
G01 X25.3321 Y3.6411
G01 X25.3410 Y3.6117
G01 X25.3460 Y3.5972
G01 X25.3724 Y3.5233
G01 X25.3835 Y3.4947
G01 X25.3959 Y3.4666
G01 X25.4295 Y3.3957
G01 X25.4433 Y3.3683
G01 X25.4584 Y3.3416
G01 X25.4987 Y3.2742
G01 X25.5152 Y3.2483
G01 X25.5328 Y3.2232
G01 X25.5796 Y3.1602
G01 X25.5889 Y3.1480
G01 X25.6083 Y3.1243
G01 X25.6712 Y3.0546
G01 X25.6924 Y3.0324
G01 X25.7146 Y3.0112
G01 X25.7728 Y2.9585
G01 X25.7960 Y2.9385
G01 X25.8202 Y2.9196
G01 X25.8832 Y2.8728
G01 X25.9083 Y2.8552
G01 X25.9342 Y2.8387
G01 X26.0148 Y2.7907
G01 X26.0283 Y2.7833
G01 X26.0546 Y2.7700
G01 X26.0283 Y2.7567
G01 X26.0148 Y2.7493
G01 X25.9342 Y2.7013
G01 X25.9083 Y2.6848
G01 X25.8832 Y2.6672
G01 X25.8202 Y2.6204
G01 X25.7960 Y2.6015
G01 X25.7728 Y2.5815
G01 X25.7146 Y2.5288
G01 X25.6924 Y2.5076
G01 X25.6712 Y2.4854
G01 X25.6083 Y2.4157
G01 X25.5985 Y2.4040
G01 X25.5796 Y2.3798
G01 X25.5328 Y2.3168
G01 X25.5152 Y2.2917
G01 X25.4987 Y2.2658
G01 X25.4584 Y2.1984
G01 X25.4433 Y2.1717
G01 X25.4362 Y2.1581
G01 X25.3959 Y2.0734
G01 X25.3835 Y2.0453
G01 X25.3778 Y2.0311
G01 X25.3460 Y1.9428
G01 X25.3364 Y1.9137
G01 X25.3282 Y1.8841
G01 X25.3091 Y1.8079
G01 X25.3024 Y1.7780
G01 X25.2971 Y1.7478
G01 X25.2856 Y1.6701
G01 X25.2819 Y1.6397
G01 X25.2796 Y1.6091
G01 X25.2752 Y1.5153
G01 X25.2752 Y1.4847
G01 X25.2758 Y1.4693
G01 X25.2796 Y1.3909
G01 X25.2819 Y1.3603
G01 X25.2856 Y1.3299
G01 X25.2971 Y1.2522
G01 X25.3024 Y1.2220
G01 X25.3056 Y1.2070
G01 X25.3282 Y1.1159
G01 X25.3364 Y1.0863
G01 X25.3410 Y1.0717
G01 X25.3724 Y0.9833
G01 X25.3835 Y0.9547
G01 X25.3959 Y0.9266
G01 X25.4295 Y0.8557
G01 X25.4433 Y0.8283
G01 X25.4584 Y0.8016
G01 X25.4987 Y0.7342
G01 X25.5152 Y0.7083
G01 X25.5328 Y0.6832
G01 X25.5796 Y0.6202
G01 X25.5985 Y0.5960
G01 X25.6185 Y0.5728
G01 X25.6712 Y0.5146
G01 X25.6924 Y0.4924
G01 X25.7146 Y0.4712
G01 X25.7843 Y0.4083
G01 X25.7960 Y0.3985
G01 X25.8202 Y0.3796
G01 X25.8832 Y0.3328
G01 X25.9083 Y0.3152
G01 X25.9342 Y0.2987
G01 X26.0016 Y0.2584
G01 X26.0283 Y0.2433
G01 X26.0419 Y0.2362
G01 X26.1266 Y0.1959
G01 X26.1547 Y0.1835
G01 X26.1689 Y0.1778
G01 X26.2572 Y0.1460
G01 X26.2863 Y0.1364
G01 X26.3159 Y0.1282
G01 X26.3921 Y0.1091
G01 X26.4220 Y0.1024
G01 X26.4522 Y0.0971
G01 X26.5299 Y0.0856
G01 X26.5603 Y0.0819
G01 X26.5909 Y0.0796
G01 X26.6693 Y0.0758
G01 X26.7000 Y0.0750
G01 X28.1153 Y0.0752
G01 X28.2091 Y0.0796
G01 X28.2397 Y0.0819
G01 X28.2701 Y0.0856
G01 X28.3629 Y0.0996
G01 X28.3930 Y0.1056
G01 X28.4841 Y0.1282
G01 X28.5137 Y0.1364
G01 X28.5428 Y0.1460
G01 X28.6167 Y0.1724
G01 X28.6453 Y0.1835
G01 X28.6734 Y0.1959
G01 X28.7581 Y0.2362
G01 X28.7852 Y0.2507
G01 X28.8658 Y0.2987
G01 X28.8917 Y0.3152
G01 X28.9043 Y0.3238
G01 X28.9798 Y0.3796
G01 X29.0040 Y0.3985
G01 X29.0272 Y0.4185
G01 X29.0893 Y0.4748
G01 X40.2792 Y0.4748
G01 X40.3567 Y0.3453
G01 X40.3731 Y0.3194
G01 X40.3908 Y0.2943
G01 X40.4785 Y0.1761
G01 X40.4974 Y0.1519
G01 X40.5174 Y0.1287
G01 X40.6162 Y0.0196
G01 X40.6374 Y-0.0026
G01 X40.6596 Y-0.0238
G01 X40.7687 Y-0.1226
G01 X40.7919 Y-0.1426
G01 X40.8161 Y-0.1615
G01 X40.9343 Y-0.2492
G01 X40.9594 Y-0.2669
G01 X40.9853 Y-0.2833
G01 X41.1116 Y-0.3590
G01 X41.1383 Y-0.3741
G01 X41.1657 Y-0.3879
G01 X41.2988 Y-0.4508
G01 X41.3268 Y-0.4632
G01 X41.3554 Y-0.4743
G01 X41.4940 Y-0.5239
G01 X41.5231 Y-0.5335
G01 X41.5527 Y-0.5417
G01 X41.6955 Y-0.5774
G01 X41.7254 Y-0.5842
G01 X41.7557 Y-0.5894
G01 X41.9013 Y-0.6110
G01 X41.9317 Y-0.6148
G01 X41.9623 Y-0.6170
G01 X42.1093 Y-0.6242
G01 X42.1400 Y-0.6250
G01 X42.1553 Y-0.6248
G01 X42.3177 Y-0.6170
G01 X42.3483 Y-0.6148
G01 X42.3787 Y-0.6110
G01 X42.5243 Y-0.5894
G01 X42.5546 Y-0.5842
G01 X42.5845 Y-0.5774
G01 X42.7273 Y-0.5417
G01 X42.7569 Y-0.5335
G01 X42.7860 Y-0.5239
G01 X42.9246 Y-0.4743
G01 X42.9532 Y-0.4632
G01 X42.9812 Y-0.4508
G01 X43.1143 Y-0.3879
G01 X43.1417 Y-0.3741
G01 X43.1552 Y-0.3667
G01 X43.2947 Y-0.2833
G01 X43.3206 Y-0.2669
G01 X43.3457 Y-0.2492
G01 X43.4639 Y-0.1615
G01 X43.4881 Y-0.1426
G01 X43.5113 Y-0.1226
G01 X43.6316 Y-0.0133
G01 X43.6533 Y0.0084
G01 X43.6638 Y0.0196
G01 X43.7626 Y0.1287
G01 X43.7826 Y0.1519
G01 X43.8015 Y0.1761
G01 X43.8892 Y0.2943
G01 X43.9069 Y0.3194
G01 X43.9233 Y0.3453
G01 X43.9990 Y0.4716
G01 X44.0141 Y0.4983
G01 X44.0279 Y0.5257
G01 X44.0908 Y0.6588
G01 X44.1032 Y0.6868
G01 X44.1143 Y0.7154
G01 X44.1639 Y0.8540
G01 X44.1735 Y0.8831
G01 X44.1817 Y0.9127
G01 X44.2174 Y1.0555
G01 X44.2242 Y1.0854
G01 X44.2294 Y1.1157
G01 X44.2510 Y1.2613
G01 X44.2548 Y1.2917
G01 X44.2570 Y1.3223
G01 X44.2642 Y1.4693
G01 X44.2650 Y1.5000
G01 X44.2642 Y1.5307
G01 X44.2570 Y1.6777
G01 X44.2548 Y1.7083
G01 X44.2510 Y1.7387
G01 X44.2294 Y1.8843
G01 X44.2242 Y1.9146
G01 X44.2174 Y1.9445
G01 X44.1817 Y2.0873
G01 X44.1735 Y2.1169
G01 X44.1639 Y2.1460
G01 X44.1143 Y2.2846
G01 X44.1032 Y2.3132
G01 X44.0908 Y2.3412
G01 X44.0279 Y2.4743
G01 X44.0141 Y2.5017
G01 X44.0067 Y2.5152
G01 X43.9233 Y2.6547
G01 X43.9069 Y2.6806
G01 X43.8892 Y2.7057
G01 X43.8015 Y2.8239
G01 X43.7826 Y2.8481
G01 X43.7626 Y2.8713
G01 X43.6638 Y2.9804
G01 X43.6426 Y3.0026
G01 X43.6204 Y3.0238
G01 X43.5113 Y3.1226
G01 X43.4881 Y3.1426
G01 X43.4639 Y3.1615
G01 X43.3457 Y3.2492
G01 X43.3206 Y3.2669
G01 X43.2947 Y3.2833
G01 X43.1684 Y3.3590
G01 X43.1552 Y3.3667
G01 X43.1281 Y3.3811
G01 X42.9812 Y3.4508
G01 X42.9532 Y3.4632
G01 X42.9390 Y3.4689
G01 X42.7715 Y3.5289
G01 X42.7569 Y3.5335
G01 X42.7273 Y3.5417
G01 X42.5845 Y3.5774
G01 X42.5546 Y3.5842
G01 X42.5395 Y3.5870
G01 X42.3787 Y3.6110
G01 X42.3483 Y3.6148
G01 X42.3177 Y3.6170
G01 X42.1707 Y3.6242
G01 X42.1400 Y3.6250
G01 X42.1093 Y3.6242
G01 X41.9623 Y3.6170
G01 X41.9317 Y3.6148
G01 X41.9013 Y3.6110
G01 X41.7557 Y3.5894
G01 X41.7254 Y3.5842
G01 X41.6955 Y3.5774
G01 X41.5527 Y3.5417
G01 X41.5231 Y3.5335
G01 X41.4940 Y3.5239
G01 X41.3554 Y3.4743
G01 X41.3268 Y3.4632
G01 X41.3127 Y3.4572
G01 X41.1657 Y3.3879
G01 X41.1383 Y3.3741
G01 X41.1116 Y3.3590
G01 X40.9853 Y3.2833
G01 X40.9594 Y3.2669
G01 X40.9343 Y3.2492
G01 X40.8039 Y3.1522
G01 X40.7919 Y3.1426
G01 X40.7687 Y3.1226
G01 X40.6596 Y3.0238
G01 X40.6374 Y3.0026
G01 X40.6162 Y2.9804
G01 X40.5174 Y2.8713
G01 X40.4974 Y2.8481
G01 X40.4785 Y2.8239
G01 X40.3908 Y2.7057
G01 X40.3731 Y2.6806
G01 X40.3567 Y2.6547
G01 X40.2792 Y2.5252
G01 X37.4502 Y2.5252
G01 X37.4502 Y2.6145
G01 X37.4884 Y2.6242
G01 X37.5178 Y2.6331
G01 X37.6252 Y2.6716
G01 X37.6536 Y2.6833
G01 X37.6675 Y2.6897
G01 X37.7567 Y2.7321
G01 X37.7837 Y2.7466
G01 X37.8685 Y2.7972
G01 X37.8945 Y2.8136
G01 X37.9195 Y2.8312
G01 X37.9865 Y2.8809
G01 X38.0107 Y2.8998
G01 X38.0340 Y2.9198
G01 X38.1070 Y2.9863
G01 X38.1287 Y3.0080
G01 X38.2053 Y3.0925
G01 X38.2248 Y3.1162
G01 X38.2341 Y3.1285
G01 X38.2838 Y3.1955
G01 X38.3014 Y3.2205
G01 X38.3178 Y3.2465
G01 X38.3607 Y3.3180
G01 X38.3684 Y3.3313
G01 X38.3829 Y3.3583
G01 X38.4253 Y3.4475
G01 X38.4377 Y3.4755
G01 X38.4488 Y3.5042
G01 X38.4769 Y3.5827
G01 X38.4819 Y3.5972
G01 X38.4908 Y3.6266
G01 X38.5149 Y3.7223
G01 X38.5217 Y3.7522
G01 X38.5269 Y3.7825
G01 X38.5391 Y3.8650
G01 X38.5429 Y3.8954
G01 X38.5442 Y3.9107
G01 X38.5492 Y4.0093
G01 X38.5500 Y4.0400
G01 X38.5492 Y4.0707
G01 X38.5442 Y4.1693
G01 X38.5429 Y4.1846
G01 X38.5391 Y4.2150
G01 X38.5269 Y4.2975
G01 X38.5217 Y4.3278
G01 X38.5149 Y4.3577
G01 X38.4908 Y4.4534
G01 X38.4819 Y4.4828
G01 X38.4488 Y4.5758
G01 X38.4377 Y4.6045
G01 X38.4253 Y4.6325
G01 X38.3896 Y4.7079
G01 X38.3758 Y4.7353
G01 X38.3607 Y4.7620
G01 X38.3098 Y4.8466
G01 X38.2927 Y4.8721
G01 X38.2341 Y4.9515
G01 X38.2248 Y4.9638
G01 X38.2053 Y4.9875
G01 X38.1287 Y5.0720
G01 X38.1070 Y5.0937
G01 X38.0747 Y5.1232
G01 X38.1064 Y5.1319
G01 X38.1211 Y5.1365
G01 X38.1499 Y5.1469
G01 X38.1783 Y5.1586
G01 X38.2060 Y5.1717
G01 X38.2196 Y5.1788
G01 X38.2463 Y5.1939
G01 X38.2594 Y5.2020
G01 X38.2849 Y5.2190
G01 X38.3095 Y5.2373
G01 X38.3215 Y5.2469
G01 X38.3332 Y5.2567
G01 X38.3560 Y5.2773
G01 X38.3777 Y5.2990
G01 X38.3881 Y5.3103
G01 X38.4081 Y5.3335
G01 X38.4270 Y5.3577
G01 X38.4360 Y5.3701
G01 X38.4530 Y5.3956
G01 X38.4688 Y5.4219
G01 X38.4762 Y5.4354
G01 X38.4900 Y5.4628
G01 X38.5024 Y5.4908
G01 X38.5081 Y5.5051
G01 X38.5135 Y5.5194
G01 X38.5231 Y5.5486
G01 X38.5313 Y5.5781
G01 X38.5348 Y5.5931
G01 X38.5408 Y5.6231
G01 X38.5432 Y5.6383
G01 X38.5470 Y5.6687
G01 X38.5492 Y5.6993
G01 X38.5498 Y5.7147
G01 X38.5500 Y7.2551
G01 X38.7547 Y7.4598
G01 X40.2792 Y7.4598
G01 X40.3567 Y7.3303
G01 X40.3731 Y7.3044
G01 X40.3908 Y7.2793
G01 X40.4785 Y7.1611
G01 X40.4974 Y7.1369
G01 X40.5174 Y7.1137
G01 X40.6162 Y7.0046
G01 X40.6374 Y6.9824
G01 X40.6596 Y6.9612
G01 X40.7687 Y6.8624
G01 X40.7919 Y6.8424
G01 X40.8161 Y6.8235
G01 X40.9343 Y6.7358
G01 X40.9594 Y6.7181
G01 X40.9853 Y6.7017
G01 X41.1116 Y6.6260
G01 X41.1383 Y6.6109
G01 X41.1657 Y6.5971
G01 X41.2988 Y6.5342
G01 X41.3268 Y6.5218
G01 X41.3554 Y6.5107
G01 X41.4940 Y6.4611
G01 X41.5231 Y6.4515
G01 X41.5527 Y6.4433
G01 X41.6955 Y6.4076
G01 X41.7254 Y6.4008
G01 X41.7557 Y6.3956
G01 X41.9013 Y6.3740
G01 X41.9165 Y6.3719
G01 X41.9470 Y6.3689
G01 X42.1247 Y6.3602
G01 X42.1553 Y6.3602
G01 X42.1707 Y6.3608
G01 X42.3177 Y6.3680
G01 X42.3483 Y6.3702
G01 X42.3787 Y6.3740
G01 X42.5243 Y6.3956
G01 X42.5546 Y6.4008
G01 X42.5845 Y6.4076
G01 X42.7273 Y6.4433
G01 X42.7569 Y6.4515
G01 X42.7860 Y6.4611
G01 X42.9246 Y6.5107
G01 X42.9532 Y6.5218
G01 X42.9812 Y6.5342
G01 X43.1143 Y6.5971
G01 X43.1417 Y6.6109
G01 X43.1684 Y6.6260
G01 X43.2947 Y6.7017
G01 X43.3206 Y6.7181
G01 X43.3457 Y6.7358
G01 X43.4639 Y6.8235
G01 X43.4881 Y6.8424
G01 X43.5113 Y6.8624
G01 X43.6204 Y6.9612
G01 X43.6426 Y6.9824
G01 X43.6638 Y7.0046
G01 X43.7626 Y7.1137
G01 X43.7826 Y7.1369
G01 X43.8015 Y7.1611
G01 X43.8892 Y7.2793
G01 X43.9069 Y7.3044
G01 X43.9233 Y7.3303
G01 X43.9990 Y7.4566
G01 X44.0141 Y7.4833
G01 X44.0279 Y7.5107
G01 X44.0908 Y7.6438
G01 X44.1032 Y7.6718
G01 X44.1143 Y7.7004
G01 X44.1639 Y7.8390
G01 X44.1735 Y7.8681
G01 X44.1817 Y7.8977
G01 X44.2174 Y8.0405
G01 X44.2242 Y8.0704
G01 X44.2294 Y8.1007
G01 X44.2510 Y8.2463
G01 X44.2548 Y8.2767
G01 X44.2570 Y8.3073
G01 X44.2642 Y8.4543
G01 X44.2650 Y8.4850
G01 X44.2642 Y8.5157
G01 X44.2570 Y8.6627
G01 X44.2548 Y8.6933
G01 X44.2510 Y8.7237
G01 X44.2294 Y8.8693
G01 X44.2242 Y8.8996
G01 X44.2174 Y8.9295
G01 X44.1817 Y9.0723
G01 X44.1735 Y9.1019
G01 X44.1689 Y9.1165
G01 X44.1143 Y9.2696
G01 X44.1032 Y9.2982
G01 X44.0908 Y9.3262
G01 X44.0279 Y9.4593
G01 X44.0141 Y9.4867
G01 X43.9990 Y9.5134
G01 X43.9233 Y9.6397
G01 X43.9069 Y9.6656
G01 X43.8892 Y9.6907
G01 X43.8015 Y9.8089
G01 X43.7826 Y9.8331
G01 X43.7626 Y9.8563
G01 X43.6638 Y9.9654
G01 X43.6426 Y9.9876
G01 X43.6204 Y10.0088
G01 X43.4998 Y10.1178
G01 X43.4761 Y10.1372
G01 X43.4639 Y10.1465
G01 X43.3457 Y10.2342
G01 X43.3206 Y10.2519
G01 X43.2947 Y10.2683
G01 X43.1684 Y10.3440
G01 X43.1417 Y10.3591
G01 X43.1143 Y10.3729
G01 X42.9812 Y10.4358
G01 X42.9532 Y10.4482
G01 X42.9246 Y10.4593
G01 X42.7860 Y10.5089
G01 X42.7715 Y10.5139
G01 X42.7421 Y10.5228
G01 X42.5845 Y10.5624
G01 X42.5546 Y10.5692
G01 X42.5243 Y10.5744
G01 X42.3787 Y10.5960
G01 X42.3483 Y10.5998
G01 X42.3177 Y10.6020
G01 X42.1707 Y10.6092
G01 X42.1400 Y10.6100
G01 X42.1093 Y10.6092
G01 X41.9623 Y10.6020
G01 X41.9470 Y10.6011
G01 X41.9165 Y10.5981
G01 X41.7557 Y10.5744
G01 X41.7254 Y10.5692
G01 X41.6955 Y10.5624
G01 X41.5527 Y10.5267
G01 X41.5231 Y10.5185
G01 X41.4940 Y10.5089
G01 X41.3554 Y10.4593
G01 X41.3268 Y10.4482
G01 X41.2988 Y10.4358
G01 X41.1657 Y10.3729
G01 X41.1383 Y10.3591
G01 X41.1116 Y10.3440
G01 X40.9853 Y10.2683
G01 X40.9723 Y10.2602
G01 X40.9468 Y10.2432
G01 X40.8161 Y10.1465
G01 X40.7919 Y10.1276
G01 X40.7687 Y10.1076
G01 X40.6596 Y10.0088
G01 X40.6374 Y9.9876
G01 X40.6162 Y9.9654
G01 X40.5174 Y9.8563
G01 X40.4974 Y9.8331
G01 X40.4785 Y9.8089
G01 X40.3908 Y9.6907
G01 X40.3731 Y9.6656
G01 X40.3567 Y9.6397
G01 X40.2792 Y9.5102
G01 X38.3147 Y9.5100
G01 X38.2601 Y9.5075
G01 X38.2295 Y9.5053
G01 X38.1991 Y9.5015
G01 X38.1451 Y9.4933
G01 X38.1150 Y9.4873
G01 X38.1001 Y9.4838
G01 X38.0471 Y9.4703
G01 X38.0178 Y9.4614
G01 X37.9519 Y9.4379
G01 X37.9236 Y9.4261
G01 X37.8603 Y9.3962
G01 X37.8333 Y9.3817
G01 X37.7733 Y9.3458
G01 X37.7478 Y9.3287
G01 X37.6916 Y9.2871
G01 X37.6679 Y9.2676
G01 X37.6564 Y9.2575
G01 X37.6273 Y9.2311
G01 X37.6051 Y9.2099
G01 X36.4501 Y8.0550
G01 X34.9250 Y8.0550
G01 X34.9097 Y8.0548
G01 X34.8790 Y8.0533
G01 X34.8485 Y8.0503
G01 X34.8181 Y8.0458
G01 X34.8031 Y8.0430
G01 X34.7731 Y8.0363
G01 X34.7436 Y8.0281
G01 X34.7289 Y8.0235
G01 X34.7144 Y8.0185
G01 X34.6858 Y8.0074
G01 X34.6717 Y8.0014
G01 X34.6440 Y7.9883
G01 X34.6169 Y7.9738
G01 X34.5906 Y7.9580
G01 X34.5778 Y7.9497
G01 X34.5527 Y7.9320
G01 X34.5405 Y7.9227
G01 X34.5285 Y7.9131
G01 X34.5053 Y7.8931
G01 X34.4940 Y7.8827
G01 X34.4723 Y7.8610
G01 X34.4517 Y7.8382
G01 X34.4323 Y7.8145
G01 X34.4230 Y7.8023
G01 X34.4053 Y7.7772
G01 X34.3970 Y7.7644
G01 X34.3812 Y7.7381
G01 X34.3738 Y7.7246
G01 X34.3667 Y7.7110
G01 X34.3536 Y7.6833
G01 X34.3476 Y7.6692
G01 X34.3365 Y7.6406
G01 X34.3315 Y7.6261
G01 X34.3251 Y7.6052
G01 X33.8850 Y7.6052
G01 X33.8543 Y7.6044
G01 X33.8151 Y7.6025
G01 X33.7845 Y7.6003
G01 X33.7541 Y7.5965
G01 X33.7152 Y7.5907
G01 X33.6850 Y7.5855
G01 X33.6551 Y7.5788
G01 X33.6021 Y7.5653
G01 X33.5728 Y7.5564
G01 X33.5213 Y7.5382
G01 X33.4927 Y7.5272
G01 X33.4646 Y7.5147
G01 X33.4153 Y7.4912
G01 X33.3883 Y7.4767
G01 X33.3413 Y7.4488
G01 X33.3154 Y7.4324
G01 X33.2903 Y7.4148
G01 X33.2588 Y7.3914
G01 X33.2346 Y7.3725
G01 X33.2114 Y7.3525
G01 X33.1711 Y7.3156
G01 X30.9203 Y5.0652
G01 X29.0893 Y5.0652
G01 X29.0272 Y5.1215
G01 X29.0040 Y5.1415
G01 X28.9798 Y5.1604
G01 X28.9043 Y5.2162
G01 X28.8788 Y5.2332
G01 X28.7984 Y5.2816
G01 X28.7717 Y5.2967
G01 X28.7454 Y5.3100
G01 X28.7717 Y5.3233
G01 X28.7984 Y5.3384
G01 X28.8788 Y5.3868
G01 X28.9043 Y5.4038
G01 X28.9798 Y5.4596
G01 X29.0040 Y5.4785
G01 X29.0272 Y5.4985
G01 X29.0854 Y5.5512
G01 X29.0966 Y5.5617
G01 X29.1183 Y5.5834
G01 X29.1815 Y5.6528
G01 X29.2015 Y5.6760
G01 X29.2204 Y5.7002
G01 X29.2762 Y5.7757
G01 X29.2932 Y5.8012
G01 X29.3013 Y5.8142
G01 X29.3416 Y5.8816
G01 X29.3567 Y5.9083
G01 X29.3705 Y5.9357
G01 X29.4041 Y6.0066
G01 X29.4165 Y6.0347
G01 X29.4222 Y6.0489
G01 X29.4540 Y6.1372
G01 X29.4636 Y6.1663
G01 X29.4718 Y6.1959
G01 X29.4909 Y6.2721
G01 X29.4976 Y6.3020
G01 X29.5029 Y6.3322
G01 X29.5144 Y6.4099
G01 X29.5181 Y6.4403
G01 X29.5195 Y6.4556
G01 X29.5242 Y6.5493
G01 X29.5250 Y6.5800
G01 X29.5242 Y6.6107
G01 X29.5204 Y6.6891
G01 X29.5181 Y6.7197
G01 X29.5144 Y6.7501
G01 X29.5029 Y6.8278
G01 X29.5004 Y6.8429
G01 X29.4944 Y6.8730
G01 X29.4718 Y6.9641
G01 X29.4636 Y6.9937
G01 X29.4540 Y7.0228
G01 X29.4222 Y7.1111
G01 X29.4165 Y7.1253
G01 X29.4041 Y7.1534
G01 X29.3705 Y7.2243
G01 X29.3567 Y7.2517
G01 X29.3416 Y7.2784
G01 X29.3013 Y7.3458
G01 X29.2848 Y7.3717
G01 X29.2762 Y7.3843
G01 X29.2204 Y7.4598
G01 X29.2015 Y7.4840
G01 X29.1815 Y7.5072
G01 X29.1183 Y7.5766
G01 X29.1076 Y7.5876
G01 X29.0854 Y7.6088
G01 X29.0272 Y7.6615
G01 X29.0040 Y7.6815
G01 X28.9798 Y7.7004
G01 X28.9043 Y7.7562
G01 X28.8788 Y7.7732
G01 X28.7984 Y7.8216
G01 X28.7717 Y7.8367
G01 X28.7454 Y7.8500
G01 X28.7717 Y7.8633
G01 X28.7852 Y7.8707
G01 X28.8658 Y7.9187
G01 X28.8917 Y7.9352
G01 X28.9168 Y7.9528
G01 X28.9920 Y8.0089
G01 X29.0157 Y8.0283
G01 X29.0272 Y8.0385
G01 X29.0854 Y8.0912
G01 X29.1076 Y8.1124
G01 X29.1288 Y8.1346
G01 X29.1815 Y8.1928
G01 X29.2015 Y8.2160
G01 X29.2111 Y8.2280
G01 X29.2672 Y8.3032
G01 X29.2848 Y8.3283
G01 X29.3013 Y8.3542
G01 X29.3493 Y8.4348
G01 X29.3567 Y8.4483
G01 X29.3705 Y8.4757
G01 X29.4041 Y8.5466
G01 X29.4165 Y8.5747
G01 X29.4276 Y8.6033
G01 X29.4540 Y8.6772
G01 X29.4590 Y8.6917
G01 X29.4679 Y8.7211
G01 X29.4909 Y8.8121
G01 X29.4976 Y8.8420
G01 X29.5029 Y8.8722
G01 X29.5144 Y8.9499
G01 X29.5181 Y8.9803
G01 X29.5195 Y8.9956
G01 X29.5242 Y9.0893
G01 X29.5250 Y9.1200
G01 X29.5242 Y9.1507
G01 X29.5204 Y9.2291
G01 X29.5181 Y9.2597
G01 X29.5164 Y9.2749
G01 X29.5029 Y9.3678
G01 X29.4976 Y9.3980
G01 X29.4909 Y9.4279
G01 X29.4718 Y9.5041
G01 X29.4636 Y9.5337
G01 X29.4540 Y9.5628
G01 X29.4276 Y9.6367
G01 X29.4165 Y9.6653
G01 X29.4041 Y9.6934
G01 X29.3638 Y9.7781
G01 X29.3493 Y9.8052
G01 X29.3013 Y9.8858
G01 X29.2848 Y9.9117
G01 X29.2672 Y9.9368
G01 X29.2204 Y9.9998
G01 X29.2015 Y10.0240
G01 X29.1815 Y10.0472
G01 X29.1183 Y10.1166
G01 X29.0966 Y10.1383
G01 X29.0272 Y10.2015
G01 X29.0040 Y10.2215
G01 X28.9798 Y10.2404
G01 X28.9043 Y10.2962
G01 X28.8788 Y10.3132
G01 X28.7984 Y10.3616
G01 X28.7717 Y10.3767
G01 X28.7454 Y10.3900
G01 X28.7717 Y10.4033
G01 X28.7852 Y10.4107
G01 X28.8658 Y10.4587
G01 X28.8917 Y10.4752
G01 X28.9168 Y10.4928
G01 X28.9798 Y10.5396
G01 X29.0040 Y10.5585
G01 X29.0272 Y10.5785
G01 X29.0854 Y10.6312
G01 X29.1076 Y10.6524
G01 X29.1288 Y10.6746
G01 X29.1917 Y10.7443
G01 X29.2111 Y10.7680
G01 X29.2204 Y10.7802
G01 X29.2672 Y10.8432
G01 X29.2848 Y10.8683
G01 X29.3013 Y10.8942
G01 X29.3416 Y10.9616
G01 X29.3567 Y10.9883
G01 X29.3638 Y11.0019
G01 X29.4041 Y11.0866
G01 X29.4165 Y11.1147
G01 X29.4222 Y11.1289
G01 X29.4540 Y11.2172
G01 X29.4636 Y11.2463
G01 X29.4718 Y11.2759
G01 X29.4909 Y11.3521
G01 X29.4976 Y11.3820
G01 X29.5029 Y11.4122
G01 X29.5144 Y11.4899
G01 X29.5181 Y11.5203
G01 X29.5204 Y11.5509
G01 X29.5242 Y11.6293
G01 X29.5250 Y11.6600
G01 X29.5242 Y11.6907
G01 X29.5195 Y11.7844
G01 X29.5181 Y11.7997
G01 X29.5144 Y11.8301
G01 X29.5029 Y11.9078
G01 X29.4976 Y11.9380
G01 X29.4909 Y11.9679
G01 X29.4718 Y12.0441
G01 X29.4636 Y12.0737
G01 X29.4540 Y12.1028
G01 X29.4276 Y12.1767
G01 X29.4165 Y12.2053
G01 X29.4041 Y12.2334
G01 X29.3705 Y12.3043
G01 X29.3567 Y12.3317
G01 X29.3416 Y12.3584
G01 X29.2932 Y12.4388
G01 X29.2762 Y12.4643
G01 X29.2672 Y12.4768
G01 X29.2204 Y12.5398
G01 X29.2015 Y12.5640
G01 X29.1815 Y12.5872
G01 X29.1288 Y12.6454
G01 X29.1076 Y12.6676
G01 X29.0854 Y12.6888
G01 X29.0272 Y12.7415
G01 X29.0040 Y12.7615
G01 X28.9798 Y12.7804
G01 X28.9168 Y12.8272
G01 X28.8917 Y12.8448
G01 X28.8658 Y12.8613
G01 X28.7852 Y12.9093
G01 X28.7717 Y12.9167
G01 X28.7454 Y12.9300
G01 X28.7717 Y12.9433
G01 X28.7852 Y12.9507
G01 X28.8658 Y12.9987
G01 X28.8917 Y13.0152
G01 X28.9168 Y13.0328
G01 X28.9798 Y13.0796
G01 X29.0040 Y13.0985
G01 X29.0272 Y13.1185
G01 X29.0854 Y13.1712
G01 X29.1076 Y13.1924
G01 X29.1288 Y13.2146
G01 X29.1815 Y13.2728
G01 X29.2015 Y13.2960
G01 X29.2204 Y13.3202
G01 X29.2672 Y13.3832
G01 X29.2848 Y13.4083
G01 X29.2932 Y13.4212
G01 X29.3416 Y13.5016
G01 X29.3567 Y13.5283
G01 X29.3705 Y13.5557
G01 X29.4041 Y13.6266
G01 X29.4165 Y13.6547
G01 X29.4276 Y13.6833
G01 X29.4540 Y13.7572
G01 X29.4636 Y13.7863
G01 X29.4679 Y13.8011
G01 X29.4909 Y13.8921
G01 X29.4976 Y13.9220
G01 X29.5029 Y13.9522
G01 X29.5144 Y14.0299
G01 X29.5181 Y14.0603
G01 X29.5204 Y14.0909
G01 X29.5242 Y14.1693
G01 X29.5250 Y14.2000
G01 X29.5242 Y14.2307
G01 X29.5195 Y14.3244
G01 X29.5164 Y14.3549
G01 X29.5004 Y14.4629
G01 X29.4944 Y14.4930
G01 X29.4909 Y14.5079
G01 X29.4718 Y14.5841
G01 X29.4636 Y14.6137
G01 X29.4540 Y14.6428
G01 X29.4276 Y14.7167
G01 X29.4165 Y14.7453
G01 X29.4105 Y14.7594
G01 X29.3705 Y14.8443
G01 X29.3567 Y14.8717
G01 X29.3416 Y14.8984
G01 X29.3013 Y14.9658
G01 X29.2848 Y14.9917
G01 X29.2762 Y15.0043
G01 X29.2204 Y15.0798
G01 X29.2015 Y15.1040
G01 X29.1815 Y15.1272
G01 X29.1288 Y15.1854
G01 X29.1183 Y15.1966
G01 X29.0966 Y15.2183
G01 X29.0157 Y15.2917
G01 X29.0040 Y15.3015
G01 X28.9798 Y15.3204
G01 X28.9168 Y15.3672
G01 X28.8917 Y15.3848
G01 X28.8658 Y15.4013
G01 X28.7852 Y15.4493
G01 X28.7717 Y15.4567
G01 X28.7454 Y15.4700
G01 X28.7717 Y15.4833
G01 X28.7984 Y15.4984
G01 X28.8788 Y15.5468
G01 X28.9043 Y15.5638
G01 X28.9798 Y15.6196
G01 X29.0040 Y15.6385
G01 X29.0272 Y15.6585
G01 X29.0966 Y15.7217
G01 X29.1183 Y15.7434
G01 X29.1815 Y15.8128
G01 X29.2015 Y15.8360
G01 X29.2204 Y15.8602
G01 X29.2672 Y15.9232
G01 X29.2848 Y15.9483
G01 X29.3013 Y15.9742
G01 X29.3493 Y16.0548
G01 X29.3638 Y16.0819
G01 X29.4041 Y16.1666
G01 X29.4165 Y16.1947
G01 X29.4276 Y16.2233
G01 X29.4540 Y16.2972
G01 X29.4636 Y16.3263
G01 X29.4718 Y16.3559
G01 X29.4909 Y16.4321
G01 X29.4976 Y16.4620
G01 X29.5029 Y16.4922
G01 X29.5164 Y16.5851
G01 X29.5195 Y16.6156
G01 X29.5204 Y16.6309
G01 X29.5242 Y16.7093
G01 X29.5250 Y16.7400
G01 X29.5242 Y16.7707
G01 X29.5195 Y16.8644
G01 X29.5181 Y16.8797
G01 X29.5144 Y16.9101
G01 X29.5029 Y16.9878
G01 X29.4976 Y17.0180
G01 X29.4909 Y17.0479
G01 X29.4679 Y17.1389
G01 X29.4590 Y17.1683
G01 X29.4540 Y17.1828
G01 X29.4276 Y17.2567
G01 X29.4165 Y17.2853
G01 X29.4041 Y17.3134
G01 X29.3705 Y17.3843
G01 X29.3567 Y17.4117
G01 X29.3493 Y17.4252
G01 X29.3013 Y17.5058
G01 X29.2848 Y17.5317
G01 X29.2672 Y17.5568
G01 X29.2111 Y17.6320
G01 X29.1917 Y17.6557
G01 X29.1815 Y17.6672
G01 X29.1288 Y17.7254
G01 X29.1076 Y17.7476
G01 X29.0854 Y17.7688
G01 X29.0272 Y17.8215
G01 X29.0040 Y17.8415
G01 X28.9920 Y17.8511
G01 X28.9168 Y17.9072
G01 X28.8917 Y17.9248
G01 X28.8658 Y17.9413
G01 X28.7852 Y17.9893
G01 X28.7717 Y17.9967
G01 X28.7454 Y18.0100
G01 X28.7717 Y18.0233
G01 X28.7984 Y18.0384
G01 X28.8788 Y18.0868
G01 X28.9043 Y18.1038
G01 X28.9798 Y18.1596
G01 X29.0040 Y18.1785
G01 X29.0272 Y18.1985
G01 X29.0966 Y18.2617
G01 X29.1183 Y18.2834
G01 X29.1815 Y18.3528
G01 X29.2015 Y18.3760
G01 X29.2204 Y18.4002
G01 X29.2672 Y18.4632
G01 X29.2848 Y18.4883
G01 X29.3013 Y18.5142
G01 X29.3493 Y18.5948
G01 X29.3638 Y18.6219
G01 X29.4041 Y18.7066
G01 X29.4165 Y18.7347
G01 X29.4276 Y18.7633
G01 X29.4540 Y18.8372
G01 X29.4636 Y18.8663
G01 X29.4718 Y18.8959
G01 X29.4944 Y18.9870
G01 X29.5004 Y19.0171
G01 X29.5029 Y19.0322
G01 X29.5164 Y19.1251
G01 X29.5195 Y19.1556
G01 X29.5242 Y19.2493
G01 X29.5250 Y19.2800
G01 X29.5242 Y19.3107
G01 X29.5204 Y19.3891
G01 X29.5181 Y19.4197
G01 X29.5164 Y19.4349
G01 X29.5029 Y19.5278
G01 X29.4976 Y19.5580
G01 X29.4909 Y19.5879
G01 X29.4679 Y19.6789
G01 X29.4590 Y19.7083
G01 X29.4540 Y19.7228
G01 X29.4276 Y19.7967
G01 X29.4165 Y19.8253
G01 X29.4041 Y19.8534
G01 X29.3705 Y19.9243
G01 X29.3567 Y19.9517
G01 X29.3493 Y19.9652
G01 X29.3013 Y20.0458
G01 X29.2848 Y20.0717
G01 X29.2672 Y20.0968
G01 X29.2111 Y20.1720
G01 X29.1917 Y20.1957
G01 X29.1815 Y20.2072
G01 X29.1288 Y20.2654
G01 X29.1076 Y20.2876
G01 X29.0854 Y20.3088
G01 X29.0272 Y20.3615
G01 X29.0040 Y20.3815
G01 X28.9920 Y20.3911
G01 X28.9168 Y20.4472
G01 X28.8917 Y20.4648
G01 X28.8658 Y20.4813
G01 X28.7852 Y20.5293
G01 X28.7717 Y20.5367
G01 X28.7454 Y20.5500
G01 X28.7717 Y20.5633
G01 X28.7984 Y20.5784
G01 X28.8788 Y20.6268
G01 X28.9043 Y20.6438
G01 X28.9798 Y20.6996
G01 X29.0040 Y20.7185
G01 X29.0272 Y20.7385
G01 X29.0893 Y20.7948
G01 X32.8253 Y20.7948
G01 X33.7951 Y19.8251
G01 X33.8173 Y19.8039
G01 X33.8464 Y19.7775
G01 X33.8696 Y19.7575
G01 X33.8938 Y19.7386
G01 X33.9378 Y19.7063
G01 X33.9504 Y19.6976
G01 X33.9763 Y19.6812
G01 X34.0100 Y19.6610
G01 X34.0367 Y19.6459
G01 X34.0641 Y19.6321
G01 X34.1136 Y19.6089
G01 X34.1419 Y19.5971
G01 X34.1933 Y19.5786
G01 X34.2224 Y19.5689
G01 X34.2371 Y19.5647
G01 X34.2901 Y19.5512
G01 X34.3200 Y19.5445
G01 X34.3502 Y19.5393
G01 X34.3891 Y19.5335
G01 X34.4043 Y19.5314
G01 X34.4348 Y19.5284
G01 X34.4893 Y19.5256
G01 X34.5200 Y19.5248
G01 X43.8501 Y19.5248
G01 X43.8565 Y19.5039
G01 X43.8615 Y19.4894
G01 X43.8669 Y19.4751
G01 X43.8786 Y19.4467
G01 X43.8917 Y19.4190
G01 X43.8988 Y19.4054
G01 X43.9139 Y19.3787
G01 X43.9303 Y19.3528
G01 X43.9480 Y19.3277
G01 X43.9573 Y19.3155
G01 X43.9767 Y19.2918
G01 X43.9869 Y19.2803
G01 X43.9973 Y19.2690
G01 X44.0190 Y19.2473
G01 X44.0418 Y19.2267
G01 X44.0535 Y19.2169
G01 X44.0655 Y19.2073
G01 X44.0901 Y19.1890
G01 X44.1156 Y19.1720
G01 X44.1287 Y19.1639
G01 X44.1554 Y19.1488
G01 X44.1828 Y19.1350
G01 X44.2108 Y19.1226
G01 X44.2251 Y19.1169
G01 X44.2539 Y19.1065
G01 X44.2686 Y19.1019
G01 X44.3003 Y19.0932
G01 X44.2680 Y19.0637
G01 X44.2463 Y19.0420
G01 X44.1697 Y18.9575
G01 X44.1502 Y18.9338
G01 X44.1409 Y18.9215
G01 X44.0823 Y18.8421
G01 X44.0736 Y18.8295
G01 X44.0572 Y18.8035
G01 X44.0143 Y18.7320
G01 X43.9992 Y18.7053
G01 X43.9854 Y18.6779
G01 X43.9497 Y18.6025
G01 X43.9373 Y18.5745
G01 X43.9316 Y18.5602
G01 X43.8931 Y18.4528
G01 X43.8885 Y18.4382
G01 X43.8803 Y18.4086
G01 X43.8601 Y18.3277
G01 X43.8533 Y18.2978
G01 X43.8481 Y18.2675
G01 X43.8359 Y18.1850
G01 X43.8338 Y18.1698
G01 X43.8308 Y18.1393
G01 X43.8258 Y18.0407
G01 X43.8250 Y18.0100
G01 X43.8258 Y17.9793
G01 X43.8298 Y17.8960
G01 X43.8321 Y17.8654
G01 X43.8359 Y17.8350
G01 X43.8481 Y17.7525
G01 X43.8533 Y17.7222
G01 X43.8601 Y17.6923
G01 X43.8842 Y17.5966
G01 X43.8885 Y17.5818
G01 X43.8981 Y17.5527
G01 X43.9262 Y17.4742
G01 X43.9373 Y17.4455
G01 X43.9497 Y17.4175
G01 X43.9854 Y17.3421
G01 X43.9992 Y17.3147
G01 X44.0066 Y17.3013
G01 X44.0652 Y17.2034
G01 X44.0823 Y17.1779
G01 X44.0912 Y17.1655
G01 X44.1409 Y17.0985
G01 X44.1598 Y17.0743
G01 X44.1798 Y17.0510
G01 X44.2359 Y16.9892
G01 X44.2570 Y16.9670
G01 X44.2680 Y16.9563
G01 X44.3410 Y16.8898
G01 X44.3643 Y16.8698
G01 X44.3762 Y16.8602
G01 X44.4555 Y16.8012
G01 X44.4805 Y16.7836
G01 X44.5065 Y16.7672
G01 X44.5518 Y16.7400
G01 X44.5065 Y16.7128
G01 X44.4805 Y16.6964
G01 X44.4555 Y16.6788
G01 X44.3762 Y16.6198
G01 X44.3525 Y16.6003
G01 X44.2792 Y16.5341
G01 X44.2570 Y16.5130
G01 X44.2463 Y16.5020
G01 X44.1798 Y16.4290
G01 X44.1598 Y16.4057
G01 X44.1409 Y16.3815
G01 X44.0912 Y16.3145
G01 X44.0736 Y16.2895
G01 X44.0572 Y16.2635
G01 X44.0066 Y16.1787
G01 X43.9921 Y16.1517
G01 X43.9497 Y16.0625
G01 X43.9373 Y16.0345
G01 X43.9262 Y16.0058
G01 X43.8981 Y15.9273
G01 X43.8931 Y15.9128
G01 X43.8842 Y15.8834
G01 X43.8601 Y15.7877
G01 X43.8533 Y15.7578
G01 X43.8481 Y15.7275
G01 X43.8359 Y15.6450
G01 X43.8321 Y15.6146
G01 X43.8298 Y15.5840
G01 X43.8258 Y15.5007
G01 X43.8252 Y15.4853
G01 X43.8252 Y15.4547
G01 X43.8298 Y15.3560
G01 X43.8321 Y15.3254
G01 X43.8359 Y15.2950
G01 X43.8481 Y15.2125
G01 X43.8533 Y15.1822
G01 X43.8601 Y15.1523
G01 X43.8803 Y15.0714
G01 X43.8885 Y15.0418
G01 X43.8931 Y15.0272
G01 X43.9262 Y14.9342
G01 X43.9373 Y14.9055
G01 X43.9497 Y14.8775
G01 X43.9854 Y14.8021
G01 X43.9992 Y14.7747
G01 X44.0143 Y14.7480
G01 X44.0572 Y14.6765
G01 X44.0736 Y14.6505
G01 X44.0912 Y14.6255
G01 X44.1502 Y14.5462
G01 X44.1697 Y14.5225
G01 X44.2359 Y14.4492
G01 X44.2570 Y14.4270
G01 X44.2792 Y14.4059
G01 X44.3410 Y14.3498
G01 X44.3643 Y14.3298
G01 X44.3885 Y14.3109
G01 X44.4679 Y14.2523
G01 X44.4934 Y14.2352
G01 X44.5780 Y14.1843
G01 X44.6047 Y14.1692
G01 X44.6321 Y14.1554
G01 X44.7214 Y14.1133
G01 X44.7498 Y14.1016
G01 X44.7642 Y14.0962
G01 X44.8572 Y14.0631
G01 X44.8866 Y14.0542
G01 X44.9248 Y14.0445
G01 X44.9250 Y12.1597
G01 X44.9275 Y12.1051
G01 X44.9297 Y12.0745
G01 X44.9335 Y12.0441
G01 X44.9417 Y11.9901
G01 X44.9477 Y11.9600
G01 X44.9608 Y11.9070
G01 X44.9689 Y11.8774
G01 X44.9786 Y11.8483
G01 X44.9918 Y11.8113
G01 X45.0028 Y11.7827
G01 X45.0153 Y11.7546
G01 X45.0321 Y11.7191
G01 X45.0459 Y11.6917
G01 X45.0533 Y11.6783
G01 X45.0812 Y11.6313
G01 X45.0976 Y11.6054
G01 X45.1063 Y11.5928
G01 X45.1479 Y11.5366
G01 X45.1674 Y11.5129
G01 X45.2144 Y11.4611
G01 X47.5993 Y9.0759
G01 X47.5626 Y8.9295
G01 X47.5558 Y8.8996
G01 X47.5506 Y8.8693
G01 X47.5290 Y8.7237
G01 X47.5252 Y8.6933
G01 X47.5230 Y8.6627
G01 X47.5158 Y8.5157
G01 X47.5150 Y8.4850
G01 X47.5158 Y8.4543
G01 X47.5230 Y8.3073
G01 X47.5252 Y8.2767
G01 X47.5269 Y8.2615
G01 X47.5506 Y8.1007
G01 X47.5558 Y8.0704
G01 X47.5626 Y8.0405
G01 X47.5983 Y7.8977
G01 X47.6065 Y7.8681
G01 X47.6161 Y7.8390
G01 X47.6657 Y7.7004
G01 X47.6768 Y7.6718
G01 X47.6892 Y7.6438
G01 X47.7521 Y7.5107
G01 X47.7659 Y7.4833
G01 X47.7810 Y7.4566
G01 X47.8567 Y7.3303
G01 X47.8731 Y7.3044
G01 X47.8908 Y7.2793
G01 X47.9878 Y7.1489
G01 X48.0072 Y7.1252
G01 X48.0174 Y7.1137
G01 X48.1162 Y7.0046
G01 X48.1374 Y6.9824
G01 X48.1596 Y6.9612
G01 X48.2687 Y6.8624
G01 X48.2919 Y6.8424
G01 X48.3161 Y6.8235
G01 X48.4343 Y6.7358
G01 X48.4594 Y6.7181
G01 X48.4853 Y6.7017
G01 X48.6148 Y6.6242
G01 X48.6148 Y3.3608
G01 X48.4853 Y3.2833
G01 X48.4594 Y3.2669
G01 X48.4343 Y3.2492
G01 X48.3161 Y3.1615
G01 X48.2919 Y3.1426
G01 X48.2687 Y3.1226
G01 X48.1596 Y3.0238
G01 X48.1374 Y3.0026
G01 X48.1162 Y2.9804
G01 X48.0174 Y2.8713
G01 X48.0072 Y2.8598
G01 X47.9878 Y2.8361
G01 X47.8908 Y2.7057
G01 X47.8731 Y2.6806
G01 X47.8567 Y2.6547
G01 X47.7810 Y2.5284
G01 X47.7659 Y2.5017
G01 X47.7521 Y2.4743
G01 X47.6892 Y2.3412
G01 X47.6768 Y2.3132
G01 X47.6711 Y2.2990
G01 X47.6161 Y2.1460
G01 X47.6065 Y2.1169
G01 X47.5983 Y2.0873
G01 X47.5626 Y1.9445
G01 X47.5558 Y1.9146
G01 X47.5506 Y1.8843
G01 X47.5290 Y1.7387
G01 X47.5252 Y1.7083
G01 X47.5230 Y1.6777
G01 X47.5158 Y1.5307
G01 X47.5152 Y1.5153
G01 X47.5152 Y1.4847
G01 X47.5239 Y1.3070
G01 X47.5269 Y1.2765
G01 X47.5290 Y1.2613
G01 X47.5506 Y1.1157
G01 X47.5530 Y1.1005
G01 X47.5590 Y1.0704
G01 X47.5983 Y0.9127
G01 X47.6065 Y0.8831
G01 X47.6161 Y0.8540
G01 X47.6657 Y0.7154
G01 X47.6768 Y0.6868
G01 X47.6892 Y0.6588
G01 X47.7521 Y0.5257
G01 X47.7659 Y0.4983
G01 X47.7733 Y0.4848
G01 X47.8567 Y0.3453
G01 X47.8731 Y0.3194
G01 X47.8908 Y0.2943
G01 X47.9785 Y0.1761
G01 X47.9974 Y0.1519
G01 X48.0174 Y0.1287
G01 X48.1162 Y0.0196
G01 X48.1374 Y-0.0026
G01 X48.1596 Y-0.0238
G01 X48.2687 Y-0.1226
G01 X48.2919 Y-0.1426
G01 X48.3161 Y-0.1615
G01 X48.4343 Y-0.2492
G01 X48.4594 Y-0.2669
G01 X48.4853 Y-0.2833
G01 X48.6116 Y-0.3590
G01 X48.6383 Y-0.3741
G01 X48.6657 Y-0.3879
G01 X48.7988 Y-0.4508
G01 X48.8268 Y-0.4632
G01 X48.8554 Y-0.4743
G01 X48.9940 Y-0.5239
G01 X49.0231 Y-0.5335
G01 X49.0527 Y-0.5417
G01 X49.1955 Y-0.5774
G01 X49.2254 Y-0.5842
G01 X49.2557 Y-0.5894
G01 X49.4013 Y-0.6110
G01 X49.4317 Y-0.6148
G01 X49.4623 Y-0.6170
G01 X49.6093 Y-0.6242
G01 X49.6400 Y-0.6250
G01 X49.6707 Y-0.6242
G01 X49.8177 Y-0.6170
G01 X49.8483 Y-0.6148
G01 X49.8787 Y-0.6110
G01 X50.0243 Y-0.5894
G01 X50.0546 Y-0.5842
G01 X50.0845 Y-0.5774
G01 X50.2273 Y-0.5417
G01 X50.2569 Y-0.5335
G01 X50.2860 Y-0.5239
G01 X50.4246 Y-0.4743
G01 X50.4532 Y-0.4632
G01 X50.4812 Y-0.4508
G01 X50.6143 Y-0.3879
G01 X50.6417 Y-0.3741
G01 X50.6684 Y-0.3590
G01 X50.7947 Y-0.2833
G01 X50.8206 Y-0.2669
G01 X50.8457 Y-0.2492
G01 X50.9639 Y-0.1615
G01 X50.9881 Y-0.1426
G01 X51.0113 Y-0.1226
G01 X51.1204 Y-0.0238
G01 X51.1426 Y-0.0026
G01 X51.1638 Y0.0196
G01 X51.2626 Y0.1287
G01 X51.2826 Y0.1519
G01 X51.3015 Y0.1761
G01 X51.3892 Y0.2943
G01 X51.4069 Y0.3194
G01 X51.4233 Y0.3453
G01 X51.4990 Y0.4716
G01 X51.5067 Y0.4848
G01 X51.5211 Y0.5119
G01 X51.5908 Y0.6588
G01 X51.6032 Y0.6868
G01 X51.6143 Y0.7154
G01 X51.6639 Y0.8540
G01 X51.6735 Y0.8831
G01 X51.6817 Y0.9127
G01 X51.7174 Y1.0555
G01 X51.7242 Y1.0854
G01 X51.7294 Y1.1157
G01 X51.7510 Y1.2613
G01 X51.7548 Y1.2917
G01 X51.7570 Y1.3223
G01 X51.7642 Y1.4693
G01 X51.7650 Y1.5000
G01 X51.7642 Y1.5307
G01 X51.7570 Y1.6777
G01 X51.7548 Y1.7083
G01 X51.7510 Y1.7387
G01 X51.7294 Y1.8843
G01 X51.7242 Y1.9146
G01 X51.7174 Y1.9445
G01 X51.6817 Y2.0873
G01 X51.6735 Y2.1169
G01 X51.6639 Y2.1460
G01 X51.6143 Y2.2846
G01 X51.6032 Y2.3132
G01 X51.5908 Y2.3412
G01 X51.5279 Y2.4743
G01 X51.5141 Y2.5017
G01 X51.4990 Y2.5284
G01 X51.4233 Y2.6547
G01 X51.4069 Y2.6806
G01 X51.3892 Y2.7057
G01 X51.3015 Y2.8239
G01 X51.2826 Y2.8481
G01 X51.2626 Y2.8713
G01 X51.1638 Y2.9804
G01 X51.1426 Y3.0026
G01 X51.1316 Y3.0133
G01 X50.9998 Y3.1328
G01 X50.9761 Y3.1522
G01 X50.9639 Y3.1615
G01 X50.8457 Y3.2492
G01 X50.8206 Y3.2669
G01 X50.7947 Y3.2833
G01 X50.6652 Y3.3608
G01 X50.6652 Y6.6242
G01 X50.7947 Y6.7017
G01 X50.8206 Y6.7181
G01 X50.8457 Y6.7358
G01 X50.9639 Y6.8235
G01 X50.9881 Y6.8424
G01 X51.0113 Y6.8624
G01 X51.1204 Y6.9612
G01 X51.1426 Y6.9824
G01 X51.1638 Y7.0046
G01 X51.2626 Y7.1137
G01 X51.2728 Y7.1252
G01 X51.2922 Y7.1489
G01 X51.3892 Y7.2793
G01 X51.4069 Y7.3044
G01 X51.4233 Y7.3303
G01 X51.4990 Y7.4566
G01 X51.5141 Y7.4833
G01 X51.5279 Y7.5107
G01 X51.5908 Y7.6438
G01 X51.6032 Y7.6718
G01 X51.6143 Y7.7004
G01 X51.6639 Y7.8390
G01 X51.6735 Y7.8681
G01 X51.6817 Y7.8977
G01 X51.7174 Y8.0405
G01 X51.7242 Y8.0704
G01 X51.7270 Y8.0855
G01 X51.7510 Y8.2463
G01 X51.7548 Y8.2767
G01 X51.7570 Y8.3073
G01 X51.7642 Y8.4543
G01 X51.7650 Y8.4850
G01 X51.7642 Y8.5157
G01 X51.7570 Y8.6627
G01 X51.7548 Y8.6933
G01 X51.7510 Y8.7237
G01 X51.7294 Y8.8693
G01 X51.7242 Y8.8996
G01 X51.7174 Y8.9295
G01 X51.6817 Y9.0723
G01 X51.6735 Y9.1019
G01 X51.6639 Y9.1310
G01 X51.6089 Y9.2840
G01 X51.5972 Y9.3123
G01 X51.5908 Y9.3262
G01 X51.5279 Y9.4593
G01 X51.5141 Y9.4867
G01 X51.4990 Y9.5134
G01 X51.4233 Y9.6397
G01 X51.4069 Y9.6656
G01 X51.3892 Y9.6907
G01 X51.3015 Y9.8089
G01 X51.2826 Y9.8331
G01 X51.2626 Y9.8563
G01 X51.1638 Y9.9654
G01 X51.1533 Y9.9766
G01 X51.1316 Y9.9983
G01 X51.0113 Y10.1076
G01 X50.9881 Y10.1276
G01 X50.9639 Y10.1465
G01 X50.8457 Y10.2342
G01 X50.8206 Y10.2519
G01 X50.7947 Y10.2683
G01 X50.6684 Y10.3440
G01 X50.6417 Y10.3591
G01 X50.6281 Y10.3661
G01 X50.4812 Y10.4358
G01 X50.4532 Y10.4482
G01 X50.4246 Y10.4593
G01 X50.2860 Y10.5089
G01 X50.2569 Y10.5185
G01 X50.2273 Y10.5267
G01 X50.0845 Y10.5624
G01 X50.0546 Y10.5692
G01 X50.0243 Y10.5744
G01 X49.8787 Y10.5960
G01 X49.8483 Y10.5998
G01 X49.8177 Y10.6020
G01 X49.6707 Y10.6092
G01 X49.6400 Y10.6100
G01 X49.6093 Y10.6092
G01 X49.4623 Y10.6020
G01 X49.4317 Y10.5998
G01 X49.4013 Y10.5960
G01 X49.2557 Y10.5744
G01 X49.2254 Y10.5692
G01 X49.2104 Y10.5660
G01 X49.0491 Y10.5257
G01 X46.9752 Y12.5997
G01 X46.9752 Y14.0445
G01 X47.0134 Y14.0542
G01 X47.0428 Y14.0631
G01 X47.1358 Y14.0962
G01 X47.1502 Y14.1016
G01 X47.1786 Y14.1133
G01 X47.2679 Y14.1554
G01 X47.2953 Y14.1692
G01 X47.3220 Y14.1843
G01 X47.4066 Y14.2352
G01 X47.4321 Y14.2523
G01 X47.5115 Y14.3109
G01 X47.5357 Y14.3298
G01 X47.5590 Y14.3498
G01 X47.6208 Y14.4059
G01 X47.6430 Y14.4270
G01 X47.6641 Y14.4492
G01 X47.7303 Y14.5225
G01 X47.7498 Y14.5462
G01 X47.8088 Y14.6255
G01 X47.8264 Y14.6505
G01 X47.8428 Y14.6765
G01 X47.8857 Y14.7480
G01 X47.9008 Y14.7747
G01 X47.9146 Y14.8021
G01 X47.9503 Y14.8775
G01 X47.9627 Y14.9055
G01 X47.9738 Y14.9342
G01 X48.0069 Y15.0272
G01 X48.0158 Y15.0566
G01 X48.0197 Y15.0714
G01 X48.0399 Y15.1523
G01 X48.0467 Y15.1822
G01 X48.0519 Y15.2125
G01 X48.0662 Y15.3102
G01 X48.0692 Y15.3407
G01 X48.0742 Y15.4393
G01 X48.0750 Y15.4700
G01 X48.0742 Y15.5007
G01 X48.0702 Y15.5840
G01 X48.0679 Y15.6146
G01 X48.0641 Y15.6450
G01 X48.0519 Y15.7275
G01 X48.0467 Y15.7578
G01 X48.0399 Y15.7877
G01 X48.0158 Y15.8834
G01 X48.0115 Y15.8982
G01 X48.0019 Y15.9273
G01 X47.9738 Y16.0058
G01 X47.9627 Y16.0345
G01 X47.9503 Y16.0625
G01 X47.9079 Y16.1517
G01 X47.8934 Y16.1787
G01 X47.8428 Y16.2635
G01 X47.8264 Y16.2895
G01 X47.8088 Y16.3145
G01 X47.7591 Y16.3815
G01 X47.7402 Y16.4057
G01 X47.7202 Y16.4290
G01 X47.6537 Y16.5020
G01 X47.6320 Y16.5237
G01 X47.5590 Y16.5902
G01 X47.5357 Y16.6102
G01 X47.5238 Y16.6198
G01 X47.4445 Y16.6788
G01 X47.4195 Y16.6964
G01 X47.3935 Y16.7128
G01 X47.3482 Y16.7400
G01 X47.3935 Y16.7672
G01 X47.4195 Y16.7836
G01 X47.4445 Y16.8012
G01 X47.5238 Y16.8602
G01 X47.5475 Y16.8797
G01 X47.5590 Y16.8898
G01 X47.6320 Y16.9563
G01 X47.6537 Y16.9780
G01 X47.6641 Y16.9892
G01 X47.7202 Y17.0510
G01 X47.7402 Y17.0743
G01 X47.7591 Y17.0985
G01 X47.8177 Y17.1779
G01 X47.8264 Y17.1905
G01 X47.8428 Y17.2165
G01 X47.8857 Y17.2880
G01 X47.9008 Y17.3147
G01 X47.9146 Y17.3421
G01 X47.9503 Y17.4175
G01 X47.9627 Y17.4455
G01 X47.9738 Y17.4742
G01 X48.0019 Y17.5527
G01 X48.0115 Y17.5818
G01 X48.0197 Y17.6114
G01 X48.0435 Y17.7072
G01 X48.0467 Y17.7222
G01 X48.0519 Y17.7525
G01 X48.0641 Y17.8350
G01 X48.0679 Y17.8654
G01 X48.0702 Y17.8960
G01 X48.0742 Y17.9793
G01 X48.0748 Y17.9947
G01 X48.0748 Y18.0253
G01 X48.0692 Y18.1393
G01 X48.0679 Y18.1546
G01 X48.0641 Y18.1850
G01 X48.0519 Y18.2675
G01 X48.0467 Y18.2978
G01 X48.0399 Y18.3277
G01 X48.0197 Y18.4086
G01 X48.0158 Y18.4234
G01 X48.0069 Y18.4528
G01 X47.9738 Y18.5458
G01 X47.9627 Y18.5745
G01 X47.9503 Y18.6025
G01 X47.9146 Y18.6779
G01 X47.9008 Y18.7053
G01 X47.8934 Y18.7187
G01 X47.8348 Y18.8166
G01 X47.8177 Y18.8421
G01 X47.8088 Y18.8545
G01 X47.7498 Y18.9338
G01 X47.7303 Y18.9575
G01 X47.6537 Y19.0420
G01 X47.6320 Y19.0637
G01 X47.5997 Y19.0932
G01 X47.6314 Y19.1019
G01 X47.6606 Y19.1115
G01 X47.6749 Y19.1169
G01 X47.7033 Y19.1286
G01 X47.7172 Y19.1350
G01 X47.7446 Y19.1488
G01 X47.7581 Y19.1562
G01 X47.7844 Y19.1720
G01 X47.7972 Y19.1803
G01 X47.8223 Y19.1980
G01 X47.8345 Y19.2073
G01 X47.8465 Y19.2169
G01 X47.8697 Y19.2369
G01 X47.8810 Y19.2473
G01 X47.9027 Y19.2690
G01 X47.9131 Y19.2803
G01 X47.9331 Y19.3035
G01 X47.9520 Y19.3277
G01 X47.9697 Y19.3528
G01 X47.9780 Y19.3656
G01 X47.9861 Y19.3787
G01 X48.0012 Y19.4054
G01 X48.0150 Y19.4328
G01 X48.0214 Y19.4467
G01 X48.0274 Y19.4608
G01 X48.0385 Y19.4894
G01 X48.0481 Y19.5186
G01 X48.0524 Y19.5333
G01 X48.0563 Y19.5481
G01 X48.0630 Y19.5781
G01 X48.0682 Y19.6083
G01 X48.0720 Y19.6387
G01 X48.0742 Y19.6693
G01 X48.0750 Y19.7000
G01 X48.0750 Y21.4000
G01 X48.0742 Y21.4307
G01 X48.0720 Y21.4613
G01 X48.0682 Y21.4917
G01 X48.0630 Y21.5219
G01 X48.0563 Y21.5519
G01 X48.0481 Y21.5814
G01 X48.0435 Y21.5961
G01 X48.0385 Y21.6106
G01 X48.0274 Y21.6392
G01 X48.0150 Y21.6672
G01 X48.0012 Y21.6946
G01 X47.9938 Y21.7081
G01 X47.9780 Y21.7344
G01 X47.9697 Y21.7472
G01 X47.9520 Y21.7723
G01 X47.9331 Y21.7965
G01 X47.9233 Y21.8082
G01 X47.9027 Y21.8310
G01 X47.8810 Y21.8527
G01 X47.8697 Y21.8631
G01 X47.8465 Y21.8831
G01 X47.8223 Y21.9020
G01 X47.7972 Y21.9197
G01 X47.7713 Y21.9361
G01 X47.7446 Y21.9512
G01 X47.7310 Y21.9583
G01 X47.7033 Y21.9714
G01 X47.6892 Y21.9774
G01 X47.6606 Y21.9885
G01 X47.6314 Y21.9981
G01 X47.6019 Y22.0063
G01 X47.5719 Y22.0130
G01 X47.5417 Y22.0182
G01 X47.5113 Y22.0220
G01 X47.4960 Y22.0233
G01 X47.4807 Y22.0242
G01 X47.4500 Y22.0250
G01 X46.9544 Y22.0250
G01 X46.9488 Y22.0499
G01 X46.9392 Y22.0880
G01 X46.9311 Y22.1176
G01 X46.9214 Y22.1467
G01 X46.9082 Y22.1837
G01 X46.9029 Y22.1981
G01 X46.8911 Y22.2264
G01 X46.8679 Y22.2759
G01 X46.8541 Y22.3033
G01 X46.8390 Y22.3300
G01 X46.8188 Y22.3637
G01 X46.8024 Y22.3896
G01 X46.7937 Y22.4022
G01 X46.7614 Y22.4462
G01 X46.7425 Y22.4704
G01 X46.7225 Y22.4936
G01 X46.6961 Y22.5227
G01 X46.6749 Y22.5449
G01 X44.5295 Y24.6903
G01 X44.5403 Y24.7025
G01 X44.5598 Y24.7262
G01 X44.6277 Y24.8179
G01 X44.6448 Y24.8434
G01 X44.6800 Y24.9018
G01 X44.7152 Y24.8434
G01 X44.7323 Y24.8179
G01 X44.7909 Y24.7385
G01 X44.8002 Y24.7262
G01 X44.8197 Y24.7025
G01 X44.8859 Y24.6292
G01 X44.9070 Y24.6070
G01 X44.9292 Y24.5859
G01 X45.0025 Y24.5197
G01 X45.0262 Y24.5002
G01 X45.1055 Y24.4412
G01 X45.1305 Y24.4236
G01 X45.1565 Y24.4072
G01 X45.2280 Y24.3643
G01 X45.2547 Y24.3492
G01 X45.2821 Y24.3354
G01 X45.3714 Y24.2933
G01 X45.3998 Y24.2816
G01 X45.4927 Y24.2481
G01 X45.5218 Y24.2385
G01 X45.5514 Y24.2303
G01 X45.6323 Y24.2101
G01 X45.6622 Y24.2033
G01 X45.6925 Y24.1981
G01 X45.7750 Y24.1859
G01 X45.8054 Y24.1821
G01 X45.8360 Y24.1798
G01 X45.9193 Y24.1758
G01 X45.9500 Y24.1750
G01 X45.9807 Y24.1758
G01 X46.0640 Y24.1798
G01 X46.0946 Y24.1821
G01 X46.1250 Y24.1859
G01 X46.2227 Y24.2005
G01 X46.2528 Y24.2065
G01 X46.3486 Y24.2303
G01 X46.3782 Y24.2385
G01 X46.4073 Y24.2481
G01 X46.4858 Y24.2762
G01 X46.5145 Y24.2873
G01 X46.5286 Y24.2933
G01 X46.6179 Y24.3354
G01 X46.6453 Y24.3492
G01 X46.6720 Y24.3643
G01 X46.7435 Y24.4072
G01 X46.7695 Y24.4236
G01 X46.7945 Y24.4412
G01 X46.8615 Y24.4909
G01 X46.8738 Y24.5002
G01 X46.8975 Y24.5197
G01 X46.9708 Y24.5859
G01 X46.9930 Y24.6070
G01 X47.0141 Y24.6292
G01 X47.0702 Y24.6910
G01 X47.0902 Y24.7143
G01 X47.1091 Y24.7385
G01 X47.1588 Y24.8055
G01 X47.1764 Y24.8305
G01 X47.1848 Y24.8434
G01 X47.2357 Y24.9280
G01 X47.2508 Y24.9547
G01 X47.2646 Y24.9821
G01 X47.3003 Y25.0575
G01 X47.3127 Y25.0855
G01 X47.3238 Y25.1142
G01 X47.3519 Y25.1927
G01 X47.3569 Y25.2072
G01 X47.3658 Y25.2366
G01 X47.3899 Y25.3323
G01 X47.3967 Y25.3622
G01 X47.4019 Y25.3925
G01 X47.4141 Y25.4750
G01 X47.4179 Y25.5054
G01 X47.4202 Y25.5360
G01 X47.4242 Y25.6193
G01 X47.4250 Y25.6500
G01 X47.4250 Y26.9500
G01 X47.4242 Y26.9807
G01 X47.4192 Y27.0793
G01 X47.4162 Y27.1098
G01 X47.4141 Y27.1250
G01 X47.4019 Y27.2075
G01 X47.3967 Y27.2378
G01 X47.3899 Y27.2677
G01 X47.3658 Y27.3634
G01 X47.3569 Y27.3928
G01 X47.3238 Y27.4858
G01 X47.3127 Y27.5145
G01 X47.3003 Y27.5425
G01 X47.2646 Y27.6179
G01 X47.2508 Y27.6453
G01 X47.2357 Y27.6720
G01 X47.1928 Y27.7435
G01 X47.1764 Y27.7695
G01 X47.1588 Y27.7945
G01 X47.0998 Y27.8738
G01 X47.0803 Y27.8975
G01 X47.0262 Y27.9574
G01 X47.0533 Y27.9686
G01 X47.0672 Y27.9750
G01 X47.0946 Y27.9888
G01 X47.1081 Y27.9962
G01 X47.1344 Y28.0120
G01 X47.1472 Y28.0203
G01 X47.1723 Y28.0380
G01 X47.1845 Y28.0473
G01 X47.1965 Y28.0569
G01 X47.2197 Y28.0769
G01 X47.2419 Y28.0981
G01 X47.2527 Y28.1090
G01 X47.2733 Y28.1318
G01 X47.2927 Y28.1555
G01 X47.3020 Y28.1677
G01 X47.3110 Y28.1801
G01 X47.3280 Y28.2056
G01 X47.3361 Y28.2187
G01 X47.3512 Y28.2454
G01 X47.3583 Y28.2590
G01 X47.3714 Y28.2867
G01 X47.3831 Y28.3151
G01 X47.3885 Y28.3294
G01 X47.3981 Y28.3586
G01 X47.4063 Y28.3881
G01 X47.4098 Y28.4031
G01 X47.4158 Y28.4331
G01 X47.4203 Y28.4635
G01 X47.4220 Y28.4787
G01 X47.4242 Y28.5093
G01 X47.4250 Y28.5400
G01 X47.4250 Y31.5400
G01 X47.4248 Y31.5553
G01 X47.4233 Y31.5860
G01 X47.4203 Y31.6165
G01 X47.4182 Y31.6317
G01 X47.4158 Y31.6469
G01 X47.4098 Y31.6769
G01 X47.4024 Y31.7067
G01 X47.3981 Y31.7214
G01 X47.3935 Y31.7361
G01 X47.3831 Y31.7649
G01 X47.3714 Y31.7933
G01 X47.3650 Y31.8072
G01 X47.3512 Y31.8346
G01 X47.3361 Y31.8613
G01 X47.3197 Y31.8872
G01 X47.3110 Y31.8999
G01 X47.3020 Y31.9123
G01 X47.2831 Y31.9365
G01 X47.2733 Y31.9482
G01 X47.2527 Y31.9710
G01 X47.2310 Y31.9927
G01 X47.2197 Y32.0031
G01 X47.2082 Y32.0133
G01 X47.1845 Y32.0327
G01 X47.1599 Y32.0510
G01 X47.1472 Y32.0597
G01 X47.1213 Y32.0761
G01 X47.1081 Y32.0838
G01 X47.0810 Y32.0983
G01 X47.0672 Y32.1050
G01 X47.0392 Y32.1174
G01 X47.0249 Y32.1231
G01 X46.9961 Y32.1335
G01 X46.9752 Y32.1399
G01 X46.9752 Y34.5200
G01 X46.9744 Y34.5507
G01 X46.9716 Y34.6052
G01 X46.9686 Y34.6357
G01 X46.9607 Y34.6898
G01 X46.9555 Y34.7200
G01 X46.9488 Y34.7499
G01 X46.9353 Y34.8029
G01 X46.9264 Y34.8322
G01 X46.9082 Y34.8837
G01 X46.8972 Y34.9123
G01 X46.8847 Y34.9404
G01 X46.8612 Y34.9897
G01 X46.8467 Y35.0167
G01 X46.8188 Y35.0637
G01 X46.8108 Y35.0767
G01 X46.7937 Y35.1022
G01 X46.7614 Y35.1462
G01 X46.7425 Y35.1704
G01 X46.7225 Y35.1936
G01 X46.6961 Y35.2227
G01 X46.6749 Y35.2449
G01 X46.6527 Y35.2661
G01 X46.6236 Y35.2925
G01 X46.6121 Y35.3026
G01 X46.5884 Y35.3221
G01 X46.5322 Y35.3637
G01 X46.5067 Y35.3808
G01 X46.4937 Y35.3888
G01 X46.4600 Y35.4090
G01 X46.4333 Y35.4241
G01 X46.4059 Y35.4379
G01 X46.3704 Y35.4547
G01 X46.3423 Y35.4672
G01 X46.3281 Y35.4729
G01 X46.2622 Y35.4964
G01 X46.2329 Y35.5053
G01 X46.1650 Y35.5223
G01 X46.1349 Y35.5283
G01 X46.1198 Y35.5307
G01 X46.0809 Y35.5365
G01 X46.0505 Y35.5403
G01 X46.0199 Y35.5425
G01 X45.9807 Y35.5444
G01 X45.9500 Y35.5452
G01 X21.1850 Y35.5452
G01 X21.1543 Y35.5444
G01 X21.1151 Y35.5425
G01 X21.0845 Y35.5403
G01 X21.0541 Y35.5365
G01 X21.0152 Y35.5307
G01 X20.9850 Y35.5255
G01 X20.9551 Y35.5188
G01 X20.9170 Y35.5092
G01 X20.8874 Y35.5011
G01 X20.8583 Y35.4914
G01 X20.8069 Y35.4729
G01 X20.7786 Y35.4611
G01 X20.7153 Y35.4312
G01 X20.6883 Y35.4167
G01 X20.6283 Y35.3808
G01 X20.6028 Y35.3637
G01 X20.5466 Y35.3221
G01 X20.5229 Y35.3026
G01 X20.4823 Y35.2661
G01 X20.4601 Y35.2449
G01 X19.1794 Y33.9639
G01 X19.1324 Y33.9121
G01 X19.1129 Y33.8884
G01 X19.1036 Y33.8762
G01 X19.0802 Y33.8447
G01 X19.0626 Y33.8196
G01 X19.0462 Y33.7937
G01 X19.0183 Y33.7467
G01 X19.0109 Y33.7333
G01 X18.9971 Y33.7059
G01 X18.9803 Y33.6704
G01 X18.9678 Y33.6423
G01 X18.9568 Y33.6137
G01 X18.9386 Y33.5622
G01 X18.9339 Y33.5476
G01 X18.9258 Y33.5180
G01 X18.9162 Y33.4799
G01 X18.9095 Y33.4500
G01 X18.9043 Y33.4198
G01 X18.8964 Y33.3657
G01 X18.8947 Y33.3505
G01 X18.8925 Y33.3199
G01 X18.8906 Y33.2807
G01 X18.8898 Y33.2500
G01 X18.8898 Y27.9597
G01 X13.7753 Y22.8452
G01 X12.8493 Y22.8452
G01 X12.7872 Y22.9015
G01 X12.7640 Y22.9215
G01 X12.7398 Y22.9404
G01 X12.6643 Y22.9962
G01 X12.6388 Y23.0132
G01 X12.5584 Y23.0616
G01 X12.5317 Y23.0767
G01 X12.5054 Y23.0900
G01 X12.5317 Y23.1033
G01 X12.5452 Y23.1107
G01 X12.6258 Y23.1587
G01 X12.6517 Y23.1752
G01 X12.6768 Y23.1928
G01 X12.7520 Y23.2489
G01 X12.7757 Y23.2683
G01 X12.7872 Y23.2785
G01 X12.8454 Y23.3312
G01 X12.8676 Y23.3524
G01 X12.8888 Y23.3746
G01 X12.9517 Y23.4443
G01 X12.9711 Y23.4680
G01 X13.0272 Y23.5432
G01 X13.0448 Y23.5683
G01 X13.0532 Y23.5812
G01 X13.1016 Y23.6616
G01 X13.1167 Y23.6883
G01 X13.1305 Y23.7157
G01 X13.1641 Y23.7866
G01 X13.1705 Y23.8006
G01 X13.1822 Y23.8289
G01 X13.2140 Y23.9172
G01 X13.2236 Y23.9463
G01 X13.2318 Y23.9759
G01 X13.2544 Y24.0670
G01 X13.2604 Y24.0971
G01 X13.2629 Y24.1122
G01 X13.2744 Y24.1899
G01 X13.2781 Y24.2203
G01 X13.2804 Y24.2509
G01 X13.2848 Y24.3447
G01 X13.2848 Y24.3753
G01 X13.2804 Y24.4691
G01 X13.2781 Y24.4997
G01 X13.2744 Y24.5301
G01 X13.2629 Y24.6078
G01 X13.2576 Y24.6380
G01 X13.2509 Y24.6679
G01 X13.2279 Y24.7589
G01 X13.2236 Y24.7737
G01 X13.2140 Y24.8028
G01 X13.1822 Y24.8911
G01 X13.1705 Y24.9194
G01 X13.1305 Y25.0043
G01 X13.1167 Y25.0317
G01 X13.1016 Y25.0584
G01 X13.0613 Y25.1258
G01 X13.0532 Y25.1388
G01 X13.0362 Y25.1643
G01 X12.9804 Y25.2398
G01 X12.9615 Y25.2640
G01 X12.9415 Y25.2872
G01 X12.8783 Y25.3566
G01 X12.8676 Y25.3676
G01 X12.8454 Y25.3888
G01 X12.7872 Y25.4415
G01 X12.7640 Y25.4615
G01 X12.7398 Y25.4804
G01 X12.6643 Y25.5362
G01 X12.6388 Y25.5532
G01 X12.5584 Y25.6016
G01 X12.5317 Y25.6167
G01 X12.5054 Y25.6300
G01 X12.5317 Y25.6433
G01 X12.5452 Y25.6507
G01 X12.6258 Y25.6987
G01 X12.6517 Y25.7152
G01 X12.6768 Y25.7328
G01 X12.7520 Y25.7889
G01 X12.7757 Y25.8083
G01 X12.7872 Y25.8185
G01 X12.8454 Y25.8712
G01 X12.8676 Y25.8924
G01 X12.8888 Y25.9146
G01 X12.9517 Y25.9843
G01 X12.9711 Y26.0080
G01 X13.0272 Y26.0832
G01 X13.0448 Y26.1083
G01 X13.0532 Y26.1212
G01 X13.1016 Y26.2016
G01 X13.1167 Y26.2283
G01 X13.1305 Y26.2557
G01 X13.1641 Y26.3266
G01 X13.1705 Y26.3406
G01 X13.1822 Y26.3689
G01 X13.2140 Y26.4572
G01 X13.2236 Y26.4863
G01 X13.2318 Y26.5159
G01 X13.2544 Y26.6070
G01 X13.2604 Y26.6371
G01 X13.2629 Y26.6522
G01 X13.2744 Y26.7299
G01 X13.2781 Y26.7603
G01 X13.2804 Y26.7909
G01 X13.2848 Y26.8847
G01 X13.2848 Y26.9153
G01 X13.2804 Y27.0091
G01 X13.2781 Y27.0397
G01 X13.2744 Y27.0701
G01 X13.2629 Y27.1478
G01 X13.2576 Y27.1780
G01 X13.2509 Y27.2079
G01 X13.2279 Y27.2989
G01 X13.2236 Y27.3137
G01 X13.2140 Y27.3428
G01 X13.1822 Y27.4311
G01 X13.1705 Y27.4594
G01 X13.1305 Y27.5443
G01 X13.1167 Y27.5717
G01 X13.1016 Y27.5984
G01 X13.0613 Y27.6658
G01 X13.0532 Y27.6788
G01 X13.0362 Y27.7043
G01 X12.9804 Y27.7798
G01 X12.9615 Y27.8040
G01 X12.9415 Y27.8272
G01 X12.8783 Y27.8966
G01 X12.8676 Y27.9076
G01 X12.8454 Y27.9288
G01 X12.7872 Y27.9815
G01 X12.7640 Y28.0015
G01 X12.7398 Y28.0204
G01 X12.6643 Y28.0762
G01 X12.6388 Y28.0932
G01 X12.5584 Y28.1416
G01 X12.5317 Y28.1567
G01 X12.5054 Y28.1700
G01 X12.5317 Y28.1833
G01 X12.5452 Y28.1907
G01 X12.6258 Y28.2387
G01 X12.6517 Y28.2552
G01 X12.6768 Y28.2728
G01 X12.7520 Y28.3289
G01 X12.7757 Y28.3483
G01 X12.7872 Y28.3585
G01 X12.8454 Y28.4112
G01 X12.8676 Y28.4324
G01 X12.8888 Y28.4546
G01 X12.9415 Y28.5128
G01 X12.9615 Y28.5360
G01 X12.9711 Y28.5480
G01 X13.0272 Y28.6232
G01 X13.0448 Y28.6483
G01 X13.0613 Y28.6742
G01 X13.1093 Y28.7548
G01 X13.1238 Y28.7819
G01 X13.1305 Y28.7957
G01 X13.1641 Y28.8666
G01 X13.1765 Y28.8947
G01 X13.1876 Y28.9233
G01 X13.2140 Y28.9972
G01 X13.2190 Y29.0117
G01 X13.2279 Y29.0411
G01 X13.2509 Y29.1321
G01 X13.2576 Y29.1620
G01 X13.2629 Y29.1922
G01 X13.2744 Y29.2699
G01 X13.2781 Y29.3003
G01 X13.2795 Y29.3156
G01 X13.2842 Y29.4093
G01 X13.2850 Y29.4400
G01 X13.2842 Y29.4707
G01 X13.2804 Y29.5491
G01 X13.2795 Y29.5644
G01 X13.2764 Y29.5949
G01 X13.2629 Y29.6878
G01 X13.2576 Y29.7180
G01 X13.2509 Y29.7479
G01 X13.2279 Y29.8389
G01 X13.2236 Y29.8537
G01 X13.2140 Y29.8828
G01 X13.1876 Y29.9567
G01 X13.1765 Y29.9853
G01 X13.1641 Y30.0134
G01 X13.1305 Y30.0843
G01 X13.1167 Y30.1117
G01 X13.1093 Y30.1252
G01 X13.0613 Y30.2058
G01 X13.0448 Y30.2317
G01 X13.0272 Y30.2568
G01 X12.9804 Y30.3198
G01 X12.9615 Y30.3440
G01 X12.9517 Y30.3557
G01 X12.8888 Y30.4254
G01 X12.8676 Y30.4476
G01 X12.8454 Y30.4688
G01 X12.7872 Y30.5215
G01 X12.7640 Y30.5415
G01 X12.7520 Y30.5511
G01 X12.6643 Y30.6162
G01 X12.6388 Y30.6332
G01 X12.6258 Y30.6413
G01 X12.5584 Y30.6816
G01 X12.5317 Y30.6967
G01 X12.5043 Y30.7105
G01 X12.4194 Y30.7505
G01 X12.3911 Y30.7622
G01 X12.3767 Y30.7676
G01 X12.3028 Y30.7940
G01 X12.2737 Y30.8036
G01 X12.2441 Y30.8118
G01 X12.1679 Y30.8309
G01 X12.1380 Y30.8376
G01 X12.1229 Y30.8404
G01 X12.0301 Y30.8544
G01 X11.9997 Y30.8581
G01 X11.9691 Y30.8604
G01 X11.8907 Y30.8642
G01 X11.8600 Y30.8650
G01 X10.4600 Y30.8650
G01 X10.4293 Y30.8642
G01 X10.3509 Y30.8604
G01 X10.3203 Y30.8581
G01 X10.2899 Y30.8544
G01 X10.1971 Y30.8404
G01 X10.1670 Y30.8344
G01 X10.1521 Y30.8309
G01 X10.0759 Y30.8118
G01 X10.0463 Y30.8036
G01 X10.0172 Y30.7940
G01 X9.9289 Y30.7622
G01 X9.9147 Y30.7565
G01 X9.8866 Y30.7441
G01 X9.8157 Y30.7105
G01 X9.7883 Y30.6967
G01 X9.7616 Y30.6816
G01 X9.6942 Y30.6413
G01 X9.6683 Y30.6248
G01 X9.6557 Y30.6162
G01 X9.5802 Y30.5604
G01 X9.5560 Y30.5415
G01 X9.5328 Y30.5215
G01 X9.4634 Y30.4583
G01 X9.4417 Y30.4366
G01 X9.4312 Y30.4254
G01 X9.3785 Y30.3672
G01 X9.3585 Y30.3440
G01 X9.3396 Y30.3198
G01 X9.2928 Y30.2568
G01 X9.2838 Y30.2443
G01 X9.2668 Y30.2188
G01 X9.2184 Y30.1384
G01 X9.2033 Y30.1117
G01 X9.1895 Y30.0843
G01 X9.1559 Y30.0134
G01 X9.1435 Y29.9853
G01 X9.1378 Y29.9711
G01 X9.1060 Y29.8828
G01 X9.0964 Y29.8537
G01 X9.0882 Y29.8241
G01 X9.0691 Y29.7479
G01 X9.0624 Y29.7180
G01 X9.0571 Y29.6878
G01 X9.0456 Y29.6101
G01 X9.0419 Y29.5797
G01 X9.0396 Y29.5491
G01 X9.0358 Y29.4707
G01 X9.0350 Y29.4400
G01 X9.0358 Y29.4093
G01 X9.0396 Y29.3309
G01 X9.0419 Y29.3003
G01 X9.0456 Y29.2699
G01 X9.0571 Y29.1922
G01 X9.0624 Y29.1620
G01 X9.0691 Y29.1321
G01 X9.0882 Y29.0559
G01 X9.0964 Y29.0263
G01 X9.1060 Y28.9972
G01 X9.1378 Y28.9089
G01 X9.1435 Y28.8947
G01 X9.1559 Y28.8666
G01 X9.1895 Y28.7957
G01 X9.2033 Y28.7683
G01 X9.2184 Y28.7416
G01 X9.2668 Y28.6612
G01 X9.2752 Y28.6483
G01 X9.2928 Y28.6232
G01 X9.3489 Y28.5480
G01 X9.3683 Y28.5243
G01 X9.4312 Y28.4546
G01 X9.4524 Y28.4324
G01 X9.4634 Y28.4217
G01 X9.5328 Y28.3585
G01 X9.5560 Y28.3385
G01 X9.5802 Y28.3196
G01 X9.6557 Y28.2638
G01 X9.6812 Y28.2468
G01 X9.7748 Y28.1907
G01 X9.7883 Y28.1833
G01 X9.8146 Y28.1700
G01 X9.7883 Y28.1567
G01 X9.7748 Y28.1493
G01 X9.6942 Y28.1013
G01 X9.6683 Y28.0848
G01 X9.6432 Y28.0672
G01 X9.5802 Y28.0204
G01 X9.5560 Y28.0015
G01 X9.5328 Y27.9815
G01 X9.4746 Y27.9288
G01 X9.4524 Y27.9076
G01 X9.4312 Y27.8854
G01 X9.3785 Y27.8272
G01 X9.3585 Y27.8040
G01 X9.3396 Y27.7798
G01 X9.2928 Y27.7168
G01 X9.2752 Y27.6917
G01 X9.2587 Y27.6658
G01 X9.2107 Y27.5852
G01 X9.1962 Y27.5581
G01 X9.1559 Y27.4734
G01 X9.1435 Y27.4453
G01 X9.1324 Y27.4167
G01 X9.1010 Y27.3283
G01 X9.0921 Y27.2989
G01 X9.0691 Y27.2079
G01 X9.0624 Y27.1780
G01 X9.0571 Y27.1478
G01 X9.0456 Y27.0701
G01 X9.0419 Y27.0397
G01 X9.0396 Y27.0091
G01 X9.0358 Y26.9307
G01 X9.0350 Y26.9000
G01 X9.0358 Y26.8693
G01 X9.0396 Y26.7909
G01 X9.0419 Y26.7603
G01 X9.0456 Y26.7299
G01 X9.0571 Y26.6522
G01 X9.0596 Y26.6371
G01 X9.0656 Y26.6070
G01 X9.0882 Y26.5159
G01 X9.0964 Y26.4863
G01 X9.1060 Y26.4572
G01 X9.1324 Y26.3833
G01 X9.1435 Y26.3547
G01 X9.1559 Y26.3266
G01 X9.1895 Y26.2557
G01 X9.2033 Y26.2283
G01 X9.2184 Y26.2016
G01 X9.2668 Y26.1212
G01 X9.2838 Y26.0957
G01 X9.2928 Y26.0832
G01 X9.3396 Y26.0202
G01 X9.3585 Y25.9960
G01 X9.3785 Y25.9728
G01 X9.4312 Y25.9146
G01 X9.4417 Y25.9034
G01 X9.4634 Y25.8817
G01 X9.5443 Y25.8083
G01 X9.5680 Y25.7889
G01 X9.5802 Y25.7796
G01 X9.6432 Y25.7328
G01 X9.6683 Y25.7152
G01 X9.6942 Y25.6987
G01 X9.7748 Y25.6507
G01 X9.7883 Y25.6433
G01 X9.8146 Y25.6300
G01 X9.7883 Y25.6167
G01 X9.7748 Y25.6093
G01 X9.6942 Y25.5613
G01 X9.6683 Y25.5448
G01 X9.6432 Y25.5272
G01 X9.5802 Y25.4804
G01 X9.5560 Y25.4615
G01 X9.5328 Y25.4415
G01 X9.4746 Y25.3888
G01 X9.4524 Y25.3676
G01 X9.4312 Y25.3454
G01 X9.3785 Y25.2872
G01 X9.3585 Y25.2640
G01 X9.3396 Y25.2398
G01 X9.2928 Y25.1768
G01 X9.2752 Y25.1517
G01 X9.2668 Y25.1388
G01 X9.2184 Y25.0584
G01 X9.2033 Y25.0317
G01 X9.1895 Y25.0043
G01 X9.1559 Y24.9334
G01 X9.1435 Y24.9053
G01 X9.1324 Y24.8767
G01 X9.1060 Y24.8028
G01 X9.0964 Y24.7737
G01 X9.0921 Y24.7589
G01 X9.0691 Y24.6679
G01 X9.0624 Y24.6380
G01 X9.0571 Y24.6078
G01 X9.0456 Y24.5301
G01 X9.0419 Y24.4997
G01 X9.0396 Y24.4691
G01 X9.0358 Y24.3907
G01 X9.0350 Y24.3600
G01 X9.0352 Y24.3447
G01 X9.0396 Y24.2509
G01 X9.0419 Y24.2203
G01 X9.0456 Y24.1899
G01 X9.0596 Y24.0971
G01 X9.0624 Y24.0820
G01 X9.0691 Y24.0521
G01 X9.0882 Y23.9759
G01 X9.0964 Y23.9463
G01 X9.1060 Y23.9172
G01 X9.1324 Y23.8433
G01 X9.1435 Y23.8147
G01 X9.1495 Y23.8006
G01 X9.1895 Y23.7157
G01 X9.2033 Y23.6883
G01 X9.2184 Y23.6616
G01 X9.2587 Y23.5942
G01 X9.2752 Y23.5683
G01 X9.2928 Y23.5432
G01 X9.3489 Y23.4680
G01 X9.3683 Y23.4443
G01 X9.3785 Y23.4328
G01 X9.4312 Y23.3746
G01 X9.4524 Y23.3524
G01 X9.4746 Y23.3312
G01 X9.5328 Y23.2785
G01 X9.5443 Y23.2683
G01 X9.5680 Y23.2489
G01 X9.6432 Y23.1928
G01 X9.6683 Y23.1752
G01 X9.6942 Y23.1587
G01 X9.7748 Y23.1107
G01 X9.7883 Y23.1033
G01 X9.8146 Y23.0900
G01 X9.7883 Y23.0767
G01 X9.7616 Y23.0616
G01 X9.6812 Y23.0132
G01 X9.6557 Y22.9962
G01 X9.5802 Y22.9404
G01 X9.5560 Y22.9215
G01 X9.5328 Y22.9015
G01 X9.4707 Y22.8452
G01 X6.3697 Y22.8452
G01 X3.5132 Y25.7017
G01 X3.5238 Y25.7292
G01 X3.5519 Y25.8077
G01 X3.5615 Y25.8368
G01 X3.5697 Y25.8664
G01 X3.5899 Y25.9473
G01 X3.5967 Y25.9772
G01 X3.6019 Y26.0075
G01 X3.6141 Y26.0900
G01 X3.6179 Y26.1204
G01 X3.6202 Y26.1510
G01 X3.6242 Y26.2343
G01 X3.6248 Y26.2497
G01 X3.6248 Y26.2803
G01 X3.6202 Y26.3790
G01 X3.6179 Y26.4096
G01 X3.6141 Y26.4400
G01 X3.5995 Y26.5377
G01 X3.5935 Y26.5678
G01 X3.5697 Y26.6636
G01 X3.5658 Y26.6784
G01 X3.5569 Y26.7078
G01 X3.5238 Y26.8008
G01 X3.5127 Y26.8295
G01 X3.5003 Y26.8575
G01 X3.4646 Y26.9329
G01 X3.4508 Y26.9603
G01 X3.4357 Y26.9870
G01 X3.3928 Y27.0585
G01 X3.3764 Y27.0845
G01 X3.3588 Y27.1095
G01 X3.2998 Y27.1888
G01 X3.2803 Y27.2125
G01 X3.2702 Y27.2240
G01 X3.2141 Y27.2858
G01 X3.1930 Y27.3080
G01 X3.1708 Y27.3291
G01 X3.0975 Y27.3953
G01 X3.0738 Y27.4148
G01 X3.0615 Y27.4241
G01 X2.9821 Y27.4827
G01 X2.9566 Y27.4998
G01 X2.8982 Y27.5350
G01 X2.9435 Y27.5622
G01 X2.9695 Y27.5786
G01 X2.9945 Y27.5962
G01 X3.0738 Y27.6552
G01 X3.0857 Y27.6648
G01 X3.1090 Y27.6848
G01 X3.1820 Y27.7513
G01 X3.2037 Y27.7730
G01 X3.2141 Y27.7842
G01 X3.2702 Y27.8460
G01 X3.2902 Y27.8693
G01 X3.3091 Y27.8935
G01 X3.3588 Y27.9605
G01 X3.3764 Y27.9855
G01 X3.3848 Y27.9984
G01 X3.4434 Y28.0963
G01 X3.4579 Y28.1233
G01 X3.4646 Y28.1371
G01 X3.5003 Y28.2125
G01 X3.5127 Y28.2405
G01 X3.5238 Y28.2692
G01 X3.5519 Y28.3477
G01 X3.5615 Y28.3768
G01 X3.5658 Y28.3916
G01 X3.5935 Y28.5022
G01 X3.5995 Y28.5323
G01 X3.6019 Y28.5475
G01 X3.6162 Y28.6452
G01 X3.6192 Y28.6757
G01 X3.6202 Y28.6910
G01 X3.6242 Y28.7743
G01 X3.6250 Y28.8050
G01 X3.6242 Y28.8357
G01 X3.6192 Y28.9343
G01 X3.6179 Y28.9496
G01 X3.6141 Y28.9800
G01 X3.6019 Y29.0625
G01 X3.5967 Y29.0928
G01 X3.5899 Y29.1227
G01 X3.5697 Y29.2036
G01 X3.5615 Y29.2332
G01 X3.5569 Y29.2478
G01 X3.5184 Y29.3552
G01 X3.5127 Y29.3695
G01 X3.5003 Y29.3975
G01 X3.4646 Y29.4729
G01 X3.4508 Y29.5003
G01 X3.4357 Y29.5270
G01 X3.3928 Y29.5985
G01 X3.3848 Y29.6116
G01 X3.3677 Y29.6371
G01 X3.3091 Y29.7165
G01 X3.2998 Y29.7288
G01 X3.2803 Y29.7525
G01 X3.2037 Y29.8370
G01 X3.1820 Y29.8587
G01 X3.1497 Y29.8882
G01 X3.1667 Y29.8926
G01 X3.1961 Y29.9015
G01 X3.2106 Y29.9065
G01 X3.2392 Y29.9176
G01 X3.2533 Y29.9236
G01 X3.2810 Y29.9367
G01 X3.2946 Y29.9438
G01 X3.3213 Y29.9589
G01 X3.3472 Y29.9753
G01 X3.3599 Y29.9840
G01 X3.3723 Y29.9930
G01 X3.3965 Y30.0119
G01 X3.4082 Y30.0217
G01 X3.4310 Y30.0423
G01 X3.4419 Y30.0531
G01 X3.4631 Y30.0753
G01 X3.4831 Y30.0985
G01 X3.4927 Y30.1105
G01 X3.5020 Y30.1227
G01 X3.5197 Y30.1478
G01 X3.5280 Y30.1606
G01 X3.5438 Y30.1869
G01 X3.5583 Y30.2140
G01 X3.5650 Y30.2278
G01 X3.5774 Y30.2558
G01 X3.5831 Y30.2701
G01 X3.5935 Y30.2989
G01 X3.5981 Y30.3136
G01 X3.6063 Y30.3431
G01 X3.6130 Y30.3731
G01 X3.6182 Y30.4033
G01 X3.6203 Y30.4185
G01 X3.6233 Y30.4490
G01 X3.6248 Y30.4797
G01 X3.6250 Y30.4950
G01 X3.6250 Y32.1950
G01 X3.6242 Y32.2257
G01 X3.6220 Y32.2563
G01 X3.6203 Y32.2715
G01 X3.6182 Y32.2867
G01 X3.6130 Y32.3169
G01 X3.6063 Y32.3469
G01 X3.5981 Y32.3764
G01 X3.5935 Y32.3911
G01 X3.5831 Y32.4199
G01 X3.5774 Y32.4342
G01 X3.5650 Y32.4622
G01 X3.5583 Y32.4760
G01 X3.5512 Y32.4896
G01 X3.5361 Y32.5163
G01 X3.5197 Y32.5422
G01 X3.5110 Y32.5549
G01 X3.4927 Y32.5795
G01 X3.4733 Y32.6032
G01 X3.4527 Y32.6260
G01 X3.4419 Y32.6369
G01 X3.4197 Y32.6581
G01 X3.3965 Y32.6781
G01 X3.3845 Y32.6877
G01 X3.3599 Y32.7060
G01 X3.3344 Y32.7230
G01 X3.3213 Y32.7311
G01 X3.2946 Y32.7462
G01 X3.2672 Y32.7600
G01 X3.2392 Y32.7724
G01 X3.2106 Y32.7835
G01 X3.1814 Y32.7931
G01 X3.1667 Y32.7974
G01 X3.1369 Y32.8048
G01 X3.1219 Y32.8080
G01 X3.0917 Y32.8132
G01 X3.0613 Y32.8170
G01 X3.0307 Y32.8192
G01 X3.0153 Y32.8198
G01 X0.0000 Y32.8200
G01 X-0.0307 Y32.8192
G01 X-0.0460 Y32.8183
G01 X-0.0765 Y32.8153
G01 X-0.0917 Y32.8132
G01 X-0.1219 Y32.8080
G01 X-0.1519 Y32.8013
G01 X-0.1814 Y32.7931
G01 X-0.2106 Y32.7835
G01 X-0.2249 Y32.7781
G01 X-0.2392 Y32.7724
G01 X-0.2672 Y32.7600
G01 X-0.2810 Y32.7533
G01 X-0.3081 Y32.7388
G01 X-0.3344 Y32.7230
G01 X-0.3599 Y32.7060
G01 X-0.3845 Y32.6877
G01 X-0.3965 Y32.6781
G01 X-0.4197 Y32.6581
G01 X-0.4419 Y32.6369
G01 X-0.4631 Y32.6147
G01 X-0.4831 Y32.5915
G01 X-0.5020 Y32.5673
G01 X-0.5197 Y32.5422
G01 X-0.5361 Y32.5163
G01 X-0.5512 Y32.4896
G01 X-0.5650 Y32.4622
G01 X-0.5774 Y32.4342
G01 X-0.5885 Y32.4056
G01 X-0.5981 Y32.3764
G01 X-0.6063 Y32.3469
G01 X-0.6130 Y32.3169
G01 X-0.6182 Y32.2867
G01 X-0.6220 Y32.2563
G01 X-0.6242 Y32.2257
G01 X-0.6250 Y32.1950
G01 X-0.6250 Y30.4950
G01 X-0.6242 Y30.4643
G01 X-0.6220 Y30.4337
G01 X-0.6203 Y30.4185
G01 X-0.6158 Y30.3881
G01 X-0.6098 Y30.3581
G01 X-0.6063 Y30.3431
G01 X-0.5981 Y30.3136
G01 X-0.5935 Y30.2989
G01 X-0.5831 Y30.2701
G01 X-0.5714 Y30.2417
G01 X-0.5583 Y30.2140
G01 X-0.5512 Y30.2004
G01 X-0.5438 Y30.1869
G01 X-0.5280 Y30.1606
G01 X-0.5197 Y30.1478
G01 X-0.5020 Y30.1227
G01 X-0.4831 Y30.0985
G01 X-0.4733 Y30.0868
G01 X-0.4527 Y30.0640
G01 X-0.4310 Y30.0423
G01 X-0.4197 Y30.0319
G01 X-0.3965 Y30.0119
G01 X-0.3723 Y29.9930
G01 X-0.3599 Y29.9840
G01 X-0.3344 Y29.9670
G01 X-0.3213 Y29.9589
G01 X-0.3081 Y29.9512
G01 X-0.2810 Y29.9367
G01 X-0.2672 Y29.9300
G01 X-0.2392 Y29.9176
G01 X-0.2106 Y29.9065
G01 X-0.1961 Y29.9015
G01 X-0.1667 Y29.8926
G01 X-0.1497 Y29.8882
G01 X-0.1820 Y29.8587
G01 X-0.2037 Y29.8370
G01 X-0.2803 Y29.7525
G01 X-0.2902 Y29.7407
G01 X-0.3091 Y29.7165
G01 X-0.3677 Y29.6371
G01 X-0.3848 Y29.6116
G01 X-0.3928 Y29.5985
G01 X-0.4357 Y29.5270
G01 X-0.4508 Y29.5003
G01 X-0.4646 Y29.4729
G01 X-0.5003 Y29.3975
G01 X-0.5127 Y29.3695
G01 X-0.5184 Y29.3552
G01 X-0.5569 Y29.2478
G01 X-0.5615 Y29.2332
G01 X-0.5697 Y29.2036
G01 X-0.5899 Y29.1227
G01 X-0.5967 Y29.0928
G01 X-0.6019 Y29.0625
G01 X-0.6141 Y28.9800
G01 X-0.6162 Y28.9648
G01 X-0.6192 Y28.9343
G01 X-0.6242 Y28.8357
G01 X-0.6250 Y28.8050
G01 X-0.6242 Y28.7743
G01 X-0.6202 Y28.6910
G01 X-0.6179 Y28.6604
G01 X-0.6141 Y28.6300
G01 X-0.6019 Y28.5475
G01 X-0.5967 Y28.5172
G01 X-0.5899 Y28.4873
G01 X-0.5658 Y28.3916
G01 X-0.5615 Y28.3768
G01 X-0.5519 Y28.3477
G01 X-0.5238 Y28.2692
G01 X-0.5127 Y28.2405
G01 X-0.5003 Y28.2125
G01 X-0.4646 Y28.1371
G01 X-0.4579 Y28.1233
G01 X-0.4434 Y28.0963
G01 X-0.3848 Y27.9984
G01 X-0.3764 Y27.9855
G01 X-0.3588 Y27.9605
G01 X-0.3091 Y27.8935
G01 X-0.2902 Y27.8693
G01 X-0.2702 Y27.8460
G01 X-0.2141 Y27.7842
G01 X-0.2037 Y27.7730
G01 X-0.1820 Y27.7513
G01 X-0.1090 Y27.6848
G01 X-0.0975 Y27.6747
G01 X-0.0738 Y27.6552
G01 X0.0055 Y27.5962
G01 X0.0305 Y27.5786
G01 X0.0565 Y27.5622
G01 X0.1018 Y27.5350
G01 X0.0565 Y27.5078
G01 X0.0305 Y27.4914
G01 X0.0055 Y27.4738
G01 X-0.0738 Y27.4148
G01 X-0.0857 Y27.4052
G01 X-0.1090 Y27.3852
G01 X-0.1820 Y27.3187
G01 X-0.1930 Y27.3080
G01 X-0.2141 Y27.2858
G01 X-0.2702 Y27.2240
G01 X-0.2902 Y27.2007
G01 X-0.3091 Y27.1765
G01 X-0.3677 Y27.0971
G01 X-0.3848 Y27.0716
G01 X-0.3928 Y27.0585
G01 X-0.4357 Y26.9870
G01 X-0.4508 Y26.9603
G01 X-0.4646 Y26.9329
G01 X-0.5003 Y26.8575
G01 X-0.5127 Y26.8295
G01 X-0.5238 Y26.8008
G01 X-0.5519 Y26.7223
G01 X-0.5615 Y26.6932
G01 X-0.5697 Y26.6636
G01 X-0.5899 Y26.5827
G01 X-0.5967 Y26.5528
G01 X-0.5995 Y26.5377
G01 X-0.6141 Y26.4400
G01 X-0.6179 Y26.4096
G01 X-0.6192 Y26.3943
G01 X-0.6248 Y26.2803
G01 X-0.6250 Y26.2650
G01 X-0.6242 Y26.2343
G01 X-0.6202 Y26.1510
G01 X-0.6179 Y26.1204
G01 X-0.6141 Y26.0900
G01 X-0.6019 Y26.0075
G01 X-0.5995 Y25.9923
G01 X-0.5935 Y25.9622
G01 X-0.5697 Y25.8664
G01 X-0.5658 Y25.8516
G01 X-0.5569 Y25.8222
G01 X-0.5238 Y25.7292
G01 X-0.5127 Y25.7005
G01 X-0.5003 Y25.6725
G01 X-0.4646 Y25.5971
G01 X-0.4508 Y25.5697
G01 X-0.4357 Y25.5430
G01 X-0.3928 Y25.4715
G01 X-0.3764 Y25.4455
G01 X-0.3588 Y25.4205
G01 X-0.3091 Y25.3535
G01 X-0.2902 Y25.3293
G01 X-0.2803 Y25.3175
G01 X-0.2141 Y25.2442
G01 X-0.1930 Y25.2220
G01 X-0.1708 Y25.2009
G01 X-0.1090 Y25.1448
G01 X-0.0975 Y25.1347
G01 X-0.0738 Y25.1152
G01 X0.0055 Y25.0562
G01 X0.0305 Y25.0386
G01 X0.0565 Y25.0222
G01 X0.1413 Y24.9716
G01 X0.1547 Y24.9642
G01 X0.1821 Y24.9504
G01 X0.2575 Y24.9147
G01 X0.2855 Y24.9023
G01 X0.3142 Y24.8912
G01 X0.3927 Y24.8631
G01 X0.4218 Y24.8535
G01 X0.4514 Y24.8453
G01 X0.5323 Y24.8251
G01 X0.5622 Y24.8183
G01 X0.5925 Y24.8131
G01 X0.6902 Y24.7988
G01 X0.7207 Y24.7958
G01 X0.7360 Y24.7948
G01 X0.8193 Y24.7908
G01 X0.8500 Y24.7900
G01 X1.5251 Y24.7900
G01 X5.2201 Y21.0951
G01 X5.2423 Y21.0739
G01 X5.2714 Y21.0475
G01 X5.2946 Y21.0275
G01 X5.3188 Y21.0086
G01 X5.3628 Y20.9763
G01 X5.3883 Y20.9592
G01 X5.4483 Y20.9233
G01 X5.4753 Y20.9088
G01 X5.5246 Y20.8853
G01 X5.5527 Y20.8728
G01 X5.5669 Y20.8671
G01 X5.6328 Y20.8436
G01 X5.6621 Y20.8347
G01 X5.7300 Y20.8177
G01 X5.7601 Y20.8117
G01 X5.8293 Y20.8014
G01 X5.8598 Y20.7984
G01 X5.9297 Y20.7950
G01 X9.4707 Y20.7948
G01 X9.5328 Y20.7385
G01 X9.5560 Y20.7185
G01 X9.5802 Y20.6996
G01 X9.6557 Y20.6438
G01 X9.6812 Y20.6268
G01 X9.7616 Y20.5784
G01 X9.7883 Y20.5633
G01 X9.8146 Y20.5500
G01 X9.7883 Y20.5367
G01 X9.7748 Y20.5293
G01 X9.6942 Y20.4813
G01 X9.6683 Y20.4648
G01 X9.6432 Y20.4472
G01 X9.5680 Y20.3911
G01 X9.5443 Y20.3717
G01 X9.5328 Y20.3615
G01 X9.4746 Y20.3088
G01 X9.4524 Y20.2876
G01 X9.4312 Y20.2654
G01 X9.3785 Y20.2072
G01 X9.3585 Y20.1840
G01 X9.3489 Y20.1720
G01 X9.2928 Y20.0968
G01 X9.2752 Y20.0717
G01 X9.2587 Y20.0458
G01 X9.2107 Y19.9652
G01 X9.1962 Y19.9381
G01 X9.1895 Y19.9243
G01 X9.1559 Y19.8534
G01 X9.1435 Y19.8253
G01 X9.1324 Y19.7967
G01 X9.1060 Y19.7228
G01 X9.0964 Y19.6937
G01 X9.0921 Y19.6789
G01 X9.0691 Y19.5879
G01 X9.0624 Y19.5580
G01 X9.0571 Y19.5278
G01 X9.0456 Y19.4501
G01 X9.0419 Y19.4197
G01 X9.0405 Y19.4044
G01 X9.0358 Y19.3107
G01 X9.0350 Y19.2800
G01 X9.0358 Y19.2493
G01 X9.0396 Y19.1709
G01 X9.0405 Y19.1556
G01 X9.0436 Y19.1251
G01 X9.0571 Y19.0322
G01 X9.0624 Y19.0020
G01 X9.0691 Y18.9721
G01 X9.0882 Y18.8959
G01 X9.0964 Y18.8663
G01 X9.1060 Y18.8372
G01 X9.1324 Y18.7633
G01 X9.1435 Y18.7347
G01 X9.1559 Y18.7066
G01 X9.1962 Y18.6219
G01 X9.2107 Y18.5948
G01 X9.2587 Y18.5142
G01 X9.2752 Y18.4883
G01 X9.2928 Y18.4632
G01 X9.3396 Y18.4002
G01 X9.3585 Y18.3760
G01 X9.3785 Y18.3528
G01 X9.4417 Y18.2834
G01 X9.4634 Y18.2617
G01 X9.5328 Y18.1985
G01 X9.5560 Y18.1785
G01 X9.5802 Y18.1596
G01 X9.6557 Y18.1038
G01 X9.6812 Y18.0868
G01 X9.7616 Y18.0384
G01 X9.7883 Y18.0233
G01 X9.8146 Y18.0100
G01 X9.7883 Y17.9967
G01 X9.7748 Y17.9893
G01 X9.6942 Y17.9413
G01 X9.6683 Y17.9248
G01 X9.6432 Y17.9072
G01 X9.5802 Y17.8604
G01 X9.5560 Y17.8415
G01 X9.5443 Y17.8317
G01 X9.4634 Y17.7583
G01 X9.4417 Y17.7366
G01 X9.4312 Y17.7254
G01 X9.3785 Y17.6672
G01 X9.3585 Y17.6440
G01 X9.3396 Y17.6198
G01 X9.2838 Y17.5443
G01 X9.2668 Y17.5188
G01 X9.2587 Y17.5058
G01 X9.2184 Y17.4384
G01 X9.2033 Y17.4117
G01 X9.1895 Y17.3843
G01 X9.1495 Y17.2994
G01 X9.1435 Y17.2853
G01 X9.1324 Y17.2567
G01 X9.1060 Y17.1828
G01 X9.0964 Y17.1537
G01 X9.0882 Y17.1241
G01 X9.0691 Y17.0479
G01 X9.0656 Y17.0330
G01 X9.0596 Y17.0029
G01 X9.0436 Y16.8949
G01 X9.0405 Y16.8644
G01 X9.0358 Y16.7707
G01 X9.0350 Y16.7400
G01 X9.0358 Y16.7093
G01 X9.0396 Y16.6309
G01 X9.0419 Y16.6003
G01 X9.0456 Y16.5699
G01 X9.0571 Y16.4922
G01 X9.0624 Y16.4620
G01 X9.0691 Y16.4321
G01 X9.0921 Y16.3411
G01 X9.0964 Y16.3263
G01 X9.1060 Y16.2972
G01 X9.1324 Y16.2233
G01 X9.1435 Y16.1947
G01 X9.1559 Y16.1666
G01 X9.1895 Y16.0957
G01 X9.2033 Y16.0683
G01 X9.2184 Y16.0416
G01 X9.2668 Y15.9612
G01 X9.2752 Y15.9483
G01 X9.2928 Y15.9232
G01 X9.3396 Y15.8602
G01 X9.3585 Y15.8360
G01 X9.3785 Y15.8128
G01 X9.4312 Y15.7546
G01 X9.4524 Y15.7324
G01 X9.4746 Y15.7112
G01 X9.5328 Y15.6585
G01 X9.5560 Y15.6385
G01 X9.5802 Y15.6196
G01 X9.6432 Y15.5728
G01 X9.6683 Y15.5552
G01 X9.6942 Y15.5387
G01 X9.7748 Y15.4907
G01 X9.7883 Y15.4833
G01 X9.8146 Y15.4700
G01 X9.7883 Y15.4567
G01 X9.7616 Y15.4416
G01 X9.6812 Y15.3932
G01 X9.6557 Y15.3762
G01 X9.5802 Y15.3204
G01 X9.5560 Y15.3015
G01 X9.5328 Y15.2815
G01 X9.4707 Y15.2252
G01 X5.7347 Y15.2252
G01 X4.1757 Y16.7841
G01 X4.2124 Y16.9305
G01 X4.2160 Y16.9454
G01 X4.2220 Y16.9755
G01 X4.2481 Y17.1515
G01 X4.2511 Y17.1820
G01 X4.2520 Y17.1973
G01 X4.2598 Y17.3597
G01 X4.2600 Y17.3750
G01 X4.2592 Y17.4057
G01 X4.2520 Y17.5527
G01 X4.2498 Y17.5833
G01 X4.2460 Y17.6137
G01 X4.2244 Y17.7593
G01 X4.2192 Y17.7896
G01 X4.2124 Y17.8195
G01 X4.1767 Y17.9623
G01 X4.1685 Y17.9919
G01 X4.1589 Y18.0210
G01 X4.1093 Y18.1596
G01 X4.0982 Y18.1882
G01 X4.0858 Y18.2162
G01 X4.0229 Y18.3493
G01 X4.0091 Y18.3767
G01 X3.9940 Y18.4034
G01 X3.9183 Y18.5297
G01 X3.9102 Y18.5427
G01 X3.8932 Y18.5682
G01 X3.7965 Y18.6989
G01 X3.7776 Y18.7231
G01 X3.7576 Y18.7463
G01 X3.6588 Y18.8554
G01 X3.6376 Y18.8776
G01 X3.6154 Y18.8988
G01 X3.5063 Y18.9976
G01 X3.4831 Y19.0176
G01 X3.4589 Y19.0365
G01 X3.3407 Y19.1242
G01 X3.3156 Y19.1419
G01 X3.3027 Y19.1502
G01 X3.1634 Y19.2340
G01 X3.1367 Y19.2491
G01 X3.1093 Y19.2629
G01 X2.9762 Y19.3258
G01 X2.9482 Y19.3382
G01 X2.9196 Y19.3493
G01 X2.7810 Y19.3989
G01 X2.7519 Y19.4085
G01 X2.7223 Y19.4167
G01 X2.5795 Y19.4524
G01 X2.5496 Y19.4592
G01 X2.5193 Y19.4644
G01 X2.3737 Y19.4860
G01 X2.3433 Y19.4898
G01 X2.3127 Y19.4920
G01 X2.1657 Y19.4992
G01 X2.1350 Y19.5000
G01 X2.1043 Y19.4992
G01 X1.9573 Y19.4920
G01 X1.9267 Y19.4898
