(G-CODE GENERATED BY FLATCAM v8.994 - www.flatcam.org - Version Date: 2020/11/7)

(Name: 3018Pendant.drl_cnc)
(Type: G-code from Geometry)
(Units: MM)

(Created on Sunday, 23 January 2022 at 19:29)

(This preprocessor is the default preprocessor used by FlatCAM.)
(It is made to work with MACH3 compatible motion controllers.)


(TOOLS DIAMETER: )
(Tool: 1 -> Dia: 0.8)
(Tool: 2 -> Dia: 1.0)

(FEEDRATE Z: )
(Tool: 1 -> Feedrate: 200.0)
(Tool: 2 -> Feedrate: 200.0)

(FEEDRATE RAPIDS: )
(Tool: 1 -> Feedrate Rapids: 1500)
(Tool: 2 -> Feedrate Rapids: 1500)

(Z_CUT: )
(Tool: 1 -> Z_Cut: -1.8)
(Tool: 2 -> Z_Cut: -1.8)

(Tools Offset: )
(Tool: 1 -> Offset Z: 0.0)
(Tool: 2 -> Offset Z: 0.0)

(Z_MOVE: )
(Tool: 1 -> Z_Move: 2)
(Tool: 2 -> Z_Move: 2)

(Z Toolchange: 5.0 mm)
(X,Y Toolchange: 0.0000, 0.0000 mm)
(Z Start: None mm)
(Z End: 5.0 mm)
(X,Y End: None mm)
(Steps per circle: 64)
(Preprocessor Excellon: Default_no_M6)

(X range:    1.0000 ...   50.0400  mm)
(Y range:    1.0000 ...   31.8450  mm)

(Spindle Speed: 1000 RPM)
G21
G90
G94

G01 F200.00

M5
G00 Z5.0000
T1
G00 X0.0000 Y0.0000                
(MSG, Change to Tool Dia = 0.8000 ||| Total drills for tool T1 = 49)
M0
G00 Z5.0000
        
G01 F200.00
M03 S1000
G4 P1
G00 X49.6400 Y8.4850
G01 Z-1.8000
G01 Z0
G00 Z2.0000
G00 X49.6400 Y1.5000
G01 Z-1.8000
G01 Z0
G00 Z2.0000
G00 X42.1400 Y1.5000
G01 Z-1.8000
G01 Z0
G00 Z2.0000
G00 X36.4250 Y4.0400
G01 Z-1.8000
G01 Z0
G00 Z2.0000
G00 X36.4250 Y6.5800
G01 Z-1.8000
G01 Z0
G00 Z2.0000
G00 X26.9000 Y4.0400
G01 Z-1.8000
G01 Z0
G00 Z2.0000
G00 X26.9000 Y1.5000
G01 Z-1.8000
G01 Z0
G00 Z2.0000
G00 X11.6600 Y1.5000
G01 Z-1.8000
G01 Z0
G00 Z2.0000
G00 X2.7700 Y1.5000
G01 Z-1.8000
G01 Z0
G00 Z2.0000
G00 X2.7700 Y4.0400
G01 Z-1.8000
G01 Z0
G00 Z2.0000
G00 X2.7700 Y6.5800
G01 Z-1.8000
G01 Z0
G00 Z2.0000
G00 X2.1350 Y12.2950
G01 Z-1.8000
G01 Z0
G00 Z2.0000
G00 X2.1350 Y17.3750
G01 Z-1.8000
G01 Z0
G00 Z2.0000
G00 X1.5000 Y26.2650
G01 Z-1.8000
G01 Z0
G00 Z2.0000
G00 X1.5000 Y28.8050
G01 Z-1.8000
G01 Z0
G00 Z2.0000
G00 X1.5000 Y31.3450
G01 Z-1.8000
G01 Z0
G00 Z2.0000
G00 X11.6600 Y29.4400
G01 Z-1.8000
G01 Z0
G00 Z2.0000
G00 X11.6600 Y26.9000
G01 Z-1.8000
G01 Z0
G00 Z2.0000
G00 X11.6600 Y24.3600
G01 Z-1.8000
G01 Z0
G00 Z2.0000
G00 X11.6600 Y21.8200
G01 Z-1.8000
G01 Z0
G00 Z2.0000
G00 X11.6600 Y19.2800
G01 Z-1.8000
G01 Z0
G00 Z2.0000
G00 X11.6600 Y16.7400
G01 Z-1.8000
G01 Z0
G00 Z2.0000
G00 X11.6600 Y14.2000
G01 Z-1.8000
G01 Z0
G00 Z2.0000
G00 X11.6600 Y11.6600
G01 Z-1.8000
G01 Z0
G00 Z2.0000
G00 X11.6600 Y9.1200
G01 Z-1.8000
G01 Z0
G00 Z2.0000
G00 X11.6600 Y6.5800
G01 Z-1.8000
G01 Z0
G00 Z2.0000
G00 X11.6600 Y4.0400
G01 Z-1.8000
G01 Z0
G00 Z2.0000
G00 X26.9000 Y6.5800
G01 Z-1.8000
G01 Z0
G00 Z2.0000
G00 X26.9000 Y9.1200
G01 Z-1.8000
G01 Z0
G00 Z2.0000
G00 X26.9000 Y11.6600
G01 Z-1.8000
G01 Z0
G00 Z2.0000
G00 X26.9000 Y14.2000
G01 Z-1.8000
G01 Z0
G00 Z2.0000
G00 X26.9000 Y16.7400
G01 Z-1.8000
G01 Z0
G00 Z2.0000
G00 X26.9000 Y19.2800
G01 Z-1.8000
G01 Z0
G00 Z2.0000
G00 X26.9000 Y21.8200
G01 Z-1.8000
G01 Z0
G00 Z2.0000
G00 X26.9000 Y24.3600
G01 Z-1.8000
G01 Z0
G00 Z2.0000
G00 X26.9000 Y26.9000
G01 Z-1.8000
G01 Z0
G00 Z2.0000
G00 X26.9000 Y29.4400
G01 Z-1.8000
G01 Z0
G00 Z2.0000
G00 X38.3300 Y29.4400
G01 Z-1.8000
G01 Z0
G00 Z2.0000
G00 X38.3300 Y26.9000
G01 Z-1.8000
G01 Z0
G00 Z2.0000
G00 X40.8700 Y26.9000
G01 Z-1.8000
G01 Z0
G00 Z2.0000
G00 X40.8700 Y29.4400
G01 Z-1.8000
G01 Z0
G00 Z2.0000
G00 X43.4100 Y29.4400
G01 Z-1.8000
G01 Z0
G00 Z2.0000
G00 X45.9500 Y29.4400
G01 Z-1.8000
G01 Z0
G00 Z2.0000
G00 X45.9500 Y26.9000
G01 Z-1.8000
G01 Z0
G00 Z2.0000
G00 X43.4100 Y26.9000
G01 Z-1.8000
G01 Z0
G00 Z2.0000
G00 X45.9500 Y20.5500
G01 Z-1.8000
G01 Z0
G00 Z2.0000
G00 X45.9500 Y18.0100
G01 Z-1.8000
G01 Z0
G00 Z2.0000
G00 X45.9500 Y15.4700
G01 Z-1.8000
G01 Z0
G00 Z2.0000
G00 X42.1400 Y8.4850
G01 Z-1.8000
G01 Z0
G00 Z2.0000
M05
G00 Z5.00


