(G-CODE GENERATED BY FLATCAM v8.994 - www.flatcam.org - Version Date: 2020/11/7)

(Name: 3018Pendant.drl_cnc)
(Type: G-code from Geometry)
(Units: MM)

(Created on Thursday, 27 January 2022 at 18:08)

(This preprocessor is the default preprocessor used by FlatCAM.)
(It is made to work with MACH3 compatible motion controllers.)


(TOOLS DIAMETER: )
(Tool: 1 -> Dia: 0.7)
(Tool: 2 -> Dia: 0.8)
(Tool: 3 -> Dia: 0.9)
(Tool: 4 -> Dia: 1.0)

(FEEDRATE Z: )
(Tool: 1 -> Feedrate: 200.0)
(Tool: 2 -> Feedrate: 200.0)
(Tool: 3 -> Feedrate: 200.0)
(Tool: 4 -> Feedrate: 200.0)

(FEEDRATE RAPIDS: )
(Tool: 1 -> Feedrate Rapids: 1500)
(Tool: 2 -> Feedrate Rapids: 1500)
(Tool: 3 -> Feedrate Rapids: 1500)
(Tool: 4 -> Feedrate Rapids: 1500)

(Z_CUT: )
(Tool: 1 -> Z_Cut: -1.8)
(Tool: 2 -> Z_Cut: -1.8)
(Tool: 3 -> Z_Cut: -1.8)
(Tool: 4 -> Z_Cut: -1.8)

(Tools Offset: )
(Tool: 1 -> Offset Z: 0.0)
(Tool: 2 -> Offset Z: 0.0)
(Tool: 3 -> Offset Z: 0.0)
(Tool: 4 -> Offset Z: 0.0)

(Z_MOVE: )
(Tool: 1 -> Z_Move: 2)
(Tool: 2 -> Z_Move: 2)
(Tool: 3 -> Z_Move: 2)
(Tool: 4 -> Z_Move: 2)

(Z Toolchange: 5.0 mm)
(X,Y Toolchange: 0.0000, 0.0000 mm)
(Z Start: None mm)
(Z End: 5.0 mm)
(X,Y End: None mm)
(Steps per circle: 64)
(Preprocessor Excellon: Default_no_M6)

(X range:    5.2900 ...   58.9450  mm)
(Y range:    7.8250 ...   39.3050  mm)

(Spindle Speed: 1000 RPM)
G21
G90
G94

G01 F200.00

M5
G00 Z5.0000
T1
G00 X0.0000 Y0.0000                
(MSG, Change to Tool Dia = 0.7000 ||| Total drills for tool T1 = 58)
M0
G00 Z5.0000
        
G01 F200.00
M03 S1000
G4 P1
G00 X45.7450 Y29.2800
G01 Z-1.8000
G01 Z0
G00 Z2.0000
G00 X49.5550 Y36.2650
G01 Z-1.8000
G01 Z0
G00 Z2.0000
G00 X52.0950 Y36.2650
G01 Z-1.8000
G01 Z0
G00 Z2.0000
G00 X54.6350 Y36.2650
G01 Z-1.8000
G01 Z0
G00 Z2.0000
G00 X54.6350 Y38.8050
G01 Z-1.8000
G01 Z0
G00 Z2.0000
G00 X52.0950 Y38.8050
G01 Z-1.8000
G01 Z0
G00 Z2.0000
G00 X49.5550 Y38.8050
G01 Z-1.8000
G01 Z0
G00 Z2.0000
G00 X47.0150 Y38.8050
G01 Z-1.8000
G01 Z0
G00 Z2.0000
G00 X47.0150 Y36.2650
G01 Z-1.8000
G01 Z0
G00 Z2.0000
G00 X35.5850 Y36.2650
G01 Z-1.8000
G01 Z0
G00 Z2.0000
G00 X20.3450 Y33.7250
G01 Z-1.8000
G01 Z0
G00 Z2.0000
G00 X20.3450 Y36.2650
G01 Z-1.8000
G01 Z0
G00 Z2.0000
G00 X10.1850 Y38.1700
G01 Z-1.8000
G01 Z0
G00 Z2.0000
G00 X10.1850 Y35.6300
G01 Z-1.8000
G01 Z0
G00 Z2.0000
G00 X10.1850 Y33.0900
G01 Z-1.8000
G01 Z0
G00 Z2.0000
G00 X10.8200 Y28.0100
G01 Z-1.8000
G01 Z0
G00 Z2.0000
G00 X10.8200 Y24.2000
G01 Z-1.8000
G01 Z0
G00 Z2.0000
G00 X5.7400 Y28.0100
G01 Z-1.8000
G01 Z0
G00 Z2.0000
G00 X5.7400 Y23.5650
G01 Z-1.8000
G01 Z0
G00 Z2.0000
G00 X5.7400 Y21.0250
G01 Z-1.8000
G01 Z0
G00 Z2.0000
G00 X10.8200 Y19.1200
G01 Z-1.8000
G01 Z0
G00 Z2.0000
G00 X11.4550 Y13.4050
G01 Z-1.8000
G01 Z0
G00 Z2.0000
G00 X11.4550 Y10.8650
G01 Z-1.8000
G01 Z0
G00 Z2.0000
G00 X11.4550 Y8.3250
G01 Z-1.8000
G01 Z0
G00 Z2.0000
G00 X20.3450 Y8.3250
G01 Z-1.8000
G01 Z0
G00 Z2.0000
G00 X20.3450 Y10.8650
G01 Z-1.8000
G01 Z0
G00 Z2.0000
G00 X20.3450 Y13.4050
G01 Z-1.8000
G01 Z0
G00 Z2.0000
G00 X20.3450 Y15.9450
G01 Z-1.8000
G01 Z0
G00 Z2.0000
G00 X20.3450 Y18.4850
G01 Z-1.8000
G01 Z0
G00 Z2.0000
G00 X20.3450 Y21.0250
G01 Z-1.8000
G01 Z0
G00 Z2.0000
G00 X20.3450 Y23.5650
G01 Z-1.8000
G01 Z0
G00 Z2.0000
G00 X20.3450 Y26.1050
G01 Z-1.8000
G01 Z0
G00 Z2.0000
G00 X20.3450 Y28.6450
G01 Z-1.8000
G01 Z0
G00 Z2.0000
G00 X20.3450 Y31.1850
G01 Z-1.8000
G01 Z0
G00 Z2.0000
G00 X35.5850 Y33.7250
G01 Z-1.8000
G01 Z0
G00 Z2.0000
G00 X35.5850 Y31.1850
G01 Z-1.8000
G01 Z0
G00 Z2.0000
G00 X35.5850 Y28.6450
G01 Z-1.8000
G01 Z0
G00 Z2.0000
G00 X35.5850 Y26.1050
G01 Z-1.8000
G01 Z0
G00 Z2.0000
G00 X35.5850 Y23.5650
G01 Z-1.8000
G01 Z0
G00 Z2.0000
G00 X35.5850 Y21.0250
G01 Z-1.8000
G01 Z0
G00 Z2.0000
G00 X35.5850 Y18.4850
G01 Z-1.8000
G01 Z0
G00 Z2.0000
G00 X35.5850 Y15.9450
G01 Z-1.8000
G01 Z0
G00 Z2.0000
G00 X35.5850 Y13.4050
G01 Z-1.8000
G01 Z0
G00 Z2.0000
G00 X35.5850 Y10.8650
G01 Z-1.8000
G01 Z0
G00 Z2.0000
G00 X35.5850 Y8.3250
G01 Z-1.8000
G01 Z0
G00 Z2.0000
G00 X45.1100 Y10.8650
G01 Z-1.8000
G01 Z0
G00 Z2.0000
G00 X45.1100 Y13.4050
G01 Z-1.8000
G01 Z0
G00 Z2.0000
G00 X50.8250 Y15.3100
G01 Z-1.8000
G01 Z0
G00 Z2.0000
G00 X50.8250 Y8.3250
G01 Z-1.8000
G01 Z0
G00 Z2.0000
G00 X58.3250 Y8.3250
G01 Z-1.8000
G01 Z0
G00 Z2.0000
G00 X58.3250 Y15.3100
G01 Z-1.8000
G01 Z0
G00 Z2.0000
G00 X58.4450 Y22.2950
G01 Z-1.8000
G01 Z0
G00 Z2.0000
G00 X58.4450 Y24.8350
G01 Z-1.8000
G01 Z0
G00 Z2.0000
G00 X58.4450 Y27.3750
G01 Z-1.8000
G01 Z0
G00 Z2.0000
G00 X51.4600 Y23.5650
G01 Z-1.8000
G01 Z0
G00 Z2.0000
G00 X45.7450 Y24.2000
G01 Z-1.8000
G01 Z0
G00 Z2.0000
G00 X41.3000 Y24.2000
G01 Z-1.8000
G01 Z0
G00 Z2.0000
G00 X41.3000 Y29.2800
G01 Z-1.8000
G01 Z0
G00 Z2.0000
M05
G00 Z5.00


