(G-CODE GENERATED BY FLATCAM v8.994 - www.flatcam.org - Version Date: 2020/11/7)

(Name: 3018Pendant-B_Cu.gbr_cutout_cnc)
(Type: G-code from Geometry)
(Units: MM)

(Created on Sunday, 23 January 2022 at 21:54)

(This preprocessor is the default preprocessor used by FlatCAM.)
(It is made to work with MACH3 compatible motion controllers.)

(TOOL DIAMETER: 1.2 mm)
(Feedrate_XY: 100.0 mm/min)
(Feedrate_Z: 60.0 mm/min)
(Feedrate rapids 1500.0 mm/min)

(Z_Cut: -1.8 mm)
(DepthPerCut: 0.5 mm <=>4 passes)
(Z_Move: 2.0 mm)
(Z Start: None mm)
(Z End: 5.0 mm)
(X,Y End: None mm)
(Steps per circle: 64)
(Preprocessor Geometry: Default_no_M6)

(X range:   -3.6000 ...   54.7400  mm)
(Y range:   -3.6000 ...   38.5202  mm)

(Spindle Speed: 1000.0 RPM)
G21
G90
G94

G01 F100.00

M5
G00 Z15.0000
G00 X0.0000 Y0.0000
T1
(MSG, Change to Tool Dia = 1.2000)
M0
G00 Z15.0000
        
M03 S1000.0
G4 P1.0
G01 F100.00
G00 X51.1400 Y-3.6000
G01 F60.00
G01 Z-0.5000
G01 F100.00
G01 X0.0000 Y-3.6000
G01 X-0.3529 Y-3.5827
G01 X-0.7023 Y-3.5308
G01 X-1.0450 Y-3.4450
G01 X-1.3777 Y-3.3260
G01 X-1.6970 Y-3.1749
G01 X-2.0001 Y-2.9933
G01 X-2.2838 Y-2.7828
G01 X-2.5456 Y-2.5456
G01 X-2.7828 Y-2.2838
G01 X-2.9933 Y-2.0001
G01 X-3.1749 Y-1.6970
G01 X-3.3260 Y-1.3777
G01 X-3.4450 Y-1.0450
G01 X-3.5308 Y-0.7023
G01 X-3.5827 Y-0.3529
G01 X-3.6000 Y0.0000
G01 X-3.6000 Y34.9202
G01 X-3.5827 Y35.2731
G01 X-3.5308 Y35.6225
G01 X-3.4450 Y35.9652
G01 X-3.3260 Y36.2979
G01 X-3.1749 Y36.6172
G01 X-2.9933 Y36.9203
G01 X-2.7828 Y37.2040
G01 X-2.5456 Y37.4658
G01 X-2.2838 Y37.7030
G01 X-2.0001 Y37.9135
G01 X-1.6970 Y38.0951
G01 X-1.3777 Y38.2462
G01 X-1.0450 Y38.3652
G01 X-0.7023 Y38.4510
G01 X-0.3529 Y38.5029
G01 X0.0000 Y38.5202
G01 X51.1400 Y38.5202
G01 X51.4929 Y38.5029
G01 X51.8423 Y38.4510
G01 X52.1850 Y38.3652
G01 X52.5177 Y38.2462
G01 X52.8370 Y38.0951
G01 X53.1401 Y37.9135
G01 X53.4238 Y37.7030
G01 X53.6856 Y37.4658
G01 X53.9228 Y37.2040
G01 X54.1333 Y36.9203
G01 X54.3149 Y36.6172
G01 X54.4660 Y36.2979
G01 X54.5850 Y35.9652
G01 X54.6708 Y35.6225
G01 X54.7227 Y35.2731
G01 X54.7400 Y34.9202
G01 X54.7400 Y0.0000
G01 X54.7227 Y-0.3529
G01 X54.6708 Y-0.7023
G01 X54.5850 Y-1.0450
G01 X54.4660 Y-1.3777
G01 X54.3149 Y-1.6970
G01 X54.1333 Y-2.0001
G01 X53.9228 Y-2.2838
G01 X53.6856 Y-2.5456
G01 X53.4238 Y-2.7828
G01 X53.1401 Y-2.9933
G01 X52.8370 Y-3.1749
G01 X52.5177 Y-3.3260
G01 X52.1850 Y-3.4450
G01 X51.8423 Y-3.5308
G01 X51.4929 Y-3.5827
G01 X51.1400 Y-3.6000
G00 X51.1400 Y-3.6000
G01 F60.00
G01 Z-1.0000
G01 F100.00
G01 X51.4929 Y-3.5827
G01 X51.8423 Y-3.5308
G01 X52.1850 Y-3.4450
G01 X52.5177 Y-3.3260
G01 X52.8370 Y-3.1749
G01 X53.1401 Y-2.9933
G01 X53.4238 Y-2.7828
G01 X53.6856 Y-2.5456
G01 X53.9228 Y-2.2838
G01 X54.1333 Y-2.0001
G01 X54.3149 Y-1.6970
G01 X54.4660 Y-1.3777
G01 X54.5850 Y-1.0450
G01 X54.6708 Y-0.7023
G01 X54.7227 Y-0.3529
G01 X54.7400 Y0.0000
G01 X54.7400 Y34.9202
G01 X54.7227 Y35.2731
G01 X54.6708 Y35.6225
G01 X54.5850 Y35.9652
G01 X54.4660 Y36.2979
G01 X54.3149 Y36.6172
G01 X54.1333 Y36.9203
G01 X53.9228 Y37.2040
G01 X53.6856 Y37.4658
G01 X53.4238 Y37.7030
G01 X53.1401 Y37.9135
G01 X52.8370 Y38.0951
G01 X52.5177 Y38.2462
G01 X52.1850 Y38.3652
G01 X51.8423 Y38.4510
G01 X51.4929 Y38.5029
G01 X51.1400 Y38.5202
G01 X0.0000 Y38.5202
G01 X-0.3529 Y38.5029
G01 X-0.7023 Y38.4510
G01 X-1.0450 Y38.3652
G01 X-1.3777 Y38.2462
G01 X-1.6970 Y38.0951
G01 X-2.0001 Y37.9135
G01 X-2.2838 Y37.7030
G01 X-2.5456 Y37.4658
G01 X-2.7828 Y37.2040
G01 X-2.9933 Y36.9203
G01 X-3.1749 Y36.6172
G01 X-3.3260 Y36.2979
G01 X-3.4450 Y35.9652
G01 X-3.5308 Y35.6225
G01 X-3.5827 Y35.2731
G01 X-3.6000 Y34.9202
G01 X-3.6000 Y0.0000
G01 X-3.5827 Y-0.3529
G01 X-3.5308 Y-0.7023
G01 X-3.4450 Y-1.0450
G01 X-3.3260 Y-1.3777
G01 X-3.1749 Y-1.6970
G01 X-2.9933 Y-2.0001
G01 X-2.7828 Y-2.2838
G01 X-2.5456 Y-2.5456
G01 X-2.2838 Y-2.7828
G01 X-2.0001 Y-2.9933
G01 X-1.6970 Y-3.1749
G01 X-1.3777 Y-3.3260
G01 X-1.0450 Y-3.4450
G01 X-0.7023 Y-3.5308
G01 X-0.3529 Y-3.5827
G01 X0.0000 Y-3.6000
G01 X51.1400 Y-3.6000
G00 X51.1400 Y-3.6000
G01 F60.00
G01 Z-1.5000
G01 F100.00
G01 X0.0000 Y-3.6000
G01 X-0.3529 Y-3.5827
G01 X-0.7023 Y-3.5308
G01 X-1.0450 Y-3.4450
G01 X-1.3777 Y-3.3260
G01 X-1.6970 Y-3.1749
G01 X-2.0001 Y-2.9933
G01 X-2.2838 Y-2.7828
G01 X-2.5456 Y-2.5456
G01 X-2.7828 Y-2.2838
G01 X-2.9933 Y-2.0001
G01 X-3.1749 Y-1.6970
G01 X-3.3260 Y-1.3777
G01 X-3.4450 Y-1.0450
G01 X-3.5308 Y-0.7023
G01 X-3.5827 Y-0.3529
G01 X-3.6000 Y0.0000
G01 X-3.6000 Y34.9202
G01 X-3.5827 Y35.2731
G01 X-3.5308 Y35.6225
G01 X-3.4450 Y35.9652
G01 X-3.3260 Y36.2979
G01 X-3.1749 Y36.6172
G01 X-2.9933 Y36.9203
G01 X-2.7828 Y37.2040
G01 X-2.5456 Y37.4658
G01 X-2.2838 Y37.7030
G01 X-2.0001 Y37.9135
G01 X-1.6970 Y38.0951
G01 X-1.3777 Y38.2462
G01 X-1.0450 Y38.3652
G01 X-0.7023 Y38.4510
G01 X-0.3529 Y38.5029
G01 X0.0000 Y38.5202
G01 X51.1400 Y38.5202
G01 X51.4929 Y38.5029
G01 X51.8423 Y38.4510
G01 X52.1850 Y38.3652
G01 X52.5177 Y38.2462
G01 X52.8370 Y38.0951
G01 X53.1401 Y37.9135
G01 X53.4238 Y37.7030
G01 X53.6856 Y37.4658
G01 X53.9228 Y37.2040
G01 X54.1333 Y36.9203
G01 X54.3149 Y36.6172
G01 X54.4660 Y36.2979
G01 X54.5850 Y35.9652
G01 X54.6708 Y35.6225
G01 X54.7227 Y35.2731
G01 X54.7400 Y34.9202
G01 X54.7400 Y0.0000
G01 X54.7227 Y-0.3529
G01 X54.6708 Y-0.7023
G01 X54.5850 Y-1.0450
G01 X54.4660 Y-1.3777
G01 X54.3149 Y-1.6970
G01 X54.1333 Y-2.0001
G01 X53.9228 Y-2.2838
G01 X53.6856 Y-2.5456
G01 X53.4238 Y-2.7828
G01 X53.1401 Y-2.9933
G01 X52.8370 Y-3.1749
G01 X52.5177 Y-3.3260
G01 X52.1850 Y-3.4450
G01 X51.8423 Y-3.5308
G01 X51.4929 Y-3.5827
G01 X51.1400 Y-3.6000
G00 X51.1400 Y-3.6000
G01 F60.00
G01 Z-1.8000
G01 F100.00
G01 X51.4929 Y-3.5827
G01 X51.8423 Y-3.5308
G01 X52.1850 Y-3.4450
G01 X52.5177 Y-3.3260
G01 X52.8370 Y-3.1749
G01 X53.1401 Y-2.9933
G01 X53.4238 Y-2.7828
G01 X53.6856 Y-2.5456
G01 X53.9228 Y-2.2838
G01 X54.1333 Y-2.0001
G01 X54.3149 Y-1.6970
G01 X54.4660 Y-1.3777
G01 X54.5850 Y-1.0450
G01 X54.6708 Y-0.7023
G01 X54.7227 Y-0.3529
G01 X54.7400 Y0.0000
G01 X54.7400 Y34.9202
G01 X54.7227 Y35.2731
G01 X54.6708 Y35.6225
G01 X54.5850 Y35.9652
G01 X54.4660 Y36.2979
G01 X54.3149 Y36.6172
G01 X54.1333 Y36.9203
G01 X53.9228 Y37.2040
G01 X53.6856 Y37.4658
G01 X53.4238 Y37.7030
G01 X53.1401 Y37.9135
G01 X52.8370 Y38.0951
G01 X52.5177 Y38.2462
G01 X52.1850 Y38.3652
G01 X51.8423 Y38.4510
G01 X51.4929 Y38.5029
G01 X51.1400 Y38.5202
G01 X0.0000 Y38.5202
G01 X-0.3529 Y38.5029
G01 X-0.7023 Y38.4510
G01 X-1.0450 Y38.3652
G01 X-1.3777 Y38.2462
G01 X-1.6970 Y38.0951
G01 X-2.0001 Y37.9135
G01 X-2.2838 Y37.7030
G01 X-2.5456 Y37.4658
G01 X-2.7828 Y37.2040
G01 X-2.9933 Y36.9203
G01 X-3.1749 Y36.6172
G01 X-3.3260 Y36.2979
G01 X-3.4450 Y35.9652
G01 X-3.5308 Y35.6225
G01 X-3.5827 Y35.2731
G01 X-3.6000 Y34.9202
G01 X-3.6000 Y0.0000
G01 X-3.5827 Y-0.3529
G01 X-3.5308 Y-0.7023
G01 X-3.4450 Y-1.0450
G01 X-3.3260 Y-1.3777
G01 X-3.1749 Y-1.6970
G01 X-2.9933 Y-2.0001
G01 X-2.7828 Y-2.2838
G01 X-2.5456 Y-2.5456
G01 X-2.2838 Y-2.7828
G01 X-2.0001 Y-2.9933
G01 X-1.6970 Y-3.1749
G01 X-1.3777 Y-3.3260
G01 X-1.0450 Y-3.4450
G01 X-0.7023 Y-3.5308
G01 X-0.3529 Y-3.5827
G01 X0.0000 Y-3.6000
G01 X51.1400 Y-3.6000
G00 Z2.0000
M05
G00 Z2.0000
G00 Z5.00


