(G-CODE GENERATED BY FLATCAM v8.994 - www.flatcam.org - Version Date: 2020/11/7)

(Name: 3018Pendant-B_Cu.gbr_cutout_cnc)
(Type: G-code from Geometry)
(Units: MM)

(Created on Thursday, 27 January 2022 at 18:09)

(This preprocessor is the default preprocessor used by FlatCAM.)
(It is made to work with MACH3 compatible motion controllers.)

(TOOL DIAMETER: 1.2 mm)
(Feedrate_XY: 120.0 mm/min)
(Feedrate_Z: 60.0 mm/min)
(Feedrate rapids 1500.0 mm/min)

(Z_Cut: -1.8 mm)
(DepthPerCut: 0.5 mm <=>4 passes)
(Z_Move: 2.0 mm)
(Z Start: None mm)
(Z End: 5.0 mm)
(X,Y End: None mm)
(Steps per circle: 64)
(Preprocessor Geometry: Default_no_M6)

(X range:    0.8900 ...   63.5450  mm)
(Y range:    1.1498 ...   47.2502  mm)

(Spindle Speed: 1000.0 RPM)
G21
G90
G94

G01 F120.00

M5
G00 Z15.0000
G00 X0.0000 Y0.0000
T1
(MSG, Change to Tool Dia = 1.2000)
M0
G00 Z15.0000
        
M03 S1000.0
G4 P1.0
G01 F120.00
G00 X0.8900 Y26.2000
G01 F60.00
G01 Z-0.5000
G01 F120.00
G01 X0.8900 Y4.7498
G01 X0.9073 Y4.3969
G01 X0.9592 Y4.0475
G01 X1.0450 Y3.7048
G01 X1.1640 Y3.3721
G01 X1.3151 Y3.0528
G01 X1.4967 Y2.7497
G01 X1.7072 Y2.4660
G01 X1.9444 Y2.2042
G01 X2.2062 Y1.9670
G01 X2.4899 Y1.7565
G01 X2.7930 Y1.5749
G01 X3.1123 Y1.4238
G01 X3.4450 Y1.3048
G01 X3.7877 Y1.2190
G01 X4.1371 Y1.1671
G01 X4.4900 Y1.1498
G01 X34.2175 Y1.1498
G00 X34.2175 Y1.1498
G01 F60.00
G01 Z-1.0000
G01 F120.00
G01 X4.4900 Y1.1498
G01 X4.1371 Y1.1671
G01 X3.7877 Y1.2190
G01 X3.4450 Y1.3048
G01 X3.1123 Y1.4238
G01 X2.7930 Y1.5749
G01 X2.4899 Y1.7565
G01 X2.2062 Y1.9670
G01 X1.9444 Y2.2042
G01 X1.7072 Y2.4660
G01 X1.4967 Y2.7497
G01 X1.3151 Y3.0528
G01 X1.1640 Y3.3721
G01 X1.0450 Y3.7048
G01 X0.9592 Y4.0475
G01 X0.9073 Y4.3969
G01 X0.8900 Y4.7498
G01 X0.8900 Y26.2000
G00 X0.8900 Y26.2000
G01 F60.00
G01 Z-1.5000
G01 F120.00
G01 X0.8900 Y4.7498
G01 X0.9073 Y4.3969
G01 X0.9592 Y4.0475
G01 X1.0450 Y3.7048
G01 X1.1640 Y3.3721
G01 X1.3151 Y3.0528
G01 X1.4967 Y2.7497
G01 X1.7072 Y2.4660
G01 X1.9444 Y2.2042
G01 X2.2062 Y1.9670
G01 X2.4899 Y1.7565
G01 X2.7930 Y1.5749
G01 X3.1123 Y1.4238
G01 X3.4450 Y1.3048
G01 X3.7877 Y1.2190
G01 X4.1371 Y1.1671
G01 X4.4900 Y1.1498
G01 X34.2175 Y1.1498
G00 X34.2175 Y1.1498
G01 F60.00
G01 Z-1.8000
G01 F120.00
G01 X4.4900 Y1.1498
G01 X4.1371 Y1.1671
G01 X3.7877 Y1.2190
G01 X3.4450 Y1.3048
G01 X3.1123 Y1.4238
G01 X2.7930 Y1.5749
G01 X2.4899 Y1.7565
G01 X2.2062 Y1.9670
G01 X1.9444 Y2.2042
G01 X1.7072 Y2.4660
G01 X1.4967 Y2.7497
G01 X1.3151 Y3.0528
G01 X1.1640 Y3.3721
G01 X1.0450 Y3.7048
G01 X0.9592 Y4.0475
G01 X0.9073 Y4.3969
G01 X0.8900 Y4.7498
G01 X0.8900 Y26.2000
G00 Z2.0000
G00 X0.8900 Y28.2000
G01 F60.00
G01 Z-0.5000
G01 F120.00
G01 X0.8900 Y43.6502
G01 X0.9073 Y44.0031
G01 X0.9592 Y44.3525
G01 X1.0450 Y44.6952
G01 X1.1640 Y45.0279
G01 X1.3151 Y45.3472
G01 X1.4967 Y45.6503
G01 X1.7072 Y45.9340
G01 X1.9444 Y46.1958
G01 X2.2062 Y46.4330
G01 X2.4899 Y46.6435
G01 X2.7930 Y46.8251
G01 X3.1123 Y46.9762
G01 X3.4450 Y47.0952
G01 X3.7877 Y47.1810
G01 X4.1371 Y47.2329
G01 X4.4900 Y47.2502
G01 X34.2175 Y47.2502
G00 X34.2175 Y47.2502
G01 F60.00
G01 Z-1.0000
G01 F120.00
G01 X4.4900 Y47.2502
G01 X4.1371 Y47.2329
G01 X3.7877 Y47.1810
G01 X3.4450 Y47.0952
G01 X3.1123 Y46.9762
G01 X2.7930 Y46.8251
G01 X2.4899 Y46.6435
G01 X2.2062 Y46.4330
G01 X1.9444 Y46.1958
G01 X1.7072 Y45.9340
G01 X1.4967 Y45.6503
G01 X1.3151 Y45.3472
G01 X1.1640 Y45.0279
G01 X1.0450 Y44.6952
G01 X0.9592 Y44.3525
G01 X0.9073 Y44.0031
G01 X0.8900 Y43.6502
G01 X0.8900 Y28.2000
G00 X0.8900 Y28.2000
G01 F60.00
G01 Z-1.5000
G01 F120.00
G01 X0.8900 Y43.6502
G01 X0.9073 Y44.0031
G01 X0.9592 Y44.3525
G01 X1.0450 Y44.6952
G01 X1.1640 Y45.0279
G01 X1.3151 Y45.3472
G01 X1.4967 Y45.6503
G01 X1.7072 Y45.9340
G01 X1.9444 Y46.1958
G01 X2.2062 Y46.4330
G01 X2.4899 Y46.6435
G01 X2.7930 Y46.8251
G01 X3.1123 Y46.9762
G01 X3.4450 Y47.0952
G01 X3.7877 Y47.1810
G01 X4.1371 Y47.2329
G01 X4.4900 Y47.2502
G01 X34.2175 Y47.2502
G00 X34.2175 Y47.2502
G01 F60.00
G01 Z-1.8000
G01 F120.00
G01 X4.4900 Y47.2502
G01 X4.1371 Y47.2329
G01 X3.7877 Y47.1810
G01 X3.4450 Y47.0952
G01 X3.1123 Y46.9762
G01 X2.7930 Y46.8251
G01 X2.4899 Y46.6435
G01 X2.2062 Y46.4330
G01 X1.9444 Y46.1958
G01 X1.7072 Y45.9340
G01 X1.4967 Y45.6503
G01 X1.3151 Y45.3472
G01 X1.1640 Y45.0279
G01 X1.0450 Y44.6952
G01 X0.9592 Y44.3525
G01 X0.9073 Y44.0031
G01 X0.8900 Y43.6502
G01 X0.8900 Y28.2000
G00 Z2.0000
G00 X36.2175 Y47.2502
G01 F60.00
G01 Z-0.5000
G01 F120.00
G01 X59.9450 Y47.2502
G01 X60.2979 Y47.2329
G01 X60.6473 Y47.1810
G01 X60.9900 Y47.0952
G01 X61.3227 Y46.9762
G01 X61.6420 Y46.8251
G01 X61.9451 Y46.6435
G01 X62.2288 Y46.4330
G01 X62.4906 Y46.1958
G01 X62.7278 Y45.9340
G01 X62.9383 Y45.6503
G01 X63.1199 Y45.3472
G01 X63.2710 Y45.0279
G01 X63.3900 Y44.6952
G01 X63.4758 Y44.3525
G01 X63.5277 Y44.0031
G01 X63.5450 Y43.6502
G01 X63.5450 Y28.2000
G00 X63.5450 Y28.2000
G01 F60.00
G01 Z-1.0000
G01 F120.00
G01 X63.5450 Y43.6502
G01 X63.5277 Y44.0031
G01 X63.4758 Y44.3525
G01 X63.3900 Y44.6952
G01 X63.2710 Y45.0279
G01 X63.1199 Y45.3472
G01 X62.9383 Y45.6503
G01 X62.7278 Y45.9340
G01 X62.4906 Y46.1958
G01 X62.2288 Y46.4330
G01 X61.9451 Y46.6435
G01 X61.6420 Y46.8251
G01 X61.3227 Y46.9762
G01 X60.9900 Y47.0952
G01 X60.6473 Y47.1810
G01 X60.2979 Y47.2329
G01 X59.9450 Y47.2502
G01 X36.2175 Y47.2502
G00 X36.2175 Y47.2502
G01 F60.00
G01 Z-1.5000
G01 F120.00
G01 X59.9450 Y47.2502
G01 X60.2979 Y47.2329
G01 X60.6473 Y47.1810
G01 X60.9900 Y47.0952
G01 X61.3227 Y46.9762
G01 X61.6420 Y46.8251
G01 X61.9451 Y46.6435
G01 X62.2288 Y46.4330
G01 X62.4906 Y46.1958
G01 X62.7278 Y45.9340
G01 X62.9383 Y45.6503
G01 X63.1199 Y45.3472
G01 X63.2710 Y45.0279
G01 X63.3900 Y44.6952
G01 X63.4758 Y44.3525
G01 X63.5277 Y44.0031
G01 X63.5450 Y43.6502
G01 X63.5450 Y28.2000
G00 X63.5450 Y28.2000
G01 F60.00
G01 Z-1.8000
G01 F120.00
G01 X63.5450 Y43.6502
G01 X63.5277 Y44.0031
G01 X63.4758 Y44.3525
G01 X63.3900 Y44.6952
G01 X63.2710 Y45.0279
G01 X63.1199 Y45.3472
G01 X62.9383 Y45.6503
G01 X62.7278 Y45.9340
G01 X62.4906 Y46.1958
G01 X62.2288 Y46.4330
G01 X61.9451 Y46.6435
G01 X61.6420 Y46.8251
G01 X61.3227 Y46.9762
G01 X60.9900 Y47.0952
G01 X60.6473 Y47.1810
G01 X60.2979 Y47.2329
G01 X59.9450 Y47.2502
G01 X36.2175 Y47.2502
G00 Z2.0000
G00 X63.5450 Y26.2000
G01 F60.00
G01 Z-0.5000
G01 F120.00
G01 X63.5450 Y4.7498
G01 X63.5277 Y4.3969
G01 X63.4758 Y4.0475
G01 X63.3900 Y3.7048
G01 X63.2710 Y3.3721
G01 X63.1199 Y3.0528
G01 X62.9383 Y2.7497
G01 X62.7278 Y2.4660
G01 X62.4906 Y2.2042
G01 X62.2288 Y1.9670
G01 X61.9451 Y1.7565
G01 X61.6420 Y1.5749
G01 X61.3227 Y1.4238
G01 X60.9900 Y1.3048
G01 X60.6473 Y1.2190
G01 X60.2979 Y1.1671
G01 X59.9450 Y1.1498
G01 X36.2175 Y1.1498
G00 X36.2175 Y1.1498
G01 F60.00
G01 Z-1.0000
G01 F120.00
G01 X59.9450 Y1.1498
G01 X60.2979 Y1.1671
G01 X60.6473 Y1.2190
G01 X60.9900 Y1.3048
G01 X61.3227 Y1.4238
G01 X61.6420 Y1.5749
G01 X61.9451 Y1.7565
G01 X62.2288 Y1.9670
G01 X62.4906 Y2.2042
G01 X62.7278 Y2.4660
G01 X62.9383 Y2.7497
G01 X63.1199 Y3.0528
G01 X63.2710 Y3.3721
G01 X63.3900 Y3.7048
G01 X63.4758 Y4.0475
G01 X63.5277 Y4.3969
G01 X63.5450 Y4.7498
G01 X63.5450 Y26.2000
G00 X63.5450 Y26.2000
G01 F60.00
G01 Z-1.5000
G01 F120.00
G01 X63.5450 Y4.7498
G01 X63.5277 Y4.3969
G01 X63.4758 Y4.0475
G01 X63.3900 Y3.7048
G01 X63.2710 Y3.3721
G01 X63.1199 Y3.0528
G01 X62.9383 Y2.7497
G01 X62.7278 Y2.4660
G01 X62.4906 Y2.2042
G01 X62.2288 Y1.9670
G01 X61.9451 Y1.7565
G01 X61.6420 Y1.5749
G01 X61.3227 Y1.4238
G01 X60.9900 Y1.3048
G01 X60.6473 Y1.2190
G01 X60.2979 Y1.1671
G01 X59.9450 Y1.1498
G01 X36.2175 Y1.1498
G00 X36.2175 Y1.1498
G01 F60.00
G01 Z-1.8000
G01 F120.00
G01 X59.9450 Y1.1498
G01 X60.2979 Y1.1671
G01 X60.6473 Y1.2190
G01 X60.9900 Y1.3048
G01 X61.3227 Y1.4238
G01 X61.6420 Y1.5749
G01 X61.9451 Y1.7565
G01 X62.2288 Y1.9670
G01 X62.4906 Y2.2042
G01 X62.7278 Y2.4660
G01 X62.9383 Y2.7497
G01 X63.1199 Y3.0528
G01 X63.2710 Y3.3721
G01 X63.3900 Y3.7048
G01 X63.4758 Y4.0475
G01 X63.5277 Y4.3969
G01 X63.5450 Y4.7498
G01 X63.5450 Y26.2000
G00 Z2.0000
M05
G00 Z2.0000
G00 Z5.00


